( pcb2gcode 2.5.0 )
( Software-independent Gcode )

G94 ( Millimeters per minute feed rate. )
G21 ( Units == Millimeters. )

G90 ( Absolute coordinates. )
G00 S24000 ( RPM spindle speed. )
G01 F680.00000 ( Feedrate. )


G00 Z50.00000 (Retract to tool change height)
T0
M5      (Spindle stop.)
G04 P1.00000 (Wait for spindle to stop)
(MSG, Change tool bit to mill diameter 0.10000mm)
M0      (Temporary machine stop.)
M3 ( Spindle on clockwise. )
G04 P1.00000 (Wait for spindle to get up to speed)
G04 P0 ( dwell for no time -- G64 should not smooth over this point )
G00 Z0.30000 ( retract )

G00 X118.45000 Y-105.39999 ( rapid move to begin. )
G01 F120.00000
( begin pre-milling-gcode )
M7
( end pre-milling-gcode )
( Mill infeed pass 1/1 )
G01 Z-0.05000
G04 P0 ( dwell for no time -- G64 should not smooth over this point )
G01 F680.00000
G01 X118.45000 Y-105.39999
G01 X118.48389 Y-105.72224
G01 X118.58401 Y-106.03042
G01 X118.74602 Y-106.31104
G01 X118.96286 Y-106.55186
G01 X119.22501 Y-106.74231
G01 X119.52102 Y-106.87411
G01 X119.83796 Y-106.94147
G01 X120.13588 Y-106.94284
G01 X120.18785 Y-106.93738
G01 X120.47896 Y-106.87411
G01 X120.75165 Y-106.75419
G01 X120.79691 Y-106.72806
G01 X121.01680 Y-106.56832
G01 X121.05564 Y-106.53332
G01 X121.25394 Y-106.31104
G01 X121.40408 Y-106.05374
G01 X121.42533 Y-106.00599
G01 X121.50933 Y-105.74749
G01 X121.52018 Y-105.69641
G01 X121.54997 Y-105.39999
G01 X121.53829 Y-105.27584
G01 X121.53336 Y-105.27406
G01 X121.53829 Y-105.27584
G01 X123.81418 Y-102.99997
G01 X123.81260 Y-102.99616
G01 X123.81418 Y-102.99997
G01 X130.99999 Y-102.99997
G01 X131.13692 Y-102.98996
G01 X131.17566 Y-102.98382
G01 X131.29011 Y-102.95636
G01 X131.43614 Y-102.89916
G01 X131.57144 Y-102.81989
G01 X131.60317 Y-102.79682
G01 X131.70708 Y-102.70708
G01 X133.20707 Y-101.20706
G01 X133.31683 Y-101.07521
G01 X133.34406 Y-101.03447
G01 X133.41335 Y-100.90480
G01 X133.43209 Y-100.85954
G01 X133.47479 Y-100.71885
G01 X133.48434 Y-100.67079
G01 X133.49996 Y-100.49998
G01 X133.49859 Y-99.47387
G01 X133.47812 Y-99.29208
G01 X133.41353 Y-99.09325
G01 X133.32323 Y-98.93417
G01 X133.29684 Y-98.89680
G01 X133.22041 Y-98.80730
G01 X133.17388 Y-98.76127
G01 X133.07014 Y-98.67905
G01 X133.00695 Y-98.63816
G01 X132.89758 Y-98.58286
G01 X132.79491 Y-98.54484
G01 X132.68371 Y-98.51720
G01 X132.59153 Y-98.50445
G01 X132.48683 Y-98.50034
G01 X132.38419 Y-98.50694
G01 X132.29046 Y-98.52251
G01 X132.18180 Y-98.55213
G01 X132.10235 Y-98.58289
G01 X132.01437 Y-98.62629
G01 X131.95140 Y-98.66401
G01 X131.84462 Y-98.74534
G01 X131.79768 Y-98.78819
G01 X131.68312 Y-98.92469
G01 X131.65592 Y-98.96546
G01 X131.58660 Y-99.09510
G01 X131.56786 Y-99.14039
G01 X131.52516 Y-99.28108
G01 X131.51561 Y-99.32914
G01 X131.50121 Y-99.47547
G01 X131.49999 Y-100.08575
G01 X131.50378 Y-100.08733
G01 X131.49999 Y-100.08575
G01 X130.58577 Y-101.00000
G01 X130.58734 Y-101.00381
G01 X130.58577 Y-101.00000
G01 X123.39998 Y-101.00000
G01 X123.20488 Y-101.01923
G01 X123.04039 Y-101.06787
G01 X122.99511 Y-101.08662
G01 X122.84441 Y-101.16853
G01 X122.69287 Y-101.29289
G01 X120.12864 Y-103.85712
G01 X120.13021 Y-103.86088
G01 X120.12864 Y-103.85712
G01 X119.83796 Y-103.85849
G01 X119.52102 Y-103.92588
G01 X119.22501 Y-104.05765
G01 X118.96286 Y-104.24810
G01 X118.74602 Y-104.48892
G01 X118.58401 Y-104.76956
G01 X118.48389 Y-105.07769
G01 X118.45000 Y-105.39999
G01 X118.49999 Y-105.39999
G01 X118.53278 Y-105.71183
G01 X118.62968 Y-106.01008
G01 X118.78648 Y-106.28165
G01 X118.99631 Y-106.51470
G01 X119.25000 Y-106.69902
G01 X119.53646 Y-106.82656
G01 X119.84319 Y-106.89176
G01 X120.13588 Y-106.89285
G01 X120.17746 Y-106.88848
G01 X120.46351 Y-106.82656
G01 X120.73133 Y-106.70852
G01 X120.76753 Y-106.68762
G01 X120.98741 Y-106.52785
G01 X121.01848 Y-106.49989
G01 X121.21350 Y-106.28165
G01 X121.36079 Y-106.02874
G01 X121.37779 Y-105.99054
G01 X121.46178 Y-105.73207
G01 X121.47047 Y-105.69115
G01 X121.49996 Y-105.39999
G01 X121.48609 Y-105.25732
G01 X121.48109 Y-105.25554
G01 X121.48609 Y-105.25732
G01 X123.79345 Y-102.94996
G01 X123.79188 Y-102.94617
G01 X123.79345 Y-102.94996
G01 X130.99999 Y-102.94996
G01 X131.16400 Y-102.93520
G01 X131.27843 Y-102.90772
G01 X131.41701 Y-102.85298
G01 X131.54530 Y-102.77726
G01 X131.67172 Y-102.67173
G01 X133.17172 Y-101.17171
G01 X133.27817 Y-101.04351
G01 X133.29996 Y-101.01090
G01 X133.36925 Y-100.88126
G01 X133.38426 Y-100.84504
G01 X133.42694 Y-100.70432
G01 X133.43458 Y-100.66589
G01 X133.44995 Y-100.49998
G01 X133.44997 Y-99.49998
G01 X133.42922 Y-99.30247
G01 X133.37535 Y-99.13313
G01 X133.35833 Y-99.09495
G01 X133.27995 Y-98.95916
G01 X133.25881 Y-98.92927
G01 X133.18239 Y-98.83976
G01 X133.12463 Y-98.78479
G01 X133.02221 Y-98.70651
G01 X132.96346 Y-98.67113
G01 X132.87548 Y-98.62772
G01 X132.80093 Y-98.59904
G01 X132.69684 Y-98.57087
G01 X132.58891 Y-98.55439
G01 X132.51050 Y-98.55025
G01 X132.41106 Y-98.55439
G01 X132.30311 Y-98.57090
G01 X132.21767 Y-98.59320
G01 X132.14383 Y-98.61941
G01 X132.01947 Y-98.68060
G01 X131.96049 Y-98.71852
G01 X131.87533 Y-98.78479
G01 X131.81505 Y-98.84278
G01 X131.72178 Y-98.95642
G01 X131.69999 Y-98.98901
G01 X131.63070 Y-99.11867
G01 X131.61569 Y-99.15489
G01 X131.57302 Y-99.29559
G01 X131.56537 Y-99.33404
G01 X131.55000 Y-99.49998
G01 X131.55000 Y-100.10648
G01 X131.55379 Y-100.10805
G01 X131.55000 Y-100.10648
G01 X130.60647 Y-101.05001
G01 X130.60804 Y-101.05380
G01 X130.60647 Y-101.05001
G01 X123.39998 Y-101.05001
G01 X123.21464 Y-101.06825
G01 X123.05490 Y-101.11570
G01 X123.01868 Y-101.13071
G01 X122.87220 Y-101.21011
G01 X122.72823 Y-101.32825
G01 X120.14868 Y-103.90779
G01 X120.15025 Y-103.91158
G01 X120.14868 Y-103.90779
G01 X120.13588 Y-103.90713
G01 X119.84319 Y-103.90820
G01 X119.53646 Y-103.97340
G01 X119.25000 Y-104.10093
G01 X118.99631 Y-104.28529
G01 X118.78648 Y-104.51828
G01 X118.62968 Y-104.78988
G01 X118.53278 Y-105.08813
G01 X118.49999 Y-105.39999
G01 X118.55000 Y-105.39999
G01 X118.58168 Y-105.70146
G01 X118.67535 Y-105.98973
G01 X118.82691 Y-106.25226
G01 X119.02976 Y-106.47754
G01 X119.27500 Y-106.65572
G01 X119.55191 Y-106.77901
G01 X119.84843 Y-106.84203
G01 X120.13588 Y-106.84286
G01 X120.16707 Y-106.83959
G01 X120.44807 Y-106.77901
G01 X120.71099 Y-106.66285
G01 X120.73814 Y-106.64716
G01 X120.95803 Y-106.48742
G01 X120.98132 Y-106.46644
G01 X121.17306 Y-106.25226
G01 X121.31749 Y-106.00375
G01 X121.33024 Y-105.97507
G01 X121.41424 Y-105.71663
G01 X121.42074 Y-105.68595
G01 X121.44997 Y-105.39999
G01 X121.43387 Y-105.23885
G01 X121.42884 Y-105.23708
G01 X121.43387 Y-105.23885
G01 X123.77275 Y-102.89995
G01 X123.77118 Y-102.89616
G01 X123.77275 Y-102.89995
G01 X130.99999 Y-102.89995
G01 X131.15232 Y-102.88656
G01 X131.26677 Y-102.85913
G01 X131.39788 Y-102.80680
G01 X131.51919 Y-102.73464
G01 X131.63636 Y-102.63637
G01 X133.13636 Y-101.13635
G01 X133.23954 Y-101.01179
G01 X133.25587 Y-100.98735
G01 X133.33641 Y-100.83051
G01 X133.38482 Y-100.66099
G01 X133.39996 Y-100.49998
G01 X133.39999 Y-99.49998
G01 X133.38030 Y-99.31286
G01 X133.32780 Y-99.14860
G01 X133.31505 Y-99.11994
G01 X133.23664 Y-98.98416
G01 X133.14436 Y-98.87224
G01 X133.09394 Y-98.82424
G01 X132.99582 Y-98.74898
G01 X132.94134 Y-98.71596
G01 X132.85335 Y-98.67255
G01 X132.78363 Y-98.64595
G01 X132.68419 Y-98.61926
G01 X132.58627 Y-98.60432
G01 X132.50786 Y-98.60018
G01 X132.41371 Y-98.60432
G01 X132.31574 Y-98.61926
G01 X132.23032 Y-98.64159
G01 X132.16110 Y-98.66633
G01 X132.05861 Y-98.71596
G01 X131.99118 Y-98.75799
G01 X131.90604 Y-98.82426
G01 X131.85371 Y-98.87448
G01 X131.74408 Y-99.01258
G01 X131.67479 Y-99.14225
G01 X131.62084 Y-99.31011
G01 X131.59999 Y-99.49998
G01 X131.59999 Y-100.12718
G01 X131.60380 Y-100.12876
G01 X131.59999 Y-100.12718
G01 X130.62720 Y-101.10000
G01 X130.62877 Y-101.10381
G01 X130.62720 Y-101.10000
G01 X123.39998 Y-101.10000
G01 X123.21012 Y-101.12085
G01 X123.04225 Y-101.17480
G01 X122.89996 Y-101.25166
G01 X122.76358 Y-101.36360
G01 X120.16682 Y-103.96035
G01 X120.16842 Y-103.96423
G01 X120.16682 Y-103.96035
G01 X120.13588 Y-103.95712
G01 X119.84843 Y-103.95791
G01 X119.55191 Y-104.02098
G01 X119.27500 Y-104.14427
G01 X119.02976 Y-104.32242
G01 X118.82691 Y-104.54767
G01 X118.67535 Y-104.81023
G01 X118.58168 Y-105.09852
G01 X118.55000 Y-105.39999
G01 X118.59999 Y-105.39999
G01 X118.63057 Y-105.69105
G01 X118.72102 Y-105.96941
G01 X118.86738 Y-106.22288
G01 X119.06321 Y-106.44035
G01 X119.29999 Y-106.61241
G01 X119.56738 Y-106.73146
G01 X119.85366 Y-106.79232
G01 X120.15666 Y-106.79067
G01 X120.43260 Y-106.73146
G01 X120.69067 Y-106.61716
G01 X120.94416 Y-106.43296
G01 X121.13260 Y-106.22288
G01 X121.28269 Y-105.95966
G01 X121.37103 Y-105.68069
G01 X121.39999 Y-105.39999
G01 X121.38165 Y-105.22036
G01 X121.37662 Y-105.21859
G01 X121.38165 Y-105.22036
G01 X123.75205 Y-102.84998
G01 X123.75048 Y-102.84617
G01 X123.75205 Y-102.84998
G01 X130.99999 Y-102.84998
G01 X131.14066 Y-102.83797
G01 X131.27002 Y-102.80566
G01 X131.37873 Y-102.76063
G01 X131.49308 Y-102.69200
G01 X131.60103 Y-102.60101
G01 X133.10103 Y-101.10099
G01 X133.21177 Y-100.96378
G01 X133.28858 Y-100.81600
G01 X133.33509 Y-100.65609
G01 X133.34997 Y-100.49998
G01 X133.34997 Y-99.49998
G01 X133.33141 Y-99.32327
G01 X133.27174 Y-99.14494
G01 X133.19336 Y-99.00915
G01 X133.10634 Y-98.90470
G01 X133.06323 Y-98.86371
G01 X132.96943 Y-98.79145
G01 X132.91922 Y-98.76079
G01 X132.83123 Y-98.71738
G01 X132.76633 Y-98.69287
G01 X132.67157 Y-98.66762
G01 X132.58363 Y-98.65423
G01 X132.49471 Y-98.65012
G01 X132.40662 Y-98.65523
G01 X132.32839 Y-98.66762
G01 X132.24294 Y-98.68995
G01 X132.17840 Y-98.71324
G01 X132.08074 Y-98.76079
G01 X132.02188 Y-98.79744
G01 X131.93672 Y-98.86371
G01 X131.89234 Y-98.90620
G01 X131.79323 Y-99.02774
G01 X131.71889 Y-99.16582
G01 X131.66486 Y-99.34385
G01 X131.64998 Y-99.49998
G01 X131.64998 Y-100.14788
G01 X131.65379 Y-100.14946
G01 X131.64998 Y-100.14788
G01 X130.64790 Y-101.14999
G01 X130.64947 Y-101.15380
G01 X130.64790 Y-101.14999
G01 X123.39998 Y-101.14999
G01 X123.23415 Y-101.16632
G01 X123.07468 Y-101.21468
G01 X122.92774 Y-101.29324
G01 X122.79894 Y-101.39896
G01 X120.18300 Y-104.01488
G01 X120.18462 Y-104.01892
G01 X120.18300 Y-104.01488
G01 X120.13588 Y-104.00711
G01 X119.85366 Y-104.00764
G01 X119.56738 Y-104.06852
G01 X119.29999 Y-104.18755
G01 X119.06321 Y-104.35958
G01 X118.86738 Y-104.57706
G01 X118.72102 Y-104.83055
G01 X118.63057 Y-105.10891
G01 X118.59999 Y-105.39999
G01 X118.64998 Y-105.39999
G01 X118.67949 Y-105.68066
G01 X118.76669 Y-105.94906
G01 X118.90781 Y-106.19349
G01 X119.09666 Y-106.40324
G01 X119.32498 Y-106.56913
G01 X119.58282 Y-106.68391
G01 X119.85887 Y-106.74259
G01 X120.14627 Y-106.74177
G01 X120.41716 Y-106.68391
G01 X120.67032 Y-106.57149
G01 X120.90702 Y-106.39953
G01 X121.09216 Y-106.19349
G01 X121.23514 Y-105.94419
G01 X121.32130 Y-105.67551
G01 X121.35000 Y-105.39999
G01 X121.32945 Y-105.20190
G01 X123.73135 Y-102.80000
G01 X130.99999 Y-102.80000
G01 X131.12897 Y-102.78938
G01 X131.25087 Y-102.75948
G01 X131.35961 Y-102.71442
G01 X131.46695 Y-102.64938
G01 X131.56568 Y-102.56566
G01 X133.06567 Y-101.06563
G01 X133.16768 Y-100.94021
G01 X133.24073 Y-100.80150
G01 X133.28533 Y-100.65118
G01 X133.29999 Y-100.49998
G01 X133.29999 Y-99.49998
G01 X133.28251 Y-99.33366
G01 X133.22844 Y-99.16993
G01 X133.15005 Y-99.03414
G01 X133.06834 Y-98.93717
G01 X133.03253 Y-98.90315
G01 X132.94736 Y-98.83691
G01 X132.90139 Y-98.80801
G01 X132.80911 Y-98.76221
G01 X132.74904 Y-98.73978
G01 X132.65892 Y-98.71601
G01 X132.58102 Y-98.70417
G01 X132.49735 Y-98.70003
G01 X132.41411 Y-98.70465
G01 X132.34101 Y-98.71601
G01 X132.25559 Y-98.73831
G01 X132.19567 Y-98.76013
G01 X132.10286 Y-98.80562
G01 X132.05259 Y-98.83691
G01 X131.96743 Y-98.90318
G01 X131.93100 Y-98.93793
G01 X131.83479 Y-99.05550
G01 X131.76298 Y-99.18939
G01 X131.71462 Y-99.34875
G01 X131.69997 Y-99.49998
G01 X131.69997 Y-100.16861
G01 X130.66860 Y-101.19998
G01 X123.39998 Y-101.19998
G01 X123.23915 Y-101.21656
G01 X123.08939 Y-101.26299
G01 X122.95551 Y-101.33480
G01 X122.83427 Y-101.43429
G01 X120.19915 Y-104.06944
G01 X120.13588 Y-104.05712
G01 X119.85887 Y-104.05735
G01 X119.58282 Y-104.11607
G01 X119.32498 Y-104.23083
G01 X119.09666 Y-104.39674
G01 X118.90781 Y-104.60647
G01 X118.76669 Y-104.85090
G01 X118.67949 Y-105.11930
G01 X118.64998 Y-105.39999
G04 P0 ( dwell for no time -- G64 should not smooth over this point )
G00 Z0.30000 ( retract )

G00 X118.45000 Y-100.31999 ( rapid move to begin. )
G01 F120.00000
( begin pre-milling-gcode )
M7
( end pre-milling-gcode )
( Mill infeed pass 1/1 )
G01 Z-0.05000
G04 P0 ( dwell for no time -- G64 should not smooth over this point )
G01 F680.00000
G01 X118.45000 Y-100.31999
G01 X118.48389 Y-100.64224
G01 X118.58401 Y-100.95042
G01 X118.74602 Y-101.23104
G01 X118.96286 Y-101.47186
G01 X119.22501 Y-101.66231
G01 X119.52102 Y-101.79408
G01 X119.83796 Y-101.86147
G01 X120.16202 Y-101.86147
G01 X120.47896 Y-101.79408
G01 X120.75165 Y-101.67417
G01 X120.79691 Y-101.64806
G01 X121.01680 Y-101.48832
G01 X121.05564 Y-101.45334
G01 X121.25394 Y-101.23104
G01 X121.41596 Y-100.95042
G01 X121.51609 Y-100.64224
G01 X121.53242 Y-100.49995
G01 X121.52170 Y-100.48766
G01 X121.53242 Y-100.49995
G01 X129.99999 Y-100.49998
G01 X130.07810 Y-100.49314
G01 X130.15448 Y-100.47549
G01 X130.22666 Y-100.44486
G01 X130.27193 Y-100.41872
G01 X130.33454 Y-100.37155
G01 X130.38800 Y-100.31420
G01 X130.41874 Y-100.27194
G01 X130.45674 Y-100.20336
G01 X130.48905 Y-100.10394
G01 X130.49997 Y-99.99998
G01 X130.49997 Y-98.99998
G01 X130.49313 Y-98.92187
G01 X130.48226 Y-98.87077
G01 X130.45674 Y-98.79663
G01 X130.44487 Y-98.77331
G01 X130.40449 Y-98.70610
G01 X130.33454 Y-98.62843
G01 X130.24998 Y-98.56699
G01 X130.17891 Y-98.53386
G01 X130.15448 Y-98.52447
G01 X130.07810 Y-98.50684
G01 X130.01307 Y-98.50036
G01 X120.81998 Y-98.49998
G01 X120.68302 Y-98.50999
G01 X120.52983 Y-98.54359
G01 X120.38381 Y-98.60077
G01 X120.34886 Y-98.61857
G01 X120.21678 Y-98.70313
G01 X120.13011 Y-98.77712
G01 X120.13115 Y-98.78002
G01 X120.13011 Y-98.77712
G01 X119.83796 Y-98.77849
G01 X119.54629 Y-98.83910
G01 X119.49659 Y-98.85525
G01 X119.24830 Y-98.96579
G01 X119.20306 Y-98.99193
G01 X118.96286 Y-99.16813
G01 X118.74602 Y-99.40892
G01 X118.58401 Y-99.68956
G01 X118.49064 Y-99.97244
G01 X118.47977 Y-100.02357
G01 X118.45000 Y-100.31999
G01 X118.49999 Y-100.31999
G01 X118.53278 Y-100.63185
G01 X118.62219 Y-100.91054
G01 X118.63918 Y-100.94874
G01 X118.78648 Y-101.20165
G01 X118.98150 Y-101.41989
G01 X119.01256 Y-101.44788
G01 X119.25000 Y-101.61902
G01 X119.53646 Y-101.74656
G01 X119.84319 Y-101.81176
G01 X120.15678 Y-101.81176
G01 X120.46351 Y-101.74656
G01 X120.73133 Y-101.62850
G01 X120.76753 Y-101.60762
G01 X120.98741 Y-101.44788
G01 X121.01848 Y-101.41989
G01 X121.21350 Y-101.20165
G01 X121.37029 Y-100.93008
G01 X121.46719 Y-100.63185
G01 X121.48741 Y-100.44996
G01 X121.47601 Y-100.43724
G01 X121.48741 Y-100.44996
G01 X129.99999 Y-100.44996
G01 X130.06771 Y-100.44422
G01 X130.13903 Y-100.42794
G01 X130.20632 Y-100.39919
G01 X130.24254 Y-100.37829
G01 X130.30109 Y-100.33439
G01 X130.35087 Y-100.28075
G01 X130.37543 Y-100.24692
G01 X130.41107 Y-100.18301
G01 X130.44015 Y-100.09355
G01 X130.44998 Y-99.99998
G01 X130.44998 Y-98.99998
G01 X130.44340 Y-98.92711
G01 X130.43471 Y-98.88621
G01 X130.41107 Y-98.81697
G01 X130.37543 Y-98.75304
G01 X130.35087 Y-98.71923
G01 X130.28483 Y-98.65241
G01 X130.22499 Y-98.61029
G01 X130.13903 Y-98.57202
G01 X130.06771 Y-98.55573
G01 X130.01046 Y-98.55027
G01 X120.81998 Y-98.54999
G01 X120.68696 Y-98.55982
G01 X120.54152 Y-98.59221
G01 X120.37497 Y-98.66119
G01 X120.24924 Y-98.74113
G01 X120.15975 Y-98.81758
G01 X120.14868 Y-98.82779
G01 X120.14977 Y-98.83076
G01 X120.14868 Y-98.82779
G01 X120.13588 Y-98.82713
G01 X119.84319 Y-98.82822
G01 X119.55668 Y-98.88799
G01 X119.51693 Y-98.90092
G01 X119.26865 Y-99.01146
G01 X119.23245 Y-99.03236
G01 X118.99631 Y-99.20529
G01 X118.78648 Y-99.43831
G01 X118.62968 Y-99.70988
G01 X118.53819 Y-99.98791
G01 X118.52951 Y-100.02881
G01 X118.49999 Y-100.31999
G01 X118.55000 Y-100.31999
G01 X118.58168 Y-100.62147
G01 X118.66974 Y-100.89510
G01 X118.68249 Y-100.92375
G01 X118.82691 Y-101.17226
G01 X119.01866 Y-101.38644
G01 X119.04195 Y-101.40742
G01 X119.27500 Y-101.57572
G01 X119.55191 Y-101.69901
G01 X119.84843 Y-101.76203
G01 X120.15155 Y-101.76203
G01 X120.44807 Y-101.69901
G01 X120.71099 Y-101.58285
G01 X120.73814 Y-101.56716
G01 X120.95803 Y-101.40742
G01 X120.98132 Y-101.38644
G01 X121.17306 Y-101.17226
G01 X121.32462 Y-100.90975
G01 X121.41830 Y-100.62147
G01 X121.44240 Y-100.39995
G01 X121.43095 Y-100.38720
G01 X121.44240 Y-100.39995
G01 X129.99999 Y-100.39998
G01 X130.05730 Y-100.39533
G01 X130.12359 Y-100.38039
G01 X130.21315 Y-100.33785
G01 X130.26763 Y-100.29723
G01 X130.31371 Y-100.24730
G01 X130.36540 Y-100.16266
G01 X130.39123 Y-100.08314
G01 X130.39997 Y-99.99998
G01 X130.39997 Y-98.99998
G01 X130.38717 Y-98.90166
G01 X130.36540 Y-98.83729
G01 X130.33212 Y-98.77803
G01 X130.31371 Y-98.75269
G01 X130.25544 Y-98.69287
G01 X130.19999 Y-98.65357
G01 X130.12359 Y-98.61956
G01 X130.05730 Y-98.60465
G01 X130.00784 Y-98.60021
G01 X120.81998 Y-98.59998
G01 X120.69087 Y-98.60968
G01 X120.55318 Y-98.64082
G01 X120.42206 Y-98.69315
G01 X120.30075 Y-98.76533
G01 X120.19222 Y-98.85558
G01 X120.16679 Y-98.88035
G01 X120.16803 Y-98.88365
G01 X120.16679 Y-98.88035
G01 X120.13588 Y-98.87712
G01 X119.86410 Y-98.87712
G01 X119.83291 Y-98.88040
G01 X119.55191 Y-98.94098
G01 X119.28899 Y-99.05713
G01 X119.26181 Y-99.07280
G01 X119.02976 Y-99.24242
G01 X118.82691 Y-99.46770
G01 X118.67535 Y-99.73023
G01 X118.58574 Y-100.00336
G01 X118.57924 Y-100.03401
G01 X118.55000 Y-100.31999
G01 X118.59999 Y-100.31999
G01 X118.63057 Y-100.61105
G01 X118.71729 Y-100.87966
G01 X118.86738 Y-101.14288
G01 X119.05579 Y-101.35298
G01 X119.29999 Y-101.53241
G01 X119.56738 Y-101.65146
G01 X119.85366 Y-101.71232
G01 X120.14632 Y-101.71232
G01 X120.43260 Y-101.65146
G01 X120.69067 Y-101.53716
G01 X120.94416 Y-101.35298
G01 X121.13260 Y-101.14288
G01 X121.27895 Y-100.88941
G01 X121.36938 Y-100.61105
G01 X121.39739 Y-100.34996
G01 X121.38589 Y-100.33716
G01 X121.39739 Y-100.34996
G01 X129.99999 Y-100.34999
G01 X130.04691 Y-100.34643
G01 X130.10815 Y-100.33284
G01 X130.18376 Y-100.29739
G01 X130.23418 Y-100.26007
G01 X130.27655 Y-100.21385
G01 X130.31973 Y-100.14234
G01 X130.34234 Y-100.07275
G01 X130.34998 Y-99.99998
G01 X130.34998 Y-98.99998
G01 X130.33962 Y-98.91710
G01 X130.31973 Y-98.85764
G01 X130.28884 Y-98.80305
G01 X130.22605 Y-98.73331
G01 X130.17497 Y-98.69688
G01 X130.10815 Y-98.66711
G01 X130.04691 Y-98.65355
G01 X129.99999 Y-98.64999
G01 X120.81998 Y-98.64997
G01 X120.69478 Y-98.65952
G01 X120.56486 Y-98.68944
G01 X120.44119 Y-98.73932
G01 X120.32686 Y-98.80796
G01 X120.22468 Y-98.89360
G01 X120.18297 Y-98.93488
G01 X120.18427 Y-98.93844
G01 X120.18297 Y-98.93488
G01 X120.13588 Y-98.92711
G01 X119.84332 Y-98.92929
G01 X119.56738 Y-98.98852
G01 X119.29120 Y-99.11326
G01 X119.06321 Y-99.27958
G01 X118.86738 Y-99.49708
G01 X118.72102 Y-99.75055
G01 X118.62895 Y-100.03925
G01 X118.59999 Y-100.31999
G01 X118.64998 Y-100.31999
G01 X118.67949 Y-100.60066
G01 X118.76484 Y-100.86419
G01 X118.90781 Y-101.11349
G01 X119.09295 Y-101.31953
G01 X119.32498 Y-101.48913
G01 X119.58282 Y-101.60391
G01 X119.85887 Y-101.66259
G01 X120.14111 Y-101.66259
G01 X120.41716 Y-101.60391
G01 X120.67499 Y-101.48913
G01 X120.90331 Y-101.32324
G01 X121.08886 Y-101.11755
G01 X121.23329 Y-100.86909
G01 X121.31914 Y-100.60572
G01 X121.34972 Y-100.32522
G01 X121.34817 Y-100.29998
G01 X129.99999 Y-100.29998
G01 X130.03652 Y-100.29751
G01 X130.08762 Y-100.28667
G01 X130.14998 Y-100.25979
G01 X130.20444 Y-100.21923
G01 X130.24269 Y-100.17633
G01 X130.27167 Y-100.12667
G01 X130.29425 Y-100.05718
G01 X130.29999 Y-99.99998
G01 X130.29999 Y-98.99998
G01 X130.29344 Y-98.93762
G01 X130.27406 Y-98.87796
G01 X130.24554 Y-98.82805
G01 X130.19667 Y-98.77374
G01 X130.14998 Y-98.74019
G01 X130.09270 Y-98.71466
G01 X130.03652 Y-98.70244
G01 X129.99999 Y-98.69998
G01 X120.81998 Y-98.69996
G01 X120.69872 Y-98.70935
G01 X120.57652 Y-98.73806
G01 X120.45333 Y-98.78908
G01 X120.34665 Y-98.85520
G01 X120.25716 Y-98.93163
G01 X120.19912 Y-98.98944
G01 X120.13588 Y-98.97712
G01 X119.85887 Y-98.97737
G01 X119.58282 Y-99.03607
G01 X119.32498 Y-99.15086
G01 X119.10073 Y-99.31344
G01 X118.90781 Y-99.52647
G01 X118.76669 Y-99.77090
G01 X118.67949 Y-100.03930
G01 X118.64998 Y-100.31999
G04 P0 ( dwell for no time -- G64 should not smooth over this point )
G00 Z0.30000 ( retract )

G00 X118.45000 Y-95.23999 ( rapid move to begin. )
G01 F120.00000
( begin pre-milling-gcode )
M7
( end pre-milling-gcode )
( Mill infeed pass 1/1 )
G01 Z-0.05000
G04 P0 ( dwell for no time -- G64 should not smooth over this point )
G01 F680.00000
G01 X118.45000 Y-95.23999
G01 X118.48389 Y-95.56224
G01 X118.58401 Y-95.87042
G01 X118.74602 Y-96.15104
G01 X118.96286 Y-96.39186
G01 X119.22501 Y-96.58231
G01 X119.52102 Y-96.71411
G01 X119.83796 Y-96.78147
G01 X120.12866 Y-96.78284
G01 X120.13021 Y-96.77908
G01 X120.12866 Y-96.78284
G01 X120.55287 Y-97.20707
G01 X120.70441 Y-97.33143
G01 X120.85510 Y-97.41334
G01 X120.90039 Y-97.43209
G01 X121.04108 Y-97.47479
G01 X121.08914 Y-97.48434
G01 X121.25998 Y-97.49996
G01 X129.49999 Y-97.49996
G01 X129.59141 Y-97.49551
G01 X129.70937 Y-97.47745
G01 X129.81833 Y-97.44779
G01 X129.89753 Y-97.41710
G01 X129.98552 Y-97.37372
G01 X130.04874 Y-97.33582
G01 X130.17398 Y-97.23862
G01 X130.22354 Y-97.18888
G01 X130.31683 Y-97.07524
G01 X130.34404 Y-97.03448
G01 X130.41335 Y-96.90484
G01 X130.43210 Y-96.85955
G01 X130.47480 Y-96.71886
G01 X130.48435 Y-96.67080
G01 X130.49997 Y-96.49917
G01 X130.47812 Y-96.29209
G01 X130.41351 Y-96.09325
G01 X130.32323 Y-95.93415
G01 X130.29684 Y-95.89681
G01 X130.22042 Y-95.80730
G01 X130.17388 Y-95.76128
G01 X130.07015 Y-95.67906
G01 X130.00695 Y-95.63816
G01 X129.89758 Y-95.58287
G01 X129.81823 Y-95.55216
G01 X129.70944 Y-95.52252
G01 X129.61582 Y-95.50695
G01 X129.49999 Y-95.49999
G01 X121.67418 Y-95.49999
G01 X121.67260 Y-95.50380
G01 X121.67418 Y-95.49999
G01 X121.53829 Y-95.36412
G01 X121.53369 Y-95.36585
G01 X121.53829 Y-95.36412
G01 X121.54997 Y-95.23999
G01 X121.51609 Y-94.91772
G01 X121.42533 Y-94.63397
G01 X121.40408 Y-94.58625
G01 X121.25394 Y-94.32892
G01 X121.05564 Y-94.10662
G01 X121.01680 Y-94.07167
G01 X120.79691 Y-93.91193
G01 X120.75165 Y-93.88579
G01 X120.47896 Y-93.76588
G01 X120.18785 Y-93.70258
G01 X120.13588 Y-93.69712
G01 X119.83796 Y-93.69849
G01 X119.54629 Y-93.75910
G01 X119.49659 Y-93.77525
G01 X119.22501 Y-93.89765
G01 X118.96286 Y-94.08813
G01 X118.74602 Y-94.32892
G01 X118.58401 Y-94.60956
G01 X118.49064 Y-94.89244
G01 X118.47977 Y-94.94357
G01 X118.45000 Y-95.23999
G01 X118.49999 Y-95.23999
G01 X118.53278 Y-95.55185
G01 X118.62219 Y-95.83054
G01 X118.63918 Y-95.86874
G01 X118.78648 Y-96.12165
G01 X118.98150 Y-96.33989
G01 X119.01256 Y-96.36788
G01 X119.25000 Y-96.53902
G01 X119.53646 Y-96.66656
G01 X119.82252 Y-96.72848
G01 X119.86410 Y-96.73285
G01 X120.13588 Y-96.73285
G01 X120.14871 Y-96.73219
G01 X120.15025 Y-96.72838
G01 X120.14871 Y-96.73219
G01 X120.58823 Y-97.17171
G01 X120.71642 Y-97.27816
G01 X120.74901 Y-97.29996
G01 X120.87868 Y-97.36925
G01 X120.91490 Y-97.38426
G01 X121.05559 Y-97.42693
G01 X121.09404 Y-97.43458
G01 X121.25998 Y-97.44994
G01 X129.49999 Y-97.44994
G01 X129.60843 Y-97.44359
G01 X129.69677 Y-97.42907
G01 X129.80101 Y-97.40090
G01 X129.87541 Y-97.37225
G01 X129.98064 Y-97.31931
G01 X130.03941 Y-97.28144
G01 X130.13954 Y-97.20237
G01 X130.18491 Y-97.15716
G01 X130.28986 Y-97.02775
G01 X130.36926 Y-96.88126
G01 X130.38427 Y-96.84504
G01 X130.42694 Y-96.70435
G01 X130.43459 Y-96.66590
G01 X130.44998 Y-96.49935
G01 X130.43248 Y-96.32315
G01 X130.42379 Y-96.28226
G01 X130.37536 Y-96.13313
G01 X130.35834 Y-96.09493
G01 X130.27995 Y-95.95917
G01 X130.25882 Y-95.92927
G01 X130.18239 Y-95.83976
G01 X130.13947 Y-95.79755
G01 X130.02222 Y-95.70651
G01 X129.96347 Y-95.67111
G01 X129.87546 Y-95.62772
G01 X129.80093 Y-95.59905
G01 X129.69682 Y-95.57088
G01 X129.58889 Y-95.55439
G01 X129.49999 Y-95.55000
G01 X121.65345 Y-95.55000
G01 X121.65190 Y-95.55378
G01 X121.65345 Y-95.55000
G01 X121.48609 Y-95.38261
G01 X121.48109 Y-95.38439
G01 X121.48609 Y-95.38261
G01 X121.49996 Y-95.23999
G01 X121.47047 Y-94.94881
G01 X121.46178 Y-94.90791
G01 X121.37779 Y-94.64944
G01 X121.36079 Y-94.61124
G01 X121.21350 Y-94.35831
G01 X121.01848 Y-94.14007
G01 X120.98741 Y-94.11211
G01 X120.76753 Y-93.95236
G01 X120.73133 Y-93.93146
G01 X120.46351 Y-93.81343
G01 X120.17746 Y-93.75150
G01 X120.13588 Y-93.74713
G01 X119.84319 Y-93.74823
G01 X119.55668 Y-93.80799
G01 X119.51693 Y-93.82092
G01 X119.25000 Y-93.94096
G01 X118.99631 Y-94.12529
G01 X118.78648 Y-94.35831
G01 X118.62968 Y-94.62988
G01 X118.53819 Y-94.90791
G01 X118.52951 Y-94.94881
G01 X118.49999 Y-95.23999
G01 X118.55000 Y-95.23999
G01 X118.58168 Y-95.54146
G01 X118.66974 Y-95.81510
G01 X118.68249 Y-95.84375
G01 X118.82691 Y-96.09226
G01 X119.01866 Y-96.30644
G01 X119.04195 Y-96.32742
G01 X119.27500 Y-96.49572
G01 X119.55191 Y-96.61901
G01 X119.83291 Y-96.67959
G01 X119.86410 Y-96.68286
G01 X120.13588 Y-96.68286
G01 X120.16684 Y-96.67961
G01 X120.16842 Y-96.67573
G01 X120.16684 Y-96.67961
G01 X120.62358 Y-97.13636
G01 X120.75996 Y-97.24829
G01 X120.90225 Y-97.32515
G01 X120.92943 Y-97.33641
G01 X121.07012 Y-97.37910
G01 X121.24527 Y-97.39925
G01 X129.49999 Y-97.39996
G01 X129.60091 Y-97.39417
G01 X129.68414 Y-97.38070
G01 X129.78371 Y-97.35398
G01 X129.85331 Y-97.32742
G01 X129.95422 Y-97.27684
G01 X130.00873 Y-97.24197
G01 X130.10512 Y-97.16610
G01 X130.14625 Y-97.12546
G01 X130.24830 Y-96.99998
G01 X130.32516 Y-96.85769
G01 X130.37911 Y-96.68982
G01 X130.38483 Y-96.66100
G01 X130.39997 Y-96.49950
G01 X130.38277 Y-96.32838
G01 X130.37624 Y-96.29770
G01 X130.32781 Y-96.14858
G01 X130.31503 Y-96.11995
G01 X130.22080 Y-95.96173
G01 X130.14437 Y-95.87225
G01 X130.10505 Y-95.83382
G01 X129.99583 Y-95.74898
G01 X129.94135 Y-95.71596
G01 X129.85336 Y-95.67255
G01 X129.78364 Y-95.64596
G01 X129.68420 Y-95.61927
G01 X129.58625 Y-95.60430
G01 X129.49999 Y-95.59999
G01 X121.63275 Y-95.59999
G01 X121.63118 Y-95.60377
G01 X121.63275 Y-95.59999
G01 X121.43387 Y-95.40110
G01 X121.42884 Y-95.40288
G01 X121.43387 Y-95.40110
G01 X121.44997 Y-95.23999
G01 X121.42074 Y-94.95401
G01 X121.41424 Y-94.92336
G01 X121.33024 Y-94.66489
G01 X121.31749 Y-94.63623
G01 X121.18160 Y-94.40088
G01 X121.16318 Y-94.37550
G01 X120.97022 Y-94.16242
G01 X120.73814 Y-93.99280
G01 X120.71099 Y-93.97713
G01 X120.44807 Y-93.86098
G01 X120.16707 Y-93.80040
G01 X120.13588 Y-93.79712
G01 X119.84843 Y-93.79793
G01 X119.56707 Y-93.85691
G01 X119.53725 Y-93.86659
G01 X119.27500 Y-93.98427
G01 X119.02976 Y-94.16242
G01 X118.82691 Y-94.38770
G01 X118.67535 Y-94.65023
G01 X118.58168 Y-94.93852
G01 X118.55000 Y-95.23999
G01 X118.59999 Y-95.23999
G01 X118.63329 Y-95.54116
G01 X118.72102 Y-95.80941
G01 X118.86166 Y-96.05411
G01 X119.06321 Y-96.28038
G01 X119.29999 Y-96.45241
G01 X119.56738 Y-96.57146
G01 X119.84332 Y-96.63067
G01 X120.13588 Y-96.63285
G01 X120.18300 Y-96.62508
G01 X120.18462 Y-96.62102
G01 X120.18300 Y-96.62508
G01 X120.65894 Y-97.10100
G01 X120.78774 Y-97.20671
G01 X120.94393 Y-97.28858
G01 X121.09414 Y-97.33364
G01 X121.25018 Y-97.34949
G01 X129.49999 Y-97.34997
G01 X129.58359 Y-97.34573
G01 X129.67152 Y-97.33232
G01 X129.75699 Y-97.31004
G01 X129.83121 Y-97.28258
G01 X129.91920 Y-97.23920
G01 X129.96949 Y-97.20847
G01 X130.06321 Y-97.13628
G01 X130.10761 Y-97.09374
G01 X130.20672 Y-96.97220
G01 X130.28859 Y-96.81601
G01 X130.33510 Y-96.65609
G01 X130.34945 Y-96.48955
G01 X130.33141 Y-96.32325
G01 X130.27650 Y-96.15427
G01 X130.19334 Y-96.00916
G01 X130.10634 Y-95.90471
G01 X130.06324 Y-95.86371
G01 X129.96944 Y-95.79145
G01 X129.91922 Y-95.76079
G01 X129.83124 Y-95.71739
G01 X129.75702 Y-95.68995
G01 X129.67157 Y-95.66763
G01 X129.58364 Y-95.65424
G01 X129.49999 Y-95.64997
G01 X121.61205 Y-95.64997
G01 X121.61048 Y-95.65378
G01 X121.61205 Y-95.64997
G01 X121.38165 Y-95.41960
G01 X121.37662 Y-95.42137
G01 X121.38165 Y-95.41960
G01 X121.39999 Y-95.23999
G01 X121.37103 Y-94.95925
G01 X121.27420 Y-94.66123
G01 X121.12602 Y-94.40896
G01 X120.93677 Y-94.19958
G01 X120.70875 Y-94.03326
G01 X120.43260 Y-93.90852
G01 X120.13588 Y-93.84711
G01 X119.85366 Y-93.84767
G01 X119.57748 Y-93.90581
G01 X119.29999 Y-94.02755
G01 X119.06321 Y-94.19958
G01 X118.86738 Y-94.41708
G01 X118.72102 Y-94.67055
G01 X118.63329 Y-94.93880
G01 X118.59999 Y-95.23999
G01 X118.64998 Y-95.23999
G01 X118.67949 Y-95.52066
G01 X118.76908 Y-95.79374
G01 X118.90781 Y-96.03349
G01 X119.09295 Y-96.23953
G01 X119.32498 Y-96.40913
G01 X119.58282 Y-96.52391
G01 X119.85371 Y-96.58177
G01 X120.13588 Y-96.58286
G01 X120.19915 Y-96.57052
G01 X120.69427 Y-97.06567
G01 X120.81157 Y-97.16221
G01 X120.95843 Y-97.24072
G01 X121.10875 Y-97.28533
G01 X121.25998 Y-97.29998
G01 X129.49999 Y-97.29998
G01 X129.58100 Y-97.29582
G01 X129.65892 Y-97.28396
G01 X129.74437 Y-97.26165
G01 X129.80911 Y-97.23773
G01 X129.89710 Y-97.19434
G01 X129.94307 Y-97.16602
G01 X130.03253 Y-97.09681
G01 X130.06895 Y-97.06201
G01 X130.16517 Y-96.94443
G01 X130.23908 Y-96.80613
G01 X130.28534 Y-96.65119
G01 X130.29971 Y-96.49475
G01 X130.28249 Y-96.33367
G01 X130.23083 Y-96.17459
G01 X130.15006 Y-96.03415
G01 X130.06835 Y-95.93717
G01 X130.03253 Y-95.90316
G01 X129.94305 Y-95.83390
G01 X129.89710 Y-95.80562
G01 X129.80911 Y-95.76222
G01 X129.74439 Y-95.73832
G01 X129.65892 Y-95.71601
G01 X129.58102 Y-95.70418
G01 X129.49999 Y-95.69996
G01 X121.59135 Y-95.69996
G01 X121.32945 Y-95.43809
G01 X121.35000 Y-95.23999
G01 X121.32048 Y-94.95930
G01 X121.23329 Y-94.69090
G01 X121.09216 Y-94.44647
G01 X120.90331 Y-94.23674
G01 X120.67499 Y-94.07086
G01 X120.41716 Y-93.95607
G01 X120.14111 Y-93.89737
G01 X119.85887 Y-93.89737
G01 X119.58282 Y-93.95607
G01 X119.32498 Y-94.07086
G01 X119.09666 Y-94.23674
G01 X118.90781 Y-94.44647
G01 X118.76669 Y-94.69090
G01 X118.67949 Y-94.95930
G01 X118.64998 Y-95.23999
G04 P0 ( dwell for no time -- G64 should not smooth over this point )
G00 Z0.30000 ( retract )

G00 X118.45000 Y-90.15999 ( rapid move to begin. )
G01 F120.00000
( begin pre-milling-gcode )
M7
( end pre-milling-gcode )
( Mill infeed pass 1/1 )
G01 Z-0.05000
G04 P0 ( dwell for no time -- G64 should not smooth over this point )
G01 F680.00000
G01 X118.45000 Y-90.15999
G01 X118.48389 Y-90.48224
G01 X118.58401 Y-90.79042
G01 X118.74602 Y-91.07104
G01 X118.96286 Y-91.31186
G01 X119.22501 Y-91.50231
G01 X119.52102 Y-91.63411
G01 X119.83796 Y-91.70147
G01 X120.12866 Y-91.70284
G01 X120.13021 Y-91.69908
G01 X120.12866 Y-91.70284
G01 X123.13288 Y-94.70708
G01 X123.28441 Y-94.83143
G01 X123.43511 Y-94.91335
G01 X123.48040 Y-94.93209
G01 X123.64489 Y-94.98073
G01 X123.83999 Y-94.99996
G01 X130.58577 Y-94.99996
G01 X130.58734 Y-94.99615
G01 X130.58577 Y-94.99996
G01 X131.49999 Y-95.91418
G01 X131.50378 Y-95.91261
G01 X131.49999 Y-95.91418
G01 X131.50121 Y-96.52447
G01 X131.51561 Y-96.67080
G01 X131.52516 Y-96.71886
G01 X131.56786 Y-96.85955
G01 X131.58660 Y-96.90484
G01 X131.65592 Y-97.03448
G01 X131.68312 Y-97.07524
G01 X131.79755 Y-97.21162
G01 X131.84467 Y-97.25467
G01 X131.95127 Y-97.33585
G01 X132.01444 Y-97.37372
G01 X132.10243 Y-97.41710
G01 X132.18165 Y-97.44779
G01 X132.29057 Y-97.47745
G01 X132.38406 Y-97.49302
G01 X132.48693 Y-97.49960
G01 X132.59143 Y-97.49551
G01 X132.68383 Y-97.48271
G01 X132.79483 Y-97.45518
G01 X132.89750 Y-97.41710
G01 X133.00707 Y-97.36173
G01 X133.07009 Y-97.32091
G01 X133.17400 Y-97.23859
G01 X133.22036 Y-97.19267
G01 X133.31193 Y-97.08363
G01 X133.34403 Y-97.03448
G01 X133.41335 Y-96.90484
G01 X133.43209 Y-96.85955
G01 X133.47479 Y-96.71886
G01 X133.48434 Y-96.67083
G01 X133.49877 Y-96.52452
G01 X133.49996 Y-95.49996
G01 X133.48995 Y-95.36303
G01 X133.45635 Y-95.20984
G01 X133.39917 Y-95.06382
G01 X133.38137 Y-95.02887
G01 X133.29684 Y-94.89679
G01 X133.20707 Y-94.79288
G01 X131.70708 Y-93.29288
G01 X131.55554 Y-93.16852
G01 X131.40484 Y-93.08661
G01 X131.35955 Y-93.06786
G01 X131.19506 Y-93.01922
G01 X130.99999 Y-92.99999
G01 X124.25418 Y-92.99999
G01 X124.25261 Y-93.00380
G01 X124.25418 Y-92.99999
G01 X121.53829 Y-90.28412
G01 X121.53336 Y-90.28590
G01 X121.53829 Y-90.28412
G01 X121.54997 Y-90.15999
G01 X121.51609 Y-89.83772
G01 X121.42533 Y-89.55397
G01 X121.40408 Y-89.50625
G01 X121.25394 Y-89.24892
G01 X121.05564 Y-89.02662
G01 X121.01680 Y-88.99167
G01 X120.77497 Y-88.81765
G01 X120.47896 Y-88.68588
G01 X120.18785 Y-88.62258
G01 X120.13588 Y-88.61712
G01 X119.86410 Y-88.61712
G01 X119.81213 Y-88.62258
G01 X119.52102 Y-88.68588
G01 X119.24830 Y-88.80579
G01 X119.20306 Y-88.83193
G01 X118.96286 Y-89.00813
G01 X118.74602 Y-89.24892
G01 X118.58401 Y-89.52956
G01 X118.48389 Y-89.83772
G01 X118.45000 Y-90.15999
G01 X118.49999 Y-90.15999
G01 X118.53278 Y-90.47185
G01 X118.62219 Y-90.75054
G01 X118.63918 Y-90.78874
G01 X118.78648 Y-91.04165
G01 X118.98150 Y-91.25989
G01 X119.01256 Y-91.28788
G01 X119.25000 Y-91.45902
G01 X119.53646 Y-91.58656
G01 X119.84319 Y-91.65176
G01 X120.13588 Y-91.65285
G01 X120.14871 Y-91.65219
G01 X120.15025 Y-91.64838
G01 X120.14871 Y-91.65219
G01 X123.16823 Y-94.67172
G01 X123.31220 Y-94.78985
G01 X123.45868 Y-94.86925
G01 X123.49490 Y-94.88427
G01 X123.65464 Y-94.93171
G01 X123.83999 Y-94.94995
G01 X130.60650 Y-94.94995
G01 X130.60807 Y-94.94617
G01 X130.60650 Y-94.94995
G01 X131.55000 Y-95.89346
G01 X131.55379 Y-95.89188
G01 X131.55000 Y-95.89346
G01 X131.55000 Y-96.49998
G01 X131.56537 Y-96.66590
G01 X131.57302 Y-96.70435
G01 X131.61569 Y-96.84504
G01 X131.63070 Y-96.88126
G01 X131.69999 Y-97.01093
G01 X131.72178 Y-97.04352
G01 X131.81505 Y-97.15716
G01 X131.87538 Y-97.21520
G01 X131.96052 Y-97.28144
G01 X132.01934 Y-97.31931
G01 X132.14370 Y-97.38050
G01 X132.21774 Y-97.40679
G01 X132.30319 Y-97.42907
G01 X132.41117 Y-97.44560
G01 X132.48955 Y-97.44969
G01 X132.58881 Y-97.44560
G01 X132.69676 Y-97.42907
G01 X132.80103 Y-97.40087
G01 X132.87540 Y-97.37227
G01 X132.96341 Y-97.32889
G01 X133.02231 Y-97.29335
G01 X133.12457 Y-97.21522
G01 X133.18236 Y-97.16021
G01 X133.25879 Y-97.07072
G01 X133.29996 Y-97.01093
G01 X133.36925 Y-96.88126
G01 X133.38426 Y-96.84504
G01 X133.42694 Y-96.70435
G01 X133.43458 Y-96.66590
G01 X133.44997 Y-96.49998
G01 X133.44995 Y-95.49996
G01 X133.43519 Y-95.33595
G01 X133.39803 Y-95.19168
G01 X133.33875 Y-95.05498
G01 X133.27725 Y-94.95465
G01 X133.17172 Y-94.82823
G01 X131.67172 Y-93.32824
G01 X131.52775 Y-93.21010
G01 X131.38127 Y-93.13070
G01 X131.34505 Y-93.11569
G01 X131.18531 Y-93.06824
G01 X130.99999 Y-93.05000
G01 X124.23346 Y-93.05000
G01 X124.23188 Y-93.05379
G01 X124.23346 Y-93.05000
G01 X121.48609 Y-90.30261
G01 X121.48109 Y-90.30439
G01 X121.48609 Y-90.30261
G01 X121.49996 Y-90.15999
G01 X121.47047 Y-89.86881
G01 X121.46178 Y-89.82791
G01 X121.37029 Y-89.54988
G01 X121.21350 Y-89.27831
G01 X121.01848 Y-89.06007
G01 X120.98741 Y-89.03211
G01 X120.74997 Y-88.86096
G01 X120.46351 Y-88.73343
G01 X120.17746 Y-88.67150
G01 X120.13588 Y-88.66713
G01 X119.84319 Y-88.66822
G01 X119.55668 Y-88.72799
G01 X119.51693 Y-88.74092
G01 X119.26865 Y-88.85146
G01 X119.23245 Y-88.87236
G01 X118.99631 Y-89.04529
G01 X118.78648 Y-89.27831
G01 X118.62968 Y-89.54988
G01 X118.53278 Y-89.84813
G01 X118.49999 Y-90.15999
G01 X118.55000 Y-90.15999
G01 X118.58168 Y-90.46147
G01 X118.66974 Y-90.73510
G01 X118.68249 Y-90.76375
G01 X118.82691 Y-91.01226
G01 X119.01866 Y-91.22644
G01 X119.04195 Y-91.24742
G01 X119.27500 Y-91.41572
G01 X119.55191 Y-91.53901
G01 X119.84843 Y-91.60203
G01 X120.13588 Y-91.60286
G01 X120.16684 Y-91.59961
G01 X120.16842 Y-91.59573
G01 X120.16684 Y-91.59961
G01 X123.20359 Y-94.63636
G01 X123.33996 Y-94.74830
G01 X123.48225 Y-94.82516
G01 X123.65012 Y-94.87911
G01 X123.83999 Y-94.89996
G01 X130.62720 Y-94.89996
G01 X130.62877 Y-94.89615
G01 X130.62720 Y-94.89996
G01 X131.59999 Y-95.87276
G01 X131.60380 Y-95.87118
G01 X131.59999 Y-95.87276
G01 X131.59999 Y-96.49998
G01 X131.62084 Y-96.68982
G01 X131.67479 Y-96.85769
G01 X131.74408 Y-96.98736
G01 X131.85371 Y-97.12546
G01 X131.90606 Y-97.17575
G01 X131.99123 Y-97.24197
G01 X132.05866 Y-97.28403
G01 X132.16103 Y-97.33359
G01 X132.23037 Y-97.35840
G01 X132.31581 Y-97.38070
G01 X132.41378 Y-97.39566
G01 X132.49217 Y-97.39975
G01 X132.58620 Y-97.39566
G01 X132.68414 Y-97.38070
G01 X132.78371 Y-97.35398
G01 X132.85330 Y-97.32742
G01 X132.94129 Y-97.28403
G01 X132.99590 Y-97.25091
G01 X133.09389 Y-97.17575
G01 X133.14434 Y-97.12772
G01 X133.22079 Y-97.03826
G01 X133.25587 Y-96.98736
G01 X133.32516 Y-96.85769
G01 X133.37911 Y-96.68982
G01 X133.39999 Y-96.49998
G01 X133.39996 Y-95.49996
G01 X133.38658 Y-95.34764
G01 X133.35183 Y-95.21081
G01 X133.29613 Y-95.08112
G01 X133.23463 Y-94.98076
G01 X133.13636 Y-94.86359
G01 X131.63636 Y-93.36359
G01 X131.49999 Y-93.25165
G01 X131.35770 Y-93.17479
G01 X131.18983 Y-93.12084
G01 X130.99999 Y-93.09999
G01 X124.21276 Y-93.09999
G01 X124.21118 Y-93.10380
G01 X124.21276 Y-93.09999
G01 X121.43387 Y-90.32110
G01 X121.42884 Y-90.32288
G01 X121.43387 Y-90.32110
G01 X121.44997 Y-90.15999
G01 X121.42074 Y-89.87401
G01 X121.41424 Y-89.84336
G01 X121.32462 Y-89.57023
G01 X121.18160 Y-89.32088
G01 X121.16318 Y-89.29550
G01 X120.97022 Y-89.08242
G01 X120.72498 Y-88.90427
G01 X120.44807 Y-88.78098
G01 X120.15155 Y-88.71793
G01 X119.84843 Y-88.71793
G01 X119.56707 Y-88.77691
G01 X119.53725 Y-88.78659
G01 X119.28899 Y-88.89713
G01 X119.26181 Y-88.91280
G01 X119.02976 Y-89.08242
G01 X118.83680 Y-89.29550
G01 X118.81838 Y-89.32088
G01 X118.67535 Y-89.57023
G01 X118.58168 Y-89.85852
G01 X118.55000 Y-90.15999
G01 X118.59999 Y-90.15999
G01 X118.63057 Y-90.45105
G01 X118.71729 Y-90.71966
G01 X118.86738 Y-90.98288
G01 X119.05579 Y-91.19298
G01 X119.29999 Y-91.37241
G01 X119.56738 Y-91.49146
G01 X119.85366 Y-91.55232
G01 X120.13588 Y-91.55285
G01 X120.18300 Y-91.54508
G01 X120.18462 Y-91.54102
G01 X120.18300 Y-91.54508
G01 X123.23895 Y-94.60100
G01 X123.36775 Y-94.70672
G01 X123.50582 Y-94.78107
G01 X123.67415 Y-94.83364
G01 X123.83999 Y-94.84998
G01 X130.64790 Y-94.84998
G01 X130.64947 Y-94.84617
G01 X130.64790 Y-94.84998
G01 X131.64998 Y-95.85206
G01 X131.65379 Y-95.85048
G01 X131.64998 Y-95.85206
G01 X131.64998 Y-96.49998
G01 X131.66486 Y-96.65609
G01 X131.71889 Y-96.83412
G01 X131.79323 Y-96.97220
G01 X131.89234 Y-97.09374
G01 X131.93674 Y-97.13628
G01 X132.02191 Y-97.20250
G01 X132.08076 Y-97.23920
G01 X132.17835 Y-97.28670
G01 X132.24299 Y-97.31004
G01 X132.32841 Y-97.33232
G01 X132.41637 Y-97.34573
G01 X132.49476 Y-97.34984
G01 X132.58361 Y-97.34573
G01 X132.67152 Y-97.33232
G01 X132.76638 Y-97.30710
G01 X132.83120 Y-97.28258
G01 X132.91919 Y-97.23920
G01 X132.96948 Y-97.20847
G01 X133.06321 Y-97.13628
G01 X133.10634 Y-97.09526
G01 X133.18277 Y-97.00577
G01 X133.21177 Y-96.96379
G01 X133.28858 Y-96.81601
G01 X133.33125 Y-96.67532
G01 X133.34997 Y-96.49998
G01 X133.34997 Y-95.49996
G01 X133.33799 Y-95.35930
G01 X133.30565 Y-95.22993
G01 X133.26062 Y-95.12122
G01 X133.19199 Y-95.00690
G01 X133.10100 Y-94.89895
G01 X131.60101 Y-93.39895
G01 X131.47220 Y-93.29323
G01 X131.33413 Y-93.21889
G01 X131.16580 Y-93.16631
G01 X130.99999 Y-93.14998
G01 X124.19206 Y-93.14998
G01 X124.19048 Y-93.15379
G01 X124.19206 Y-93.14998
G01 X121.38165 Y-90.33960
G01 X121.37662 Y-90.34137
G01 X121.38165 Y-90.33960
G01 X121.39999 Y-90.15999
G01 X121.37103 Y-89.87925
G01 X121.27895 Y-89.59055
G01 X121.12602 Y-89.32896
G01 X120.93677 Y-89.11958
G01 X120.69999 Y-88.94755
G01 X120.43260 Y-88.82852
G01 X120.13588 Y-88.76711
G01 X119.84332 Y-88.76929
G01 X119.56738 Y-88.82852
G01 X119.30931 Y-88.94280
G01 X119.06321 Y-89.11958
G01 X118.86738 Y-89.33708
G01 X118.72102 Y-89.59055
G01 X118.63057 Y-89.86891
G01 X118.59999 Y-90.15999
G01 X118.64998 Y-90.15999
G01 X118.68084 Y-89.87424
G01 X118.76669 Y-89.61090
G01 X118.90781 Y-89.36647
G01 X119.10073 Y-89.15344
G01 X119.32498 Y-88.99086
G01 X119.57792 Y-88.87793
G01 X119.85887 Y-88.81737
G01 X120.14111 Y-88.81737
G01 X120.41716 Y-88.87607
G01 X120.67499 Y-88.99086
G01 X120.90702 Y-89.16045
G01 X121.09216 Y-89.36647
G01 X121.23329 Y-89.61090
G01 X121.32130 Y-89.88448
G01 X121.35000 Y-90.15999
G01 X121.32945 Y-90.35809
G01 X124.17135 Y-93.19997
G01 X130.99999 Y-93.19997
G01 X131.16080 Y-93.21655
G01 X131.31056 Y-93.26298
G01 X131.44444 Y-93.33479
G01 X131.56568 Y-93.43428
G01 X133.06567 Y-94.93428
G01 X133.14937 Y-95.03301
G01 X133.21086 Y-95.13336
G01 X133.25947 Y-95.24909
G01 X133.28937 Y-95.37098
G01 X133.29999 Y-95.49996
G01 X133.29999 Y-96.49998
G01 X133.28340 Y-96.66079
G01 X133.23908 Y-96.80613
G01 X133.16768 Y-96.94022
G01 X133.14477 Y-96.97331
G01 X133.06831 Y-97.06277
G01 X133.03253 Y-97.09681
G01 X132.94733 Y-97.16305
G01 X132.90141 Y-97.19196
G01 X132.80911 Y-97.23773
G01 X132.74906 Y-97.26018
G01 X132.65892 Y-97.28396
G01 X132.58099 Y-97.29582
G01 X132.49737 Y-97.29991
G01 X132.41899 Y-97.29582
G01 X132.34104 Y-97.28393
G01 X132.25562 Y-97.26165
G01 X132.19565 Y-97.23979
G01 X132.10289 Y-97.19434
G01 X132.05259 Y-97.16305
G01 X131.96745 Y-97.09681
G01 X131.93100 Y-97.06201
G01 X131.83479 Y-96.94443
G01 X131.76298 Y-96.81055
G01 X131.71462 Y-96.65119
G01 X131.69997 Y-96.49998
G01 X131.69997 Y-95.83136
G01 X130.66860 Y-94.79999
G01 X123.83999 Y-94.79999
G01 X123.67915 Y-94.78340
G01 X123.52939 Y-94.73697
G01 X123.39551 Y-94.66516
G01 X123.27428 Y-94.56567
G01 X120.19915 Y-91.49052
G01 X120.13588 Y-91.50286
G01 X119.85887 Y-91.50259
G01 X119.58282 Y-91.44391
G01 X119.32498 Y-91.32913
G01 X119.09666 Y-91.16324
G01 X118.90781 Y-90.95349
G01 X118.76669 Y-90.70909
G01 X118.67949 Y-90.44066
G01 X118.64998 Y-90.15999
G04 P0 ( dwell for no time -- G64 should not smooth over this point )
G00 Z0.30000 ( retract )

G00 X118.45000 Y-85.07999 ( rapid move to begin. )
G01 F120.00000
( begin pre-milling-gcode )
M7
( end pre-milling-gcode )
( Mill infeed pass 1/1 )
G01 Z-0.05000
G04 P0 ( dwell for no time -- G64 should not smooth over this point )
G01 F680.00000
G01 X118.45000 Y-85.07999
G01 X118.48389 Y-85.40224
G01 X118.58401 Y-85.71042
G01 X118.74602 Y-85.99104
G01 X118.94434 Y-86.21334
G01 X118.98318 Y-86.24832
G01 X119.20306 Y-86.40806
G01 X119.24830 Y-86.43419
G01 X119.52102 Y-86.55411
G01 X119.81213 Y-86.61738
G01 X119.86410 Y-86.62284
G01 X120.16202 Y-86.62147
G01 X120.47896 Y-86.55411
G01 X120.77497 Y-86.42231
G01 X121.03712 Y-86.23186
G01 X121.25394 Y-85.99104
G01 X121.41596 Y-85.71042
G01 X121.51609 Y-85.40224
G01 X121.54997 Y-85.07999
G01 X121.51609 Y-84.75772
G01 X121.41596 Y-84.44956
G01 X121.25394 Y-84.16892
G01 X121.05564 Y-83.94662
G01 X121.01680 Y-83.91167
G01 X120.77497 Y-83.73765
G01 X120.50339 Y-83.61525
G01 X120.45368 Y-83.59910
G01 X120.18785 Y-83.54258
G01 X120.13588 Y-83.53712
G01 X119.86410 Y-83.53712
G01 X119.81213 Y-83.54258
G01 X119.52102 Y-83.60588
G01 X119.24830 Y-83.72579
G01 X119.20306 Y-83.75193
G01 X118.96286 Y-83.92813
G01 X118.74602 Y-84.16892
G01 X118.59588 Y-84.42625
G01 X118.57464 Y-84.47397
G01 X118.48389 Y-84.75772
G01 X118.45138 Y-85.05386
G01 X118.45000 Y-85.07999
G01 X118.49999 Y-85.07999
G01 X118.53278 Y-85.39185
G01 X118.62219 Y-85.67054
G01 X118.63918 Y-85.70874
G01 X118.78648 Y-85.96165
G01 X118.98150 Y-86.17989
G01 X119.01256 Y-86.20788
G01 X119.25000 Y-86.37902
G01 X119.51693 Y-86.49907
G01 X119.55668 Y-86.51197
G01 X119.82252 Y-86.56848
G01 X119.86410 Y-86.57285
G01 X120.15678 Y-86.57176
G01 X120.46351 Y-86.50656
G01 X120.74997 Y-86.37902
G01 X120.98741 Y-86.20788
G01 X121.01848 Y-86.17989
G01 X121.21350 Y-85.96165
G01 X121.36079 Y-85.70874
G01 X121.37779 Y-85.67054
G01 X121.46178 Y-85.41207
G01 X121.47047 Y-85.37118
G01 X121.49996 Y-85.07999
G01 X121.47047 Y-84.78881
G01 X121.46178 Y-84.74791
G01 X121.37029 Y-84.46988
G01 X121.21350 Y-84.19831
G01 X121.00367 Y-83.96529
G01 X120.76753 Y-83.79236
G01 X120.73133 Y-83.77146
G01 X120.48305 Y-83.66092
G01 X120.44329 Y-83.64799
G01 X120.15678 Y-83.58822
G01 X119.86410 Y-83.58713
G01 X119.82252 Y-83.59150
G01 X119.53646 Y-83.65343
G01 X119.25000 Y-83.78096
G01 X119.01256 Y-83.95211
G01 X118.98150 Y-83.98007
G01 X118.78648 Y-84.19831
G01 X118.63918 Y-84.45124
G01 X118.62219 Y-84.48944
G01 X118.53278 Y-84.76813
G01 X118.49999 Y-85.07999
G01 X118.55000 Y-85.07999
G01 X118.57924 Y-85.36595
G01 X118.58574 Y-85.39663
G01 X118.67535 Y-85.66975
G01 X118.81838 Y-85.91911
G01 X118.83680 Y-85.94448
G01 X119.02976 Y-86.15754
G01 X119.27500 Y-86.33572
G01 X119.55191 Y-86.45901
G01 X119.83291 Y-86.51959
G01 X119.86410 Y-86.52286
G01 X120.15155 Y-86.52203
G01 X120.43291 Y-86.46307
G01 X120.46273 Y-86.45340
G01 X120.72498 Y-86.33572
G01 X120.95803 Y-86.16742
G01 X120.98132 Y-86.14644
G01 X121.17306 Y-85.93226
G01 X121.31749 Y-85.68375
G01 X121.33024 Y-85.65510
G01 X121.41830 Y-85.38146
G01 X121.44997 Y-85.07999
G01 X121.41830 Y-84.77852
G01 X121.33024 Y-84.50489
G01 X121.31749 Y-84.47623
G01 X121.17306 Y-84.22770
G01 X120.98132 Y-84.01355
G01 X120.95803 Y-83.99254
G01 X120.72498 Y-83.82427
G01 X120.44807 Y-83.70098
G01 X120.16707 Y-83.64040
G01 X120.13588 Y-83.63712
G01 X119.84843 Y-83.63793
G01 X119.56707 Y-83.69691
G01 X119.53725 Y-83.70659
G01 X119.27500 Y-83.82427
G01 X119.04195 Y-83.99254
G01 X119.01866 Y-84.01355
G01 X118.82691 Y-84.22770
G01 X118.68249 Y-84.47623
G01 X118.66974 Y-84.50489
G01 X118.58168 Y-84.77852
G01 X118.55000 Y-85.07999
G01 X118.59999 Y-85.07999
G01 X118.63329 Y-85.38116
G01 X118.72102 Y-85.64941
G01 X118.86166 Y-85.89411
G01 X119.06321 Y-86.12038
G01 X119.29999 Y-86.29241
G01 X119.56738 Y-86.41146
G01 X119.86410 Y-86.47285
G01 X120.14632 Y-86.47232
G01 X120.42249 Y-86.41418
G01 X120.69999 Y-86.29241
G01 X120.93677 Y-86.12038
G01 X121.13831 Y-85.89411
G01 X121.27895 Y-85.64941
G01 X121.36669 Y-85.38116
G01 X121.39999 Y-85.07999
G01 X121.36938 Y-84.78891
G01 X121.27420 Y-84.50123
G01 X121.13260 Y-84.25708
G01 X120.94416 Y-84.04700
G01 X120.69999 Y-83.86755
G01 X120.43260 Y-83.74852
G01 X120.13588 Y-83.68711
G01 X119.85366 Y-83.68767
G01 X119.57748 Y-83.74581
G01 X119.29999 Y-83.86755
G01 X119.05579 Y-84.04700
G01 X118.86738 Y-84.25708
G01 X118.72577 Y-84.50123
G01 X118.63057 Y-84.78891
G01 X118.59999 Y-85.07999
G01 X118.64998 Y-85.07999
G01 X118.68084 Y-85.36572
G01 X118.76669 Y-85.62909
G01 X118.90497 Y-85.86912
G01 X119.09666 Y-86.08324
G01 X119.32498 Y-86.24913
G01 X119.58282 Y-86.36391
G01 X119.86410 Y-86.42286
G01 X120.14111 Y-86.42259
G01 X120.41210 Y-86.36526
G01 X120.67499 Y-86.24913
G01 X120.90331 Y-86.08324
G01 X121.09501 Y-85.86912
G01 X121.23329 Y-85.62909
G01 X121.31914 Y-85.36572
G01 X121.35000 Y-85.07999
G01 X121.32048 Y-84.79930
G01 X121.23090 Y-84.52622
G01 X121.09216 Y-84.28647
G01 X120.90702 Y-84.08045
G01 X120.67499 Y-83.91086
G01 X120.41716 Y-83.79607
G01 X120.13588 Y-83.73712
G01 X119.85887 Y-83.73737
G01 X119.58787 Y-83.79470
G01 X119.32498 Y-83.91086
G01 X119.09295 Y-84.08045
G01 X118.90781 Y-84.28647
G01 X118.76908 Y-84.52622
G01 X118.67949 Y-84.79930
G01 X118.64998 Y-85.07999
G04 P0 ( dwell for no time -- G64 should not smooth over this point )
G00 Z0.30000 ( retract )

G00 X118.45000 Y-81.29999 ( rapid move to begin. )
G01 F120.00000
( begin pre-milling-gcode )
M7
( end pre-milling-gcode )
( Mill infeed pass 1/1 )
G01 Z-0.05000
G04 P0 ( dwell for no time -- G64 should not smooth over this point )
G01 F680.00000
G01 X118.45000 Y-81.29999
G01 X118.45000 Y-78.70000
G01 X118.45480 Y-78.65123
G01 X118.46903 Y-78.60431
G01 X118.49214 Y-78.56111
G01 X118.52323 Y-78.52324
G01 X118.56110 Y-78.49215
G01 X118.60433 Y-78.46903
G01 X118.65122 Y-78.45481
G01 X118.69999 Y-78.45001
G01 X121.29999 Y-78.45001
G01 X121.34875 Y-78.45481
G01 X121.39564 Y-78.46903
G01 X121.43887 Y-78.49215
G01 X121.47674 Y-78.52324
G01 X121.50783 Y-78.56111
G01 X121.53095 Y-78.60431
G01 X121.54517 Y-78.65123
G01 X121.54997 Y-78.70000
G01 X121.54997 Y-81.29999
G01 X121.54517 Y-81.34876
G01 X121.53095 Y-81.39565
G01 X121.50783 Y-81.43888
G01 X121.47674 Y-81.47675
G01 X121.43887 Y-81.50784
G01 X121.39564 Y-81.53093
G01 X121.34875 Y-81.54518
G01 X121.29999 Y-81.54998
G01 X118.69999 Y-81.54998
G01 X118.65122 Y-81.54518
G01 X118.60433 Y-81.53093
G01 X118.56110 Y-81.50784
G01 X118.52323 Y-81.47675
G01 X118.49214 Y-81.43888
G01 X118.46903 Y-81.39565
G01 X118.45480 Y-81.34876
G01 X118.45000 Y-81.29999
G01 X118.49999 Y-81.29999
G01 X118.49999 Y-78.70000
G01 X118.50385 Y-78.66098
G01 X118.51523 Y-78.62346
G01 X118.53370 Y-78.58887
G01 X118.55856 Y-78.55857
G01 X118.58889 Y-78.53370
G01 X118.62346 Y-78.51524
G01 X118.66098 Y-78.50386
G01 X118.69999 Y-78.50000
G01 X121.29999 Y-78.50000
G01 X121.33900 Y-78.50386
G01 X121.37652 Y-78.51524
G01 X121.41109 Y-78.53370
G01 X121.44139 Y-78.55857
G01 X121.46628 Y-78.58887
G01 X121.48475 Y-78.62346
G01 X121.49612 Y-78.66098
G01 X121.49996 Y-78.70000
G01 X121.49996 Y-81.29999
G01 X121.49612 Y-81.33900
G01 X121.48475 Y-81.37652
G01 X121.46628 Y-81.41109
G01 X121.44139 Y-81.44139
G01 X121.41109 Y-81.46626
G01 X121.37652 Y-81.48475
G01 X121.33900 Y-81.49613
G01 X121.29999 Y-81.49996
G01 X118.69999 Y-81.49996
G01 X118.66098 Y-81.49613
G01 X118.62346 Y-81.48475
G01 X118.58889 Y-81.46626
G01 X118.55856 Y-81.44139
G01 X118.53370 Y-81.41109
G01 X118.51523 Y-81.37652
G01 X118.50385 Y-81.33900
G01 X118.49999 Y-81.29999
G01 X118.55000 Y-81.29999
G01 X118.55000 Y-78.70000
G01 X118.55287 Y-78.67073
G01 X118.56141 Y-78.64259
G01 X118.57528 Y-78.61666
G01 X118.59392 Y-78.59392
G01 X118.61665 Y-78.57528
G01 X118.64259 Y-78.56141
G01 X118.67073 Y-78.55288
G01 X118.69999 Y-78.55001
G01 X121.29999 Y-78.55001
G01 X121.32925 Y-78.55288
G01 X121.35739 Y-78.56141
G01 X121.38332 Y-78.57528
G01 X121.40606 Y-78.59392
G01 X121.42470 Y-78.61666
G01 X121.43857 Y-78.64259
G01 X121.44710 Y-78.67073
G01 X121.44997 Y-78.70000
G01 X121.44997 Y-81.29999
G01 X121.44710 Y-81.32925
G01 X121.43857 Y-81.35739
G01 X121.42470 Y-81.38333
G01 X121.40606 Y-81.40603
G01 X121.38332 Y-81.42470
G01 X121.35739 Y-81.43857
G01 X121.32925 Y-81.44711
G01 X121.29999 Y-81.44998
G01 X118.69999 Y-81.44998
G01 X118.67073 Y-81.44711
G01 X118.64259 Y-81.43857
G01 X118.61665 Y-81.42470
G01 X118.59392 Y-81.40603
G01 X118.57528 Y-81.38333
G01 X118.56141 Y-81.35739
G01 X118.55287 Y-81.32925
G01 X118.55000 Y-81.29999
G01 X118.59999 Y-81.29999
G01 X118.59999 Y-78.70000
G01 X118.60761 Y-78.66172
G01 X118.62928 Y-78.62928
G01 X118.66171 Y-78.60762
G01 X118.69999 Y-78.60000
G01 X121.29999 Y-78.60000
G01 X121.33826 Y-78.60762
G01 X121.37070 Y-78.62928
G01 X121.39237 Y-78.66172
G01 X121.39999 Y-78.70000
G01 X121.39999 Y-81.29999
G01 X121.39237 Y-81.33824
G01 X121.37070 Y-81.37070
G01 X121.33826 Y-81.39237
G01 X121.29999 Y-81.39999
G01 X118.69999 Y-81.39999
G01 X118.66171 Y-81.39237
G01 X118.62928 Y-81.37070
G01 X118.60761 Y-81.33824
G01 X118.59999 Y-81.29999
G01 X118.64998 Y-81.29999
G01 X118.65379 Y-81.31912
G01 X118.66463 Y-81.33535
G01 X118.68086 Y-81.34619
G01 X118.69999 Y-81.34998
G01 X121.29999 Y-81.34998
G01 X121.31911 Y-81.34619
G01 X121.33534 Y-81.33535
G01 X121.34619 Y-81.31912
G01 X121.35000 Y-81.29999
G01 X121.35000 Y-78.70000
G01 X121.34619 Y-78.68084
G01 X121.33534 Y-78.66464
G01 X121.31911 Y-78.65379
G01 X121.29999 Y-78.64998
G01 X118.69999 Y-78.64998
G01 X118.68086 Y-78.65379
G01 X118.66463 Y-78.66464
G01 X118.65379 Y-78.68084
G01 X118.64998 Y-78.70000
G01 X118.64998 Y-81.29999
G04 P0 ( dwell for no time -- G64 should not smooth over this point )
G00 Z0.30000 ( retract )

G00 X144.51066 Y-76.16066 ( rapid move to begin. )
G01 F120.00000
( begin pre-milling-gcode )
M7
( end pre-milling-gcode )
( Mill infeed pass 1/1 )
G01 Z-0.05000
G04 P0 ( dwell for no time -- G64 should not smooth over this point )
G01 F680.00000
G01 X144.51066 Y-76.16066
G01 X144.54454 Y-76.48291
G01 X144.64467 Y-76.79108
G01 X144.80670 Y-77.07170
G01 X145.00502 Y-77.29400
G01 X145.04386 Y-77.32898
G01 X145.28566 Y-77.50297
G01 X145.55724 Y-77.62540
G01 X145.60695 Y-77.64153
G01 X145.87278 Y-77.69804
G01 X145.92475 Y-77.70350
G01 X146.22267 Y-77.70213
G01 X146.53961 Y-77.63477
G01 X146.83565 Y-77.50297
G01 X147.09778 Y-77.31249
G01 X147.31462 Y-77.07170
G01 X147.47662 Y-76.79108
G01 X147.57677 Y-76.48291
G01 X147.61063 Y-76.16066
G01 X147.57677 Y-75.83838
G01 X147.47662 Y-75.53020
G01 X147.31462 Y-75.24958
G01 X147.11629 Y-75.02728
G01 X147.07746 Y-74.99233
G01 X146.85759 Y-74.83257
G01 X146.81233 Y-74.80645
G01 X146.53961 Y-74.68652
G01 X146.24850 Y-74.62324
G01 X146.19653 Y-74.61778
G01 X145.92475 Y-74.61778
G01 X145.87278 Y-74.62324
G01 X145.58167 Y-74.68652
G01 X145.30898 Y-74.80645
G01 X145.26372 Y-74.83257
G01 X145.02351 Y-75.00879
G01 X144.80670 Y-75.24958
G01 X144.65656 Y-75.50691
G01 X144.63530 Y-75.55464
G01 X144.54454 Y-75.83838
G01 X144.51203 Y-76.13452
G01 X144.51066 Y-76.16066
G01 X144.56067 Y-76.16066
G01 X144.59344 Y-76.47252
G01 X144.68284 Y-76.75121
G01 X144.69984 Y-76.78941
G01 X144.84713 Y-77.04231
G01 X145.04215 Y-77.26055
G01 X145.07322 Y-77.28852
G01 X145.29311 Y-77.44828
G01 X145.32930 Y-77.46919
G01 X145.59712 Y-77.58722
G01 X145.88317 Y-77.64915
G01 X145.92475 Y-77.65351
G01 X146.21744 Y-77.65242
G01 X146.52417 Y-77.58722
G01 X146.81063 Y-77.45966
G01 X147.04807 Y-77.28852
G01 X147.07913 Y-77.26055
G01 X147.27415 Y-77.04231
G01 X147.42145 Y-76.78941
G01 X147.43847 Y-76.75121
G01 X147.52785 Y-76.47252
G01 X147.55955 Y-76.18156
G01 X147.55955 Y-76.13975
G01 X147.53112 Y-75.86944
G01 X147.52244 Y-75.82855
G01 X147.43095 Y-75.55055
G01 X147.27415 Y-75.27897
G01 X147.06432 Y-75.04595
G01 X146.82821 Y-74.87303
G01 X146.79198 Y-74.85212
G01 X146.54370 Y-74.74158
G01 X146.50395 Y-74.72865
G01 X146.21744 Y-74.66889
G01 X145.92475 Y-74.66777
G01 X145.88317 Y-74.67216
G01 X145.59712 Y-74.73406
G01 X145.31066 Y-74.86162
G01 X145.05696 Y-75.04595
G01 X144.86031 Y-75.26271
G01 X144.83573 Y-75.29652
G01 X144.69034 Y-75.55055
G01 X144.59885 Y-75.82855
G01 X144.59016 Y-75.86944
G01 X144.56067 Y-76.16066
G01 X144.61066 Y-76.16066
G01 X144.63989 Y-76.44661
G01 X144.64640 Y-76.47729
G01 X144.73601 Y-76.75042
G01 X144.87903 Y-76.99977
G01 X144.89745 Y-77.02512
G01 X145.09041 Y-77.23820
G01 X145.33565 Y-77.41638
G01 X145.61259 Y-77.53967
G01 X145.89359 Y-77.60023
G01 X145.92475 Y-77.60350
G01 X146.21220 Y-77.60269
G01 X146.49356 Y-77.54374
G01 X146.52338 Y-77.53403
G01 X146.78563 Y-77.41638
G01 X147.03087 Y-77.23820
G01 X147.22384 Y-77.02512
G01 X147.24228 Y-76.99977
G01 X147.38528 Y-76.75042
G01 X147.47489 Y-76.47729
G01 X147.48142 Y-76.44661
G01 X147.51063 Y-76.16066
G01 X147.48142 Y-75.87468
G01 X147.47489 Y-75.84402
G01 X147.38528 Y-75.57089
G01 X147.24228 Y-75.32154
G01 X147.22384 Y-75.29617
G01 X147.03087 Y-75.08309
G01 X146.78563 Y-74.90493
G01 X146.50872 Y-74.78161
G01 X146.22772 Y-74.72106
G01 X146.19653 Y-74.71778
G01 X145.90908 Y-74.71860
G01 X145.62775 Y-74.77755
G01 X145.59793 Y-74.78725
G01 X145.33565 Y-74.90493
G01 X145.10261 Y-75.07321
G01 X145.07931 Y-75.09419
G01 X144.88757 Y-75.30836
G01 X144.74314 Y-75.55690
G01 X144.73039 Y-75.58555
G01 X144.64233 Y-75.85918
G01 X144.61066 Y-76.16066
G01 X144.66065 Y-76.16066
G01 X144.69394 Y-76.46182
G01 X144.78168 Y-76.73007
G01 X144.92232 Y-76.97478
G01 X145.12387 Y-77.20104
G01 X145.36064 Y-77.37307
G01 X145.62803 Y-77.49212
G01 X145.92475 Y-77.55352
G01 X146.20700 Y-77.55298
G01 X146.48317 Y-77.49484
G01 X146.76064 Y-77.37307
G01 X146.99742 Y-77.20104
G01 X147.19897 Y-76.97478
G01 X147.33961 Y-76.73007
G01 X147.42734 Y-76.46182
G01 X147.46064 Y-76.16066
G01 X147.43006 Y-75.86957
G01 X147.33486 Y-75.58189
G01 X147.19328 Y-75.33775
G01 X147.00484 Y-75.12764
G01 X146.76064 Y-74.94821
G01 X146.49328 Y-74.82916
G01 X146.19653 Y-74.76777
G01 X145.91431 Y-74.76833
G01 X145.63814 Y-74.82647
G01 X145.36064 Y-74.94821
G01 X145.12387 Y-75.12025
G01 X144.92232 Y-75.34653
G01 X144.78168 Y-75.59121
G01 X144.69394 Y-75.85946
G01 X144.66065 Y-76.16066
G01 X144.71066 Y-76.16066
G01 X144.74149 Y-76.44638
G01 X144.82737 Y-76.70975
G01 X144.96562 Y-76.94976
G01 X145.15732 Y-77.16388
G01 X145.38564 Y-77.32979
G01 X145.64347 Y-77.44457
G01 X145.92475 Y-77.50353
G01 X146.20176 Y-77.50325
G01 X146.47276 Y-77.44592
G01 X146.73565 Y-77.32979
G01 X146.96768 Y-77.16020
G01 X147.15282 Y-76.95415
G01 X147.29155 Y-76.71440
G01 X147.38114 Y-76.44133
G01 X147.41065 Y-76.16066
G01 X147.38114 Y-75.87996
G01 X147.29155 Y-75.60688
G01 X147.15282 Y-75.36713
G01 X146.96768 Y-75.16109
G01 X146.73565 Y-74.99152
G01 X146.47781 Y-74.87671
G01 X146.19653 Y-74.81776
G01 X145.91955 Y-74.81804
G01 X145.64853 Y-74.87536
G01 X145.38564 Y-74.99152
G01 X145.15361 Y-75.16109
G01 X144.96847 Y-75.36713
G01 X144.82973 Y-75.60688
G01 X144.74015 Y-75.87996
G01 X144.71066 Y-76.16066
G04 P0 ( dwell for no time -- G64 should not smooth over this point )
G00 Z0.30000 ( retract )

G00 X144.71066 Y-81.24066 ( rapid move to begin. )
G01 F120.00000
( begin pre-milling-gcode )
M7
( end pre-milling-gcode )
( Mill infeed pass 1/1 )
G01 Z-0.05000
G04 P0 ( dwell for no time -- G64 should not smooth over this point )
G01 F680.00000
G01 X144.71066 Y-81.24066
G01 X144.74015 Y-80.95996
G01 X144.82973 Y-80.68688
G01 X144.96847 Y-80.44713
G01 X145.15361 Y-80.24109
G01 X145.38564 Y-80.07152
G01 X145.64347 Y-79.95671
G01 X145.92475 Y-79.89776
G01 X146.20176 Y-79.89804
G01 X146.47276 Y-79.95536
G01 X146.73565 Y-80.07152
G01 X146.96768 Y-80.24109
G01 X147.15282 Y-80.44713
G01 X147.29155 Y-80.68688
G01 X147.38114 Y-80.95996
G01 X147.41065 Y-81.24066
G01 X147.38114 Y-81.52133
G01 X147.29155 Y-81.79440
G01 X147.15282 Y-82.03415
G01 X146.96768 Y-82.24020
G01 X146.73565 Y-82.40979
G01 X146.47781 Y-82.52457
G01 X146.19653 Y-82.58353
G01 X145.91955 Y-82.58325
G01 X145.64853 Y-82.52592
G01 X145.38564 Y-82.40979
G01 X145.15732 Y-82.24388
G01 X144.96562 Y-82.02976
G01 X144.82737 Y-81.78975
G01 X144.74149 Y-81.52638
G01 X144.71066 Y-81.24066
G01 X144.66065 Y-81.24066
G01 X144.69394 Y-80.93946
G01 X144.78168 Y-80.67121
G01 X144.92232 Y-80.42653
G01 X145.12387 Y-80.20025
G01 X145.36064 Y-80.02821
G01 X145.62803 Y-79.90916
G01 X145.92475 Y-79.84777
G01 X146.20700 Y-79.84833
G01 X146.48317 Y-79.90647
G01 X146.76064 Y-80.02821
G01 X147.00484 Y-80.20764
G01 X147.19328 Y-80.41775
G01 X147.33486 Y-80.66189
G01 X147.43006 Y-80.94957
G01 X147.46064 Y-81.24066
G01 X147.42734 Y-81.54182
G01 X147.33961 Y-81.81007
G01 X147.19897 Y-82.05478
G01 X146.99742 Y-82.28104
G01 X146.76064 Y-82.45307
G01 X146.49328 Y-82.57212
G01 X146.19653 Y-82.63352
G01 X145.91431 Y-82.63298
G01 X145.63814 Y-82.57484
G01 X145.36064 Y-82.45307
G01 X145.12387 Y-82.28104
G01 X144.92232 Y-82.05478
G01 X144.78168 Y-81.81007
G01 X144.69394 Y-81.54182
G01 X144.66065 Y-81.24066
G01 X144.61066 Y-81.24066
G01 X144.64233 Y-80.93918
G01 X144.73039 Y-80.66555
G01 X144.74314 Y-80.63690
G01 X144.88757 Y-80.38836
G01 X145.07931 Y-80.17419
G01 X145.10261 Y-80.15321
G01 X145.33565 Y-79.98493
G01 X145.61259 Y-79.86161
G01 X145.89359 Y-79.80106
G01 X145.92475 Y-79.79778
G01 X146.21220 Y-79.79860
G01 X146.49356 Y-79.85755
G01 X146.52338 Y-79.86725
G01 X146.77166 Y-79.97779
G01 X146.79882 Y-79.99346
G01 X147.03087 Y-80.16309
G01 X147.23372 Y-80.38836
G01 X147.38528 Y-80.65089
G01 X147.47489 Y-80.92402
G01 X147.48142 Y-80.95468
G01 X147.51063 Y-81.24066
G01 X147.48142 Y-81.52661
G01 X147.47489 Y-81.55729
G01 X147.39092 Y-81.81576
G01 X147.37814 Y-81.84439
G01 X147.23372 Y-82.09293
G01 X147.04197 Y-82.30710
G01 X147.01868 Y-82.32808
G01 X146.78563 Y-82.49638
G01 X146.52338 Y-82.61403
G01 X146.49356 Y-82.62374
G01 X146.22772 Y-82.68023
G01 X146.19653 Y-82.68350
G01 X145.90908 Y-82.68269
G01 X145.62775 Y-82.62374
G01 X145.59793 Y-82.61403
G01 X145.33565 Y-82.49638
G01 X145.10261 Y-82.32808
G01 X145.07931 Y-82.30710
G01 X144.88757 Y-82.09293
G01 X144.73601 Y-81.83042
G01 X144.64233 Y-81.54213
G01 X144.61066 Y-81.24066
G01 X144.56067 Y-81.24066
G01 X144.59344 Y-80.92879
G01 X144.69034 Y-80.63055
G01 X144.84713 Y-80.35897
G01 X145.04215 Y-80.14073
G01 X145.07322 Y-80.11277
G01 X145.31066 Y-79.94162
G01 X145.57759 Y-79.82158
G01 X145.61734 Y-79.80865
G01 X145.88317 Y-79.75216
G01 X145.92475 Y-79.74777
G01 X146.21744 Y-79.74889
G01 X146.52417 Y-79.81406
G01 X146.81063 Y-79.94162
G01 X147.06432 Y-80.12595
G01 X147.27415 Y-80.35897
G01 X147.42145 Y-80.61190
G01 X147.43847 Y-80.65008
G01 X147.52785 Y-80.92879
G01 X147.55955 Y-81.21975
G01 X147.55955 Y-81.26156
G01 X147.53112 Y-81.53184
G01 X147.52244 Y-81.57273
G01 X147.43095 Y-81.85074
G01 X147.27415 Y-82.12231
G01 X147.06432 Y-82.35536
G01 X146.82821 Y-82.52828
G01 X146.79198 Y-82.54919
G01 X146.52417 Y-82.66722
G01 X146.23811 Y-82.72915
G01 X146.19653 Y-82.73351
G01 X145.90385 Y-82.73242
G01 X145.59712 Y-82.66722
G01 X145.32930 Y-82.54919
G01 X145.29311 Y-82.52828
G01 X145.07322 Y-82.36852
G01 X145.04215 Y-82.34055
G01 X144.84713 Y-82.12231
G01 X144.69984 Y-81.86941
G01 X144.68284 Y-81.83121
G01 X144.59344 Y-81.55252
G01 X144.56067 Y-81.24066
G01 X144.51066 Y-81.24066
G01 X144.54454 Y-80.91838
G01 X144.63530 Y-80.63464
G01 X144.65656 Y-80.58691
G01 X144.79245 Y-80.35153
G01 X144.82315 Y-80.30926
G01 X145.02351 Y-80.08879
G01 X145.26372 Y-79.91257
G01 X145.30898 Y-79.88645
G01 X145.58167 Y-79.76652
G01 X145.87278 Y-79.70324
G01 X145.92475 Y-79.69778
G01 X146.22267 Y-79.69915
G01 X146.53961 Y-79.76652
G01 X146.83565 Y-79.89832
G01 X147.09778 Y-80.08879
G01 X147.31462 Y-80.32958
G01 X147.47662 Y-80.61020
G01 X147.57677 Y-80.91838
G01 X147.61063 Y-81.24066
G01 X147.57677 Y-81.56291
G01 X147.47662 Y-81.87108
G01 X147.31462 Y-82.15170
G01 X147.11629 Y-82.37400
G01 X147.07746 Y-82.40898
G01 X146.85759 Y-82.56872
G01 X146.81233 Y-82.59486
G01 X146.53961 Y-82.71477
G01 X146.24850 Y-82.77804
G01 X146.19653 Y-82.78350
G01 X145.89864 Y-82.78213
G01 X145.58167 Y-82.71477
G01 X145.28566 Y-82.58297
G01 X145.02351 Y-82.39249
G01 X144.80670 Y-82.15170
G01 X144.64467 Y-81.87108
G01 X144.54454 Y-81.56291
G01 X144.51066 Y-81.24066
G04 P0 ( dwell for no time -- G64 should not smooth over this point )
G00 Z0.30000 ( retract )

G00 X144.71066 Y-86.32066 ( rapid move to begin. )
G01 F120.00000
( begin pre-milling-gcode )
M7
( end pre-milling-gcode )
( Mill infeed pass 1/1 )
G01 Z-0.05000
G04 P0 ( dwell for no time -- G64 should not smooth over this point )
G01 F680.00000
G01 X144.71066 Y-86.32066
G01 X144.74015 Y-86.03996
G01 X144.82973 Y-85.76688
G01 X144.96847 Y-85.52713
G01 X145.15361 Y-85.32109
G01 X145.38564 Y-85.15152
G01 X145.64347 Y-85.03671
G01 X145.92475 Y-84.97776
G01 X146.20176 Y-84.97804
G01 X146.47276 Y-85.03536
G01 X146.73565 Y-85.15152
G01 X146.96768 Y-85.32109
G01 X147.15282 Y-85.52713
G01 X147.29155 Y-85.76688
G01 X147.38114 Y-86.03996
G01 X147.41065 Y-86.32066
G01 X147.38114 Y-86.60133
G01 X147.29155 Y-86.87440
G01 X147.15282 Y-87.11415
G01 X146.96768 Y-87.32020
G01 X146.73565 Y-87.48979
G01 X146.47781 Y-87.60457
G01 X146.19653 Y-87.66353
G01 X145.91955 Y-87.66325
G01 X145.64853 Y-87.60592
G01 X145.38564 Y-87.48979
G01 X145.15732 Y-87.32388
G01 X144.96562 Y-87.10976
G01 X144.82737 Y-86.86975
G01 X144.74149 Y-86.60638
G01 X144.71066 Y-86.32066
G01 X144.66065 Y-86.32066
G01 X144.69394 Y-86.01946
G01 X144.78168 Y-85.75121
G01 X144.92232 Y-85.50653
G01 X145.12387 Y-85.28025
G01 X145.36064 Y-85.10821
G01 X145.62803 Y-84.98916
G01 X145.92475 Y-84.92777
G01 X146.20700 Y-84.92833
G01 X146.48317 Y-84.98647
G01 X146.76064 Y-85.10821
G01 X147.00484 Y-85.28764
G01 X147.19328 Y-85.49775
G01 X147.33486 Y-85.74189
G01 X147.43006 Y-86.02957
G01 X147.46064 Y-86.32066
G01 X147.42734 Y-86.62182
G01 X147.33961 Y-86.89007
G01 X147.19897 Y-87.13478
G01 X146.99742 Y-87.36104
G01 X146.76064 Y-87.53307
G01 X146.49328 Y-87.65212
G01 X146.19653 Y-87.71352
G01 X145.91431 Y-87.71298
G01 X145.63814 Y-87.65484
G01 X145.36064 Y-87.53307
G01 X145.12387 Y-87.36104
G01 X144.92232 Y-87.13478
G01 X144.78168 Y-86.89007
G01 X144.69394 Y-86.62182
G01 X144.66065 Y-86.32066
G01 X144.61066 Y-86.32066
G01 X144.64233 Y-86.01918
G01 X144.73039 Y-85.74555
G01 X144.74314 Y-85.71690
G01 X144.88757 Y-85.46836
G01 X145.07931 Y-85.25419
G01 X145.10261 Y-85.23321
G01 X145.33565 Y-85.06493
G01 X145.61259 Y-84.94161
G01 X145.89359 Y-84.88106
G01 X145.92475 Y-84.87778
G01 X146.21220 Y-84.87860
G01 X146.49356 Y-84.93755
G01 X146.52338 Y-84.94725
G01 X146.77166 Y-85.05779
G01 X146.79882 Y-85.07346
G01 X147.03087 Y-85.24309
G01 X147.23372 Y-85.46836
G01 X147.38528 Y-85.73089
G01 X147.47489 Y-86.00402
G01 X147.48142 Y-86.03468
G01 X147.51063 Y-86.32066
G01 X147.48142 Y-86.60661
G01 X147.47489 Y-86.63729
G01 X147.39092 Y-86.89576
G01 X147.37814 Y-86.92439
G01 X147.23372 Y-87.17293
G01 X147.04197 Y-87.38710
G01 X147.01868 Y-87.40808
G01 X146.78563 Y-87.57638
G01 X146.52338 Y-87.69403
G01 X146.49356 Y-87.70374
G01 X146.22772 Y-87.76023
G01 X146.19653 Y-87.76350
G01 X145.90908 Y-87.76269
G01 X145.62775 Y-87.70374
G01 X145.59793 Y-87.69403
G01 X145.33565 Y-87.57638
G01 X145.10261 Y-87.40808
G01 X145.07931 Y-87.38710
G01 X144.88757 Y-87.17293
G01 X144.73601 Y-86.91042
G01 X144.64233 Y-86.62213
G01 X144.61066 Y-86.32066
G01 X144.56067 Y-86.32066
G01 X144.59344 Y-86.00879
G01 X144.69034 Y-85.71055
G01 X144.84713 Y-85.43897
G01 X145.04215 Y-85.22073
G01 X145.07322 Y-85.19277
G01 X145.31066 Y-85.02162
G01 X145.57759 Y-84.90158
G01 X145.61734 Y-84.88865
G01 X145.88317 Y-84.83216
G01 X145.92475 Y-84.82777
G01 X146.21744 Y-84.82889
G01 X146.52417 Y-84.89406
G01 X146.81063 Y-85.02162
G01 X147.06432 Y-85.20595
G01 X147.27415 Y-85.43897
G01 X147.42145 Y-85.69190
G01 X147.43847 Y-85.73008
G01 X147.52785 Y-86.00879
G01 X147.55955 Y-86.29975
G01 X147.55955 Y-86.34156
G01 X147.53112 Y-86.61184
G01 X147.52244 Y-86.65273
G01 X147.43095 Y-86.93074
G01 X147.27415 Y-87.20231
G01 X147.06432 Y-87.43536
G01 X146.82821 Y-87.60828
G01 X146.79198 Y-87.62919
G01 X146.52417 Y-87.74722
G01 X146.23811 Y-87.80915
G01 X146.19653 Y-87.81351
G01 X145.90385 Y-87.81242
G01 X145.59712 Y-87.74722
G01 X145.32930 Y-87.62919
G01 X145.29311 Y-87.60828
G01 X145.07322 Y-87.44852
G01 X145.04215 Y-87.42055
G01 X144.84713 Y-87.20231
G01 X144.69984 Y-86.94941
G01 X144.68284 Y-86.91121
G01 X144.59344 Y-86.63252
G01 X144.56067 Y-86.32066
G01 X144.51066 Y-86.32066
G01 X144.54454 Y-85.99838
G01 X144.63530 Y-85.71464
G01 X144.65656 Y-85.66691
G01 X144.79245 Y-85.43153
G01 X144.82315 Y-85.38926
G01 X145.02351 Y-85.16879
G01 X145.26372 Y-84.99257
G01 X145.30898 Y-84.96645
G01 X145.58167 Y-84.84652
G01 X145.87278 Y-84.78324
G01 X145.92475 Y-84.77778
G01 X146.22267 Y-84.77915
G01 X146.53961 Y-84.84652
G01 X146.83565 Y-84.97832
G01 X147.09778 Y-85.16879
G01 X147.31462 Y-85.40958
G01 X147.47662 Y-85.69020
G01 X147.57677 Y-85.99838
G01 X147.61063 Y-86.32066
G01 X147.57677 Y-86.64291
G01 X147.47662 Y-86.95108
G01 X147.31462 Y-87.23170
G01 X147.11629 Y-87.45400
G01 X147.07746 Y-87.48898
G01 X146.85759 Y-87.64872
G01 X146.81233 Y-87.67486
G01 X146.53961 Y-87.79477
G01 X146.24850 Y-87.85804
G01 X146.19653 Y-87.86350
G01 X145.89864 Y-87.86213
G01 X145.58167 Y-87.79477
G01 X145.28566 Y-87.66297
G01 X145.02351 Y-87.47249
G01 X144.80670 Y-87.23170
G01 X144.64467 Y-86.95108
G01 X144.54454 Y-86.64291
G01 X144.51066 Y-86.32066
G04 P0 ( dwell for no time -- G64 should not smooth over this point )
G00 Z0.30000 ( retract )

G00 X144.71066 Y-91.40066 ( rapid move to begin. )
G01 F120.00000
( begin pre-milling-gcode )
M7
( end pre-milling-gcode )
( Mill infeed pass 1/1 )
G01 Z-0.05000
G04 P0 ( dwell for no time -- G64 should not smooth over this point )
G01 F680.00000
G01 X144.71066 Y-91.40066
G01 X144.74015 Y-91.11996
G01 X144.82973 Y-90.84688
G01 X144.96847 Y-90.60713
G01 X145.15361 Y-90.40109
G01 X145.38564 Y-90.23152
G01 X145.64347 Y-90.11671
G01 X145.92475 Y-90.05776
G01 X146.20176 Y-90.05804
G01 X146.47276 Y-90.11536
G01 X146.73565 Y-90.23152
G01 X146.96768 Y-90.40109
G01 X147.15282 Y-90.60713
G01 X147.29155 Y-90.84688
G01 X147.38114 Y-91.11996
G01 X147.41065 Y-91.40066
G01 X147.38114 Y-91.68133
G01 X147.29155 Y-91.95440
G01 X147.15282 Y-92.19415
G01 X146.96768 Y-92.40020
G01 X146.73565 Y-92.56979
G01 X146.47781 Y-92.68457
G01 X146.19653 Y-92.74353
G01 X145.91955 Y-92.74325
G01 X145.64853 Y-92.68592
G01 X145.38564 Y-92.56979
G01 X145.15732 Y-92.40388
G01 X144.96562 Y-92.18976
G01 X144.82737 Y-91.94975
G01 X144.74149 Y-91.68638
G01 X144.71066 Y-91.40066
G01 X144.66065 Y-91.40066
G01 X144.69394 Y-91.09946
G01 X144.78168 Y-90.83121
G01 X144.92232 Y-90.58653
G01 X145.12387 Y-90.36025
G01 X145.36064 Y-90.18821
G01 X145.62803 Y-90.06916
G01 X145.92475 Y-90.00777
G01 X146.20700 Y-90.00833
G01 X146.48317 Y-90.06647
G01 X146.76064 Y-90.18821
G01 X147.00484 Y-90.36764
G01 X147.19328 Y-90.57775
G01 X147.33486 Y-90.82189
G01 X147.43006 Y-91.10957
G01 X147.46064 Y-91.40066
G01 X147.42734 Y-91.70182
G01 X147.33961 Y-91.97007
G01 X147.19897 Y-92.21478
G01 X146.99742 Y-92.44104
G01 X146.76064 Y-92.61307
G01 X146.49328 Y-92.73212
G01 X146.19653 Y-92.79352
G01 X145.91431 Y-92.79298
G01 X145.63814 Y-92.73484
G01 X145.36064 Y-92.61307
G01 X145.12387 Y-92.44104
G01 X144.92232 Y-92.21478
G01 X144.78168 Y-91.97007
G01 X144.69394 Y-91.70182
G01 X144.66065 Y-91.40066
G01 X144.61066 Y-91.40066
G01 X144.64233 Y-91.09918
G01 X144.73039 Y-90.82555
G01 X144.74314 Y-90.79690
G01 X144.88757 Y-90.54836
G01 X145.07931 Y-90.33419
G01 X145.10261 Y-90.31321
G01 X145.33565 Y-90.14493
G01 X145.61259 Y-90.02161
G01 X145.89359 Y-89.96106
G01 X145.92475 Y-89.95778
G01 X146.21220 Y-89.95860
G01 X146.49356 Y-90.01755
G01 X146.52338 Y-90.02725
G01 X146.77166 Y-90.13779
G01 X146.79882 Y-90.15346
G01 X147.03087 Y-90.32309
G01 X147.23372 Y-90.54836
G01 X147.38528 Y-90.81089
G01 X147.47489 Y-91.08402
G01 X147.48142 Y-91.11468
G01 X147.51063 Y-91.40066
G01 X147.48142 Y-91.68661
G01 X147.47489 Y-91.71729
G01 X147.39092 Y-91.97576
G01 X147.37814 Y-92.00439
G01 X147.23372 Y-92.25293
G01 X147.04197 Y-92.46710
G01 X147.01868 Y-92.48808
G01 X146.78563 Y-92.65638
G01 X146.52338 Y-92.77403
G01 X146.49356 Y-92.78374
G01 X146.22772 Y-92.84023
G01 X146.19653 Y-92.84350
G01 X145.90908 Y-92.84269
G01 X145.62775 Y-92.78374
G01 X145.59793 Y-92.77403
G01 X145.33565 Y-92.65638
G01 X145.10261 Y-92.48808
G01 X145.07931 Y-92.46710
G01 X144.88757 Y-92.25293
G01 X144.73601 Y-91.99042
G01 X144.64233 Y-91.70213
G01 X144.61066 Y-91.40066
G01 X144.56067 Y-91.40066
G01 X144.59344 Y-91.08879
G01 X144.69034 Y-90.79055
G01 X144.84713 Y-90.51897
G01 X145.04215 Y-90.30073
G01 X145.07322 Y-90.27277
G01 X145.31066 Y-90.10162
G01 X145.57759 Y-89.98158
G01 X145.61734 Y-89.96865
G01 X145.88317 Y-89.91216
G01 X145.92475 Y-89.90777
G01 X146.21744 Y-89.90889
G01 X146.52417 Y-89.97406
G01 X146.81063 Y-90.10162
G01 X147.06432 Y-90.28595
G01 X147.27415 Y-90.51897
G01 X147.42145 Y-90.77190
G01 X147.43847 Y-90.81008
G01 X147.52785 Y-91.08879
G01 X147.55955 Y-91.37975
G01 X147.55955 Y-91.42156
G01 X147.53112 Y-91.69184
G01 X147.52244 Y-91.73273
G01 X147.43095 Y-92.01074
G01 X147.27415 Y-92.28231
G01 X147.06432 Y-92.51536
G01 X146.82821 Y-92.68828
G01 X146.79198 Y-92.70919
G01 X146.52417 Y-92.82722
G01 X146.23811 Y-92.88915
G01 X146.19653 Y-92.89351
G01 X145.90385 Y-92.89242
G01 X145.59712 Y-92.82722
G01 X145.32930 Y-92.70919
G01 X145.29311 Y-92.68828
G01 X145.07322 Y-92.52852
G01 X145.04215 Y-92.50055
G01 X144.84713 Y-92.28231
G01 X144.69984 Y-92.02941
G01 X144.68284 Y-91.99121
G01 X144.59344 Y-91.71252
G01 X144.56067 Y-91.40066
G01 X144.51066 Y-91.40066
G01 X144.54454 Y-91.07838
G01 X144.63530 Y-90.79464
G01 X144.65656 Y-90.74691
G01 X144.79245 Y-90.51153
G01 X144.82315 Y-90.46926
G01 X145.02351 Y-90.24879
G01 X145.26372 Y-90.07257
G01 X145.30898 Y-90.04645
G01 X145.58167 Y-89.92652
G01 X145.87278 Y-89.86324
G01 X145.92475 Y-89.85778
G01 X146.22267 Y-89.85915
G01 X146.53961 Y-89.92652
G01 X146.83565 Y-90.05832
G01 X147.09778 Y-90.24879
G01 X147.31462 Y-90.48958
G01 X147.47662 Y-90.77020
G01 X147.57677 Y-91.07838
G01 X147.61063 Y-91.40066
G01 X147.57677 Y-91.72291
G01 X147.47662 Y-92.03108
G01 X147.31462 Y-92.31170
G01 X147.11629 Y-92.53400
G01 X147.07746 Y-92.56898
G01 X146.85759 Y-92.72872
G01 X146.81233 Y-92.75486
G01 X146.53961 Y-92.87477
G01 X146.24850 Y-92.93804
G01 X146.19653 Y-92.94350
G01 X145.89864 Y-92.94213
G01 X145.58167 Y-92.87477
G01 X145.28566 Y-92.74297
G01 X145.02351 Y-92.55249
G01 X144.80670 Y-92.31170
G01 X144.64467 Y-92.03108
G01 X144.54454 Y-91.72291
G01 X144.51066 Y-91.40066
G04 P0 ( dwell for no time -- G64 should not smooth over this point )
G00 Z0.30000 ( retract )

G00 X144.71066 Y-96.48066 ( rapid move to begin. )
G01 F120.00000
( begin pre-milling-gcode )
M7
( end pre-milling-gcode )
( Mill infeed pass 1/1 )
G01 Z-0.05000
G04 P0 ( dwell for no time -- G64 should not smooth over this point )
G01 F680.00000
G01 X144.71066 Y-96.48066
G01 X144.74015 Y-96.19996
G01 X144.82973 Y-95.92688
G01 X144.96847 Y-95.68713
G01 X145.15361 Y-95.48109
G01 X145.38564 Y-95.31152
G01 X145.64347 Y-95.19671
G01 X145.92475 Y-95.13776
G01 X146.20176 Y-95.13804
G01 X146.47276 Y-95.19536
G01 X146.73565 Y-95.31152
G01 X146.96768 Y-95.48109
G01 X147.15282 Y-95.68713
G01 X147.29155 Y-95.92688
G01 X147.38114 Y-96.19996
G01 X147.41065 Y-96.48066
G01 X147.38114 Y-96.76133
G01 X147.29155 Y-97.03440
G01 X147.15282 Y-97.27415
G01 X146.96768 Y-97.48020
G01 X146.73565 Y-97.64979
G01 X146.47781 Y-97.76457
G01 X146.19653 Y-97.82353
G01 X145.91955 Y-97.82325
G01 X145.64853 Y-97.76592
G01 X145.38564 Y-97.64979
G01 X145.15732 Y-97.48388
G01 X144.96562 Y-97.26976
G01 X144.82737 Y-97.02975
G01 X144.74149 Y-96.76638
G01 X144.71066 Y-96.48066
G01 X144.66065 Y-96.48066
G01 X144.69394 Y-96.17946
G01 X144.78168 Y-95.91121
G01 X144.92232 Y-95.66653
G01 X145.12387 Y-95.44025
G01 X145.36064 Y-95.26821
G01 X145.62803 Y-95.14916
G01 X145.92475 Y-95.08777
G01 X146.20700 Y-95.08833
G01 X146.48317 Y-95.14647
G01 X146.76064 Y-95.26821
G01 X147.00484 Y-95.44764
G01 X147.19328 Y-95.65775
G01 X147.33486 Y-95.90189
G01 X147.43006 Y-96.18957
G01 X147.46064 Y-96.48066
G01 X147.42734 Y-96.78182
G01 X147.33961 Y-97.05007
G01 X147.19897 Y-97.29478
G01 X146.99742 Y-97.52104
G01 X146.76064 Y-97.69307
G01 X146.49328 Y-97.81212
G01 X146.19653 Y-97.87352
G01 X145.91431 Y-97.87298
G01 X145.63814 Y-97.81484
G01 X145.36064 Y-97.69307
G01 X145.12387 Y-97.52104
G01 X144.92232 Y-97.29478
G01 X144.78168 Y-97.05007
G01 X144.69394 Y-96.78182
G01 X144.66065 Y-96.48066
G01 X144.61066 Y-96.48066
G01 X144.64233 Y-96.17918
G01 X144.73039 Y-95.90555
G01 X144.74314 Y-95.87690
G01 X144.88757 Y-95.62836
G01 X145.07931 Y-95.41419
G01 X145.10261 Y-95.39321
G01 X145.33565 Y-95.22493
G01 X145.61259 Y-95.10161
G01 X145.89359 Y-95.04106
G01 X145.92475 Y-95.03778
G01 X146.21220 Y-95.03860
G01 X146.49356 Y-95.09755
G01 X146.52338 Y-95.10725
G01 X146.77166 Y-95.21779
G01 X146.79882 Y-95.23346
G01 X147.03087 Y-95.40309
G01 X147.23372 Y-95.62836
G01 X147.38528 Y-95.89089
G01 X147.47489 Y-96.16402
G01 X147.48142 Y-96.19468
G01 X147.51063 Y-96.48066
G01 X147.48142 Y-96.76661
G01 X147.47489 Y-96.79729
G01 X147.39092 Y-97.05576
G01 X147.37814 Y-97.08439
G01 X147.23372 Y-97.33293
G01 X147.04197 Y-97.54710
G01 X147.01868 Y-97.56808
G01 X146.78563 Y-97.73638
G01 X146.52338 Y-97.85403
G01 X146.49356 Y-97.86374
G01 X146.22772 Y-97.92023
G01 X146.19653 Y-97.92350
G01 X145.90908 Y-97.92269
G01 X145.62775 Y-97.86374
G01 X145.59793 Y-97.85403
G01 X145.33565 Y-97.73638
G01 X145.10261 Y-97.56808
G01 X145.07931 Y-97.54710
G01 X144.88757 Y-97.33293
G01 X144.73601 Y-97.07042
G01 X144.64233 Y-96.78213
G01 X144.61066 Y-96.48066
G01 X144.56067 Y-96.48066
G01 X144.59344 Y-96.16879
G01 X144.69034 Y-95.87055
G01 X144.84713 Y-95.59897
G01 X145.04215 Y-95.38073
G01 X145.07322 Y-95.35277
G01 X145.31066 Y-95.18162
G01 X145.57759 Y-95.06158
G01 X145.61734 Y-95.04865
G01 X145.88317 Y-94.99216
G01 X145.92475 Y-94.98777
G01 X146.21744 Y-94.98889
G01 X146.52417 Y-95.05406
G01 X146.81063 Y-95.18162
G01 X147.06432 Y-95.36595
G01 X147.27415 Y-95.59897
G01 X147.42145 Y-95.85190
G01 X147.43847 Y-95.89008
G01 X147.52785 Y-96.16879
G01 X147.55955 Y-96.45975
G01 X147.55955 Y-96.50156
G01 X147.53112 Y-96.77184
G01 X147.52244 Y-96.81273
G01 X147.43095 Y-97.09074
G01 X147.27415 Y-97.36231
G01 X147.06432 Y-97.59536
G01 X146.82821 Y-97.76828
G01 X146.79198 Y-97.78919
G01 X146.52417 Y-97.90722
G01 X146.23811 Y-97.96915
G01 X146.19653 Y-97.97351
G01 X145.90385 Y-97.97242
G01 X145.59712 Y-97.90722
G01 X145.32930 Y-97.78919
G01 X145.29311 Y-97.76828
G01 X145.07322 Y-97.60852
G01 X145.04215 Y-97.58055
G01 X144.84713 Y-97.36231
G01 X144.69984 Y-97.10941
G01 X144.68284 Y-97.07121
G01 X144.59344 Y-96.79252
G01 X144.56067 Y-96.48066
G01 X144.51066 Y-96.48066
G01 X144.54454 Y-96.15838
G01 X144.63530 Y-95.87464
G01 X144.65656 Y-95.82691
G01 X144.79245 Y-95.59153
G01 X144.82315 Y-95.54926
G01 X145.02351 Y-95.32879
G01 X145.26372 Y-95.15257
G01 X145.30898 Y-95.12645
G01 X145.58167 Y-95.00652
G01 X145.87278 Y-94.94324
G01 X145.92475 Y-94.93778
G01 X146.22267 Y-94.93915
G01 X146.53961 Y-95.00652
G01 X146.83565 Y-95.13832
G01 X147.09778 Y-95.32879
G01 X147.31462 Y-95.56958
G01 X147.47662 Y-95.85020
G01 X147.57677 Y-96.15838
G01 X147.61063 Y-96.48066
G01 X147.57677 Y-96.80291
G01 X147.47662 Y-97.11108
G01 X147.31462 Y-97.39170
G01 X147.11629 Y-97.61400
G01 X147.07746 Y-97.64898
G01 X146.85759 Y-97.80872
G01 X146.81233 Y-97.83486
G01 X146.53961 Y-97.95477
G01 X146.24850 Y-98.01804
G01 X146.19653 Y-98.02350
G01 X145.89864 Y-98.02213
G01 X145.58167 Y-97.95477
G01 X145.28566 Y-97.82297
G01 X145.02351 Y-97.63249
G01 X144.80670 Y-97.39170
G01 X144.64467 Y-97.11108
G01 X144.54454 Y-96.80291
G01 X144.51066 Y-96.48066
G04 P0 ( dwell for no time -- G64 should not smooth over this point )
G00 Z0.30000 ( retract )

G00 X144.51066 Y-102.86065 ( rapid move to begin. )
G01 F120.00000
( begin pre-milling-gcode )
M7
( end pre-milling-gcode )
( Mill infeed pass 1/1 )
G01 Z-0.05000
G04 P0 ( dwell for no time -- G64 should not smooth over this point )
G01 F680.00000
G01 X144.51066 Y-102.86065
G01 X144.51066 Y-100.26066
G01 X144.51546 Y-100.21189
G01 X144.52971 Y-100.16498
G01 X144.55280 Y-100.12177
G01 X144.58389 Y-100.08387
G01 X144.62176 Y-100.05278
G01 X144.66499 Y-100.02970
G01 X144.71188 Y-100.01547
G01 X144.76065 Y-100.01067
G01 X147.36064 Y-100.01067
G01 X147.40941 Y-100.01547
G01 X147.45632 Y-100.02970
G01 X147.49953 Y-100.05278
G01 X147.53740 Y-100.08387
G01 X147.56849 Y-100.12177
G01 X147.59160 Y-100.16498
G01 X147.60583 Y-100.21189
G01 X147.61063 Y-100.26066
G01 X147.61063 Y-102.86065
G01 X147.60583 Y-102.90942
G01 X147.59160 Y-102.95628
G01 X147.56849 Y-102.99954
G01 X147.53740 Y-103.03741
G01 X147.49953 Y-103.06848
G01 X147.45632 Y-103.09159
G01 X147.40941 Y-103.10581
G01 X147.36064 Y-103.11059
G01 X144.76065 Y-103.11059
G01 X144.71188 Y-103.10581
G01 X144.66499 Y-103.09159
G01 X144.62176 Y-103.06848
G01 X144.58389 Y-103.03741
G01 X144.55280 Y-102.99954
G01 X144.52971 Y-102.95628
G01 X144.51546 Y-102.90942
G01 X144.51066 Y-102.86065
G01 X144.56067 Y-102.86065
G01 X144.56067 Y-100.26066
G01 X144.56451 Y-100.22164
G01 X144.57589 Y-100.18413
G01 X144.59438 Y-100.14953
G01 X144.61924 Y-100.11923
G01 X144.64955 Y-100.09436
G01 X144.68411 Y-100.07587
G01 X144.72163 Y-100.06449
G01 X144.76065 Y-100.06066
G01 X147.36064 Y-100.06066
G01 X147.39965 Y-100.06449
G01 X147.43717 Y-100.07587
G01 X147.47177 Y-100.09436
G01 X147.50207 Y-100.11923
G01 X147.52693 Y-100.14953
G01 X147.54540 Y-100.18413
G01 X147.55678 Y-100.22164
G01 X147.56064 Y-100.26066
G01 X147.56064 Y-102.86065
G01 X147.55678 Y-102.89964
G01 X147.54540 Y-102.93718
G01 X147.52693 Y-102.97175
G01 X147.50207 Y-103.00205
G01 X147.47177 Y-103.02692
G01 X147.43717 Y-103.04539
G01 X147.39965 Y-103.05679
G01 X147.36064 Y-103.06063
G01 X144.76065 Y-103.06063
G01 X144.72163 Y-103.05679
G01 X144.68411 Y-103.04539
G01 X144.64955 Y-103.02692
G01 X144.61924 Y-103.00205
G01 X144.59438 Y-102.97175
G01 X144.57589 Y-102.93718
G01 X144.56451 Y-102.89964
G01 X144.56067 Y-102.86065
G01 X144.61066 Y-102.86065
G01 X144.61066 Y-100.26066
G01 X144.61353 Y-100.23140
G01 X144.62206 Y-100.20325
G01 X144.63593 Y-100.17732
G01 X144.65460 Y-100.15459
G01 X144.67731 Y-100.13594
G01 X144.70324 Y-100.12208
G01 X144.73138 Y-100.11354
G01 X144.76065 Y-100.11065
G01 X147.36064 Y-100.11065
G01 X147.38990 Y-100.11354
G01 X147.41804 Y-100.12208
G01 X147.44398 Y-100.13594
G01 X147.46671 Y-100.15459
G01 X147.48535 Y-100.17732
G01 X147.49922 Y-100.20325
G01 X147.50776 Y-100.23140
G01 X147.51063 Y-100.26066
G01 X147.51063 Y-102.86065
G01 X147.50776 Y-102.88991
G01 X147.49922 Y-102.91803
G01 X147.48535 Y-102.94396
G01 X147.46671 Y-102.96670
G01 X147.44398 Y-102.98534
G01 X147.41804 Y-102.99921
G01 X147.38990 Y-103.00774
G01 X147.36064 Y-103.01064
G01 X144.76065 Y-103.01064
G01 X144.73138 Y-103.00774
G01 X144.70324 Y-102.99921
G01 X144.67731 Y-102.98534
G01 X144.65460 Y-102.96670
G01 X144.63593 Y-102.94396
G01 X144.62206 Y-102.91803
G01 X144.61353 Y-102.88991
G01 X144.61066 Y-102.86065
G01 X144.66065 Y-102.86065
G01 X144.66065 Y-100.26066
G01 X144.66827 Y-100.22238
G01 X144.68993 Y-100.18994
G01 X144.72239 Y-100.16825
G01 X144.76065 Y-100.16066
G01 X147.36064 Y-100.16066
G01 X147.39892 Y-100.16825
G01 X147.43135 Y-100.18994
G01 X147.45302 Y-100.22238
G01 X147.46064 Y-100.26066
G01 X147.46064 Y-102.86065
G01 X147.45302 Y-102.89891
G01 X147.43135 Y-102.93134
G01 X147.39892 Y-102.95303
G01 X147.36064 Y-102.96065
G01 X144.76065 Y-102.96065
G01 X144.72239 Y-102.95303
G01 X144.68993 Y-102.93134
G01 X144.66827 Y-102.89891
G01 X144.66065 Y-102.86065
G01 X144.71066 Y-102.86065
G01 X144.71444 Y-102.87978
G01 X144.72529 Y-102.89601
G01 X144.74152 Y-102.90683
G01 X144.76065 Y-102.91061
G01 X147.36064 Y-102.91061
G01 X147.37979 Y-102.90683
G01 X147.39600 Y-102.89601
G01 X147.40684 Y-102.87978
G01 X147.41065 Y-102.86065
G01 X147.41065 Y-100.26066
G01 X147.40684 Y-100.24151
G01 X147.39600 Y-100.22530
G01 X147.37979 Y-100.21446
G01 X147.36064 Y-100.21065
G01 X144.76065 Y-100.21065
G01 X144.74152 Y-100.21446
G01 X144.72529 Y-100.22530
G01 X144.71444 Y-100.24151
G01 X144.71066 Y-100.26066
G01 X144.71066 Y-102.86065
G04 P0 ( dwell for no time -- G64 should not smooth over this point )
G00 Z0.30000 ( retract )

G00 X155.91000 Y-101.56000 ( rapid move to begin. )
G01 F120.00000
( begin pre-milling-gcode )
M7
( end pre-milling-gcode )
( Mill infeed pass 1/1 )
G01 Z-0.05000
G04 P0 ( dwell for no time -- G64 should not smooth over this point )
G01 F680.00000
G01 X155.91000 Y-101.56000
G01 X155.94388 Y-101.88224
G01 X156.04401 Y-102.19042
G01 X156.20604 Y-102.47104
G01 X156.40434 Y-102.69334
G01 X156.44317 Y-102.72832
G01 X156.68501 Y-102.90231
G01 X156.95658 Y-103.02471
G01 X157.00629 Y-103.04087
G01 X157.27213 Y-103.09736
G01 X157.32409 Y-103.10284
G01 X157.62201 Y-103.10147
G01 X157.93895 Y-103.03408
G01 X158.23499 Y-102.90231
G01 X158.49712 Y-102.71186
G01 X158.71396 Y-102.47104
G01 X158.87596 Y-102.19042
G01 X158.97609 Y-101.88224
G01 X159.00997 Y-101.56000
G01 X158.97609 Y-101.23772
G01 X158.87596 Y-100.92954
G01 X158.71396 Y-100.64892
G01 X158.51563 Y-100.42662
G01 X158.47680 Y-100.39167
G01 X158.25691 Y-100.23191
G01 X158.21167 Y-100.20579
G01 X157.93895 Y-100.08588
G01 X157.64784 Y-100.02258
G01 X157.59587 Y-100.01712
G01 X157.32409 Y-100.01712
G01 X157.27213 Y-100.02258
G01 X156.98102 Y-100.08588
G01 X156.70832 Y-100.20579
G01 X156.66306 Y-100.23191
G01 X156.42285 Y-100.40813
G01 X156.20604 Y-100.64892
G01 X156.05590 Y-100.90625
G01 X156.03464 Y-100.95398
G01 X155.94388 Y-101.23772
G01 X155.91137 Y-101.53386
G01 X155.91000 Y-101.56000
G01 X155.96001 Y-101.56000
G01 X155.99278 Y-101.87186
G01 X156.08219 Y-102.15054
G01 X156.09918 Y-102.18875
G01 X156.24647 Y-102.44165
G01 X156.44150 Y-102.65989
G01 X156.47256 Y-102.68786
G01 X156.71000 Y-102.85898
G01 X156.97693 Y-102.97904
G01 X157.01668 Y-102.99195
G01 X157.28251 Y-103.04846
G01 X157.32409 Y-103.05285
G01 X157.61678 Y-103.05176
G01 X157.92351 Y-102.98656
G01 X158.20997 Y-102.85898
G01 X158.44741 Y-102.68786
G01 X158.47847 Y-102.65989
G01 X158.67350 Y-102.44165
G01 X158.82079 Y-102.18875
G01 X158.83778 Y-102.15054
G01 X158.92178 Y-101.89205
G01 X158.93047 Y-101.85118
G01 X158.95998 Y-101.56000
G01 X158.93047 Y-101.26881
G01 X158.92178 Y-101.22792
G01 X158.83029 Y-100.94989
G01 X158.67350 Y-100.67831
G01 X158.46367 Y-100.44529
G01 X158.22755 Y-100.27237
G01 X158.19133 Y-100.25146
G01 X157.94304 Y-100.14092
G01 X157.90329 Y-100.12799
G01 X157.61678 Y-100.06823
G01 X157.32409 Y-100.06714
G01 X157.28251 Y-100.07150
G01 X156.99646 Y-100.13343
G01 X156.71000 Y-100.26096
G01 X156.45630 Y-100.44529
G01 X156.25966 Y-100.66205
G01 X156.23507 Y-100.69586
G01 X156.08968 Y-100.94989
G01 X155.99819 Y-101.22792
G01 X155.98950 Y-101.26881
G01 X155.96001 Y-101.56000
G01 X156.01000 Y-101.56000
G01 X156.03924 Y-101.84595
G01 X156.04574 Y-101.87663
G01 X156.13535 Y-102.14976
G01 X156.27838 Y-102.39911
G01 X156.29679 Y-102.42446
G01 X156.48976 Y-102.63754
G01 X156.73499 Y-102.81572
G01 X157.01190 Y-102.93901
G01 X157.29290 Y-102.99957
G01 X157.32409 Y-103.00287
G01 X157.61155 Y-103.00203
G01 X157.89290 Y-102.94305
G01 X157.92272 Y-102.93337
G01 X158.18498 Y-102.81572
G01 X158.43021 Y-102.63754
G01 X158.62318 Y-102.42446
G01 X158.64159 Y-102.39911
G01 X158.78462 Y-102.14976
G01 X158.87423 Y-101.87663
G01 X158.88076 Y-101.84595
G01 X158.90997 Y-101.56000
G01 X158.87830 Y-101.25852
G01 X158.79023 Y-100.98489
G01 X158.77748 Y-100.95624
G01 X158.63306 Y-100.70770
G01 X158.44131 Y-100.49353
G01 X158.41802 Y-100.47254
G01 X158.18498 Y-100.30427
G01 X157.90807 Y-100.18095
G01 X157.62707 Y-100.12040
G01 X157.59587 Y-100.11712
G01 X157.30842 Y-100.11794
G01 X157.02709 Y-100.17689
G01 X156.99725 Y-100.18659
G01 X156.73499 Y-100.30427
G01 X156.50195 Y-100.47254
G01 X156.47866 Y-100.49353
G01 X156.28691 Y-100.70770
G01 X156.14249 Y-100.95624
G01 X156.12974 Y-100.98489
G01 X156.04167 Y-101.25852
G01 X156.01000 Y-101.56000
G01 X156.05999 Y-101.56000
G01 X156.09329 Y-101.86116
G01 X156.18102 Y-102.12941
G01 X156.32166 Y-102.37412
G01 X156.52321 Y-102.60038
G01 X156.75999 Y-102.77241
G01 X157.02737 Y-102.89146
G01 X157.32409 Y-102.95285
G01 X157.60631 Y-102.95232
G01 X157.88249 Y-102.89416
G01 X158.15998 Y-102.77241
G01 X158.39676 Y-102.60038
G01 X158.59831 Y-102.37412
G01 X158.73895 Y-102.12941
G01 X158.82668 Y-101.86116
G01 X158.85998 Y-101.56000
G01 X158.82940 Y-101.26891
G01 X158.73420 Y-100.98123
G01 X158.59260 Y-100.73709
G01 X158.40418 Y-100.52698
G01 X158.15998 Y-100.34755
G01 X157.89260 Y-100.22850
G01 X157.59587 Y-100.16711
G01 X157.31366 Y-100.16767
G01 X157.03748 Y-100.22581
G01 X156.75999 Y-100.34755
G01 X156.51582 Y-100.52698
G01 X156.32737 Y-100.73709
G01 X156.18577 Y-100.98123
G01 X156.09059 Y-101.26891
G01 X156.05999 Y-101.56000
G01 X156.10997 Y-101.56000
G01 X156.14084 Y-101.84572
G01 X156.22671 Y-102.10909
G01 X156.36497 Y-102.34910
G01 X156.55666 Y-102.56324
G01 X156.78498 Y-102.72913
G01 X157.04282 Y-102.84391
G01 X157.32409 Y-102.90287
G01 X157.60111 Y-102.90256
G01 X157.87210 Y-102.84524
G01 X158.13499 Y-102.72913
G01 X158.36702 Y-102.55954
G01 X158.55216 Y-102.35347
G01 X158.69089 Y-102.11374
G01 X158.78048 Y-101.84067
G01 X158.80999 Y-101.56000
G01 X158.78048 Y-101.27930
G01 X158.69089 Y-101.00622
G01 X158.55216 Y-100.76647
G01 X158.36702 Y-100.56045
G01 X158.13499 Y-100.39086
G01 X157.87715 Y-100.27605
G01 X157.59587 Y-100.21710
G01 X157.31886 Y-100.21738
G01 X157.04787 Y-100.27470
G01 X156.78498 Y-100.39086
G01 X156.55295 Y-100.56045
G01 X156.36781 Y-100.76647
G01 X156.22908 Y-101.00622
G01 X156.13949 Y-101.27930
G01 X156.10997 Y-101.56000
G04 P0 ( dwell for no time -- G64 should not smooth over this point )
G00 Z0.30000 ( retract )

G00 X155.91000 Y-96.47999 ( rapid move to begin. )
G01 F120.00000
( begin pre-milling-gcode )
M7
( end pre-milling-gcode )
( Mill infeed pass 1/1 )
G01 Z-0.05000
G04 P0 ( dwell for no time -- G64 should not smooth over this point )
G01 F680.00000
G01 X155.91000 Y-96.47999
G01 X155.94388 Y-96.80224
G01 X156.04401 Y-97.11042
G01 X156.20604 Y-97.39104
G01 X156.40434 Y-97.61334
G01 X156.44317 Y-97.64832
G01 X156.68501 Y-97.82231
G01 X156.95658 Y-97.94474
G01 X157.00629 Y-97.96087
G01 X157.27213 Y-98.01738
G01 X157.32409 Y-98.02284
G01 X157.62201 Y-98.02147
G01 X157.93895 Y-97.95411
G01 X158.23499 Y-97.82231
G01 X158.49712 Y-97.63186
G01 X158.71396 Y-97.39104
G01 X158.87596 Y-97.11042
G01 X158.97609 Y-96.80224
G01 X159.00997 Y-96.47999
G01 X158.97609 Y-96.15772
G01 X158.87596 Y-95.84954
G01 X158.71396 Y-95.56892
G01 X158.51563 Y-95.34662
G01 X158.47680 Y-95.31167
G01 X158.25691 Y-95.15191
G01 X158.21167 Y-95.12579
G01 X157.93895 Y-95.00588
G01 X157.64784 Y-94.94258
G01 X157.59587 Y-94.93712
G01 X157.32409 Y-94.93712
G01 X157.27213 Y-94.94258
G01 X156.98102 Y-95.00588
G01 X156.70832 Y-95.12579
G01 X156.66306 Y-95.15191
G01 X156.42285 Y-95.32813
G01 X156.20604 Y-95.56892
G01 X156.05590 Y-95.82625
G01 X156.03464 Y-95.87398
G01 X155.94388 Y-96.15772
G01 X155.91137 Y-96.45386
G01 X155.91000 Y-96.47999
G01 X155.96001 Y-96.47999
G01 X155.99278 Y-96.79186
G01 X156.08219 Y-97.07054
G01 X156.09918 Y-97.10875
G01 X156.24647 Y-97.36165
G01 X156.44150 Y-97.57989
G01 X156.47256 Y-97.60786
G01 X156.69245 Y-97.76762
G01 X156.72864 Y-97.78853
G01 X156.99646 Y-97.90656
G01 X157.28251 Y-97.96849
G01 X157.32409 Y-97.97285
G01 X157.61678 Y-97.97176
G01 X157.92351 Y-97.90656
G01 X158.20997 Y-97.77900
G01 X158.44741 Y-97.60786
G01 X158.47847 Y-97.57989
G01 X158.67350 Y-97.36165
G01 X158.82079 Y-97.10875
G01 X158.83778 Y-97.07054
G01 X158.92178 Y-96.81207
G01 X158.93047 Y-96.77118
G01 X158.95998 Y-96.47999
G01 X158.93047 Y-96.18881
G01 X158.92178 Y-96.14792
G01 X158.83029 Y-95.86989
G01 X158.67350 Y-95.59831
G01 X158.46367 Y-95.36529
G01 X158.22755 Y-95.19237
G01 X158.19133 Y-95.17146
G01 X157.94304 Y-95.06092
G01 X157.90329 Y-95.04799
G01 X157.61678 Y-94.98823
G01 X157.32409 Y-94.98714
G01 X157.28251 Y-94.99150
G01 X156.99646 Y-95.05343
G01 X156.71000 Y-95.18096
G01 X156.45630 Y-95.36529
G01 X156.25966 Y-95.58205
G01 X156.23507 Y-95.61586
G01 X156.08968 Y-95.86989
G01 X155.99819 Y-96.14792
G01 X155.98950 Y-96.18881
G01 X155.96001 Y-96.47999
G01 X156.01000 Y-96.47999
G01 X156.03924 Y-96.76595
G01 X156.04574 Y-96.79663
G01 X156.13535 Y-97.06976
G01 X156.27838 Y-97.31911
G01 X156.29679 Y-97.34446
G01 X156.48976 Y-97.55754
G01 X156.73499 Y-97.73572
G01 X157.01190 Y-97.85901
G01 X157.29290 Y-97.91959
G01 X157.32409 Y-97.92287
G01 X157.61155 Y-97.92203
G01 X157.89290 Y-97.86308
G01 X157.92272 Y-97.85337
G01 X158.18498 Y-97.73572
G01 X158.43021 Y-97.55754
G01 X158.62318 Y-97.34446
G01 X158.64159 Y-97.31911
G01 X158.78462 Y-97.06976
G01 X158.87423 Y-96.79663
G01 X158.88076 Y-96.76595
G01 X158.90997 Y-96.47999
G01 X158.87830 Y-96.17852
G01 X158.79023 Y-95.90489
G01 X158.77748 Y-95.87624
G01 X158.63306 Y-95.62770
G01 X158.44131 Y-95.41353
G01 X158.41802 Y-95.39254
G01 X158.18498 Y-95.22427
G01 X157.90807 Y-95.10095
G01 X157.62707 Y-95.04040
G01 X157.59587 Y-95.03712
G01 X157.30842 Y-95.03794
G01 X157.02709 Y-95.09689
G01 X156.99725 Y-95.10659
G01 X156.73499 Y-95.22427
G01 X156.50195 Y-95.39254
G01 X156.47866 Y-95.41353
G01 X156.28691 Y-95.62770
G01 X156.14249 Y-95.87624
G01 X156.12974 Y-95.90489
G01 X156.04167 Y-96.17852
G01 X156.01000 Y-96.47999
G01 X156.05999 Y-96.47999
G01 X156.09329 Y-96.78116
G01 X156.18102 Y-97.04941
G01 X156.32166 Y-97.29412
G01 X156.52321 Y-97.52038
G01 X156.75999 Y-97.69241
G01 X157.02737 Y-97.81146
G01 X157.32409 Y-97.87285
G01 X157.60631 Y-97.87232
G01 X157.88249 Y-97.81418
G01 X158.15998 Y-97.69241
G01 X158.39676 Y-97.52038
G01 X158.59831 Y-97.29412
G01 X158.73895 Y-97.04941
G01 X158.82668 Y-96.78116
G01 X158.85998 Y-96.47999
G01 X158.82940 Y-96.18891
G01 X158.73420 Y-95.90123
G01 X158.59260 Y-95.65709
G01 X158.40418 Y-95.44698
G01 X158.15998 Y-95.26755
G01 X157.89260 Y-95.14850
G01 X157.59587 Y-95.08711
G01 X157.31366 Y-95.08767
G01 X157.03748 Y-95.14581
G01 X156.75999 Y-95.26755
G01 X156.51582 Y-95.44698
G01 X156.32737 Y-95.65709
G01 X156.18577 Y-95.90123
G01 X156.09059 Y-96.18891
G01 X156.05999 Y-96.47999
G01 X156.10997 Y-96.47999
G01 X156.14084 Y-96.76572
G01 X156.22671 Y-97.02909
G01 X156.36497 Y-97.26910
G01 X156.55666 Y-97.48324
G01 X156.78498 Y-97.64913
G01 X157.04282 Y-97.76391
G01 X157.32409 Y-97.82287
G01 X157.60111 Y-97.82259
G01 X157.87210 Y-97.76526
G01 X158.13499 Y-97.64913
G01 X158.36702 Y-97.47954
G01 X158.55216 Y-97.27349
G01 X158.69089 Y-97.03374
G01 X158.78048 Y-96.76066
G01 X158.80999 Y-96.47999
G01 X158.78048 Y-96.19930
G01 X158.69089 Y-95.92622
G01 X158.55216 Y-95.68647
G01 X158.36702 Y-95.48045
G01 X158.13499 Y-95.31086
G01 X157.87715 Y-95.19605
G01 X157.59587 Y-95.13710
G01 X157.31886 Y-95.13738
G01 X157.04787 Y-95.19470
G01 X156.78498 Y-95.31086
G01 X156.55295 Y-95.48045
G01 X156.36781 Y-95.68647
G01 X156.22908 Y-95.92622
G01 X156.13949 Y-96.19930
G01 X156.10997 Y-96.47999
G04 P0 ( dwell for no time -- G64 should not smooth over this point )
G00 Z0.30000 ( retract )

G00 X155.91000 Y-91.40000 ( rapid move to begin. )
G01 F120.00000
( begin pre-milling-gcode )
M7
( end pre-milling-gcode )
( Mill infeed pass 1/1 )
G01 Z-0.05000
G04 P0 ( dwell for no time -- G64 should not smooth over this point )
G01 F680.00000
G01 X155.91000 Y-91.40000
G01 X155.94388 Y-91.72224
G01 X156.04401 Y-92.03042
G01 X156.20604 Y-92.31104
G01 X156.40434 Y-92.53334
G01 X156.44317 Y-92.56832
G01 X156.68501 Y-92.74231
G01 X156.95658 Y-92.86474
G01 X157.00629 Y-92.88087
G01 X157.27213 Y-92.93738
G01 X157.32409 Y-92.94284
G01 X157.62201 Y-92.94147
G01 X157.93895 Y-92.87411
G01 X158.23499 Y-92.74231
G01 X158.49712 Y-92.55186
G01 X158.71396 Y-92.31104
G01 X158.87596 Y-92.03042
G01 X158.97609 Y-91.72224
G01 X159.00997 Y-91.40000
G01 X158.97609 Y-91.07772
G01 X158.87596 Y-90.76954
G01 X158.71396 Y-90.48892
G01 X158.51563 Y-90.26662
G01 X158.47680 Y-90.23167
G01 X158.25691 Y-90.07191
G01 X158.21167 Y-90.04579
G01 X157.93895 Y-89.92588
G01 X157.64784 Y-89.86258
G01 X157.59587 Y-89.85712
G01 X157.32409 Y-89.85712
G01 X157.27213 Y-89.86258
G01 X156.98102 Y-89.92588
G01 X156.70832 Y-90.04579
G01 X156.66306 Y-90.07191
G01 X156.42285 Y-90.24813
G01 X156.20604 Y-90.48892
G01 X156.05590 Y-90.74625
G01 X156.03464 Y-90.79398
G01 X155.94388 Y-91.07772
G01 X155.91137 Y-91.37386
G01 X155.91000 Y-91.40000
G01 X155.96001 Y-91.40000
G01 X155.99278 Y-91.71186
G01 X156.08219 Y-91.99054
G01 X156.09918 Y-92.02875
G01 X156.24647 Y-92.28165
G01 X156.44150 Y-92.49989
G01 X156.47256 Y-92.52786
G01 X156.69245 Y-92.68762
G01 X156.72864 Y-92.70853
G01 X156.99646 Y-92.82656
G01 X157.28251 Y-92.88849
G01 X157.32409 Y-92.89285
G01 X157.61678 Y-92.89176
G01 X157.92351 Y-92.82656
G01 X158.20997 Y-92.69900
G01 X158.44741 Y-92.52786
G01 X158.47847 Y-92.49989
G01 X158.67350 Y-92.28165
G01 X158.82079 Y-92.02875
G01 X158.83778 Y-91.99054
G01 X158.92178 Y-91.73207
G01 X158.93047 Y-91.69118
G01 X158.95998 Y-91.40000
G01 X158.93047 Y-91.10881
G01 X158.92178 Y-91.06792
G01 X158.83029 Y-90.78989
G01 X158.67350 Y-90.51831
G01 X158.46367 Y-90.28529
G01 X158.22755 Y-90.11237
G01 X158.19133 Y-90.09146
G01 X157.94304 Y-89.98092
G01 X157.90329 Y-89.96799
G01 X157.61678 Y-89.90823
G01 X157.32409 Y-89.90714
G01 X157.28251 Y-89.91150
G01 X156.99646 Y-89.97343
G01 X156.71000 Y-90.10096
G01 X156.45630 Y-90.28529
G01 X156.25966 Y-90.50205
G01 X156.23507 Y-90.53586
G01 X156.08968 Y-90.78989
G01 X155.99819 Y-91.06792
G01 X155.98950 Y-91.10881
G01 X155.96001 Y-91.40000
G01 X156.01000 Y-91.40000
G01 X156.03924 Y-91.68595
G01 X156.04574 Y-91.71663
G01 X156.13535 Y-91.98976
G01 X156.27838 Y-92.23911
G01 X156.29679 Y-92.26446
G01 X156.48976 Y-92.47754
G01 X156.73499 Y-92.65572
G01 X157.01190 Y-92.77901
G01 X157.29290 Y-92.83959
G01 X157.32409 Y-92.84287
G01 X157.61155 Y-92.84203
G01 X157.89290 Y-92.78308
G01 X157.92272 Y-92.77337
G01 X158.18498 Y-92.65572
G01 X158.43021 Y-92.47754
G01 X158.62318 Y-92.26446
G01 X158.64159 Y-92.23911
G01 X158.78462 Y-91.98976
G01 X158.87423 Y-91.71663
G01 X158.88076 Y-91.68595
G01 X158.90997 Y-91.40000
G01 X158.87830 Y-91.09852
G01 X158.79023 Y-90.82489
G01 X158.77748 Y-90.79624
G01 X158.63306 Y-90.54770
G01 X158.44131 Y-90.33353
G01 X158.41802 Y-90.31254
G01 X158.18498 Y-90.14427
G01 X157.90807 Y-90.02095
G01 X157.62707 Y-89.96040
G01 X157.59587 Y-89.95712
G01 X157.30842 Y-89.95794
G01 X157.02709 Y-90.01689
G01 X156.99725 Y-90.02659
G01 X156.73499 Y-90.14427
G01 X156.50195 Y-90.31254
G01 X156.47866 Y-90.33353
G01 X156.28691 Y-90.54770
G01 X156.14249 Y-90.79624
G01 X156.12974 Y-90.82489
G01 X156.04167 Y-91.09852
G01 X156.01000 Y-91.40000
G01 X156.05999 Y-91.40000
G01 X156.09329 Y-91.70116
G01 X156.18102 Y-91.96941
G01 X156.32166 Y-92.21412
G01 X156.52321 Y-92.44038
G01 X156.75999 Y-92.61241
G01 X157.02737 Y-92.73146
G01 X157.32409 Y-92.79285
G01 X157.60631 Y-92.79232
G01 X157.88249 Y-92.73418
G01 X158.15998 Y-92.61241
G01 X158.39676 Y-92.44038
G01 X158.59831 Y-92.21412
G01 X158.73895 Y-91.96941
G01 X158.82668 Y-91.70116
G01 X158.85998 Y-91.40000
G01 X158.82940 Y-91.10891
G01 X158.73420 Y-90.82123
G01 X158.59260 Y-90.57709
G01 X158.40418 Y-90.36698
G01 X158.15998 Y-90.18755
G01 X157.89260 Y-90.06850
G01 X157.59587 Y-90.00711
G01 X157.31366 Y-90.00767
G01 X157.03748 Y-90.06581
G01 X156.75999 Y-90.18755
G01 X156.51582 Y-90.36698
G01 X156.32737 Y-90.57709
G01 X156.18577 Y-90.82123
G01 X156.09059 Y-91.10891
G01 X156.05999 Y-91.40000
G01 X156.10997 Y-91.40000
G01 X156.14084 Y-91.68572
G01 X156.22671 Y-91.94909
G01 X156.36497 Y-92.18910
G01 X156.55666 Y-92.40324
G01 X156.78498 Y-92.56913
G01 X157.04282 Y-92.68391
G01 X157.32409 Y-92.74287
G01 X157.60111 Y-92.74259
G01 X157.87210 Y-92.68526
G01 X158.13499 Y-92.56913
G01 X158.36702 Y-92.39954
G01 X158.55216 Y-92.19349
G01 X158.69089 Y-91.95374
G01 X158.78048 Y-91.68067
G01 X158.80999 Y-91.40000
G01 X158.78048 Y-91.11930
G01 X158.69089 Y-90.84622
G01 X158.55216 Y-90.60647
G01 X158.36702 Y-90.40045
G01 X158.13499 Y-90.23086
G01 X157.87715 Y-90.11605
G01 X157.59587 Y-90.05710
G01 X157.31886 Y-90.05738
G01 X157.04787 Y-90.11470
G01 X156.78498 Y-90.23086
G01 X156.55295 Y-90.40045
G01 X156.36781 Y-90.60647
G01 X156.22908 Y-90.84622
G01 X156.13949 Y-91.11930
G01 X156.10997 Y-91.40000
G04 P0 ( dwell for no time -- G64 should not smooth over this point )
G00 Z0.30000 ( retract )

G00 X155.91000 Y-86.31999 ( rapid move to begin. )
G01 F120.00000
( begin pre-milling-gcode )
M7
( end pre-milling-gcode )
( Mill infeed pass 1/1 )
G01 Z-0.05000
G04 P0 ( dwell for no time -- G64 should not smooth over this point )
G01 F680.00000
G01 X155.91000 Y-86.31999
G01 X155.94388 Y-86.64224
G01 X156.04401 Y-86.95042
G01 X156.20604 Y-87.23104
G01 X156.40434 Y-87.45334
G01 X156.44317 Y-87.48832
G01 X156.68501 Y-87.66231
G01 X156.95658 Y-87.78474
G01 X157.00629 Y-87.80087
G01 X157.27213 Y-87.85738
G01 X157.32409 Y-87.86284
G01 X157.62201 Y-87.86147
G01 X157.93895 Y-87.79411
G01 X158.23499 Y-87.66231
G01 X158.49712 Y-87.47186
G01 X158.71396 Y-87.23104
G01 X158.87596 Y-86.95042
G01 X158.97609 Y-86.64224
G01 X159.00997 Y-86.31999
G01 X158.97609 Y-85.99772
G01 X158.87596 Y-85.68954
G01 X158.71396 Y-85.40892
G01 X158.51563 Y-85.18662
G01 X158.47680 Y-85.15167
G01 X158.25691 Y-84.99191
G01 X158.21167 Y-84.96579
G01 X157.93895 Y-84.84588
G01 X157.64784 Y-84.78258
G01 X157.59587 Y-84.77712
G01 X157.32409 Y-84.77712
G01 X157.27213 Y-84.78258
G01 X156.98102 Y-84.84588
G01 X156.70832 Y-84.96579
G01 X156.66306 Y-84.99191
G01 X156.42285 Y-85.16813
G01 X156.20604 Y-85.40892
G01 X156.05590 Y-85.66625
G01 X156.03464 Y-85.71398
G01 X155.94388 Y-85.99772
G01 X155.91137 Y-86.29386
G01 X155.91000 Y-86.31999
G01 X155.96001 Y-86.31999
G01 X155.99278 Y-86.63186
G01 X156.08219 Y-86.91054
G01 X156.09918 Y-86.94875
G01 X156.24647 Y-87.20165
G01 X156.44150 Y-87.41989
G01 X156.47256 Y-87.44786
G01 X156.69245 Y-87.60762
G01 X156.72864 Y-87.62853
G01 X156.99646 Y-87.74656
G01 X157.28251 Y-87.80849
G01 X157.32409 Y-87.81285
G01 X157.61678 Y-87.81176
G01 X157.92351 Y-87.74656
G01 X158.20997 Y-87.61900
G01 X158.44741 Y-87.44786
G01 X158.47847 Y-87.41989
G01 X158.67350 Y-87.20165
G01 X158.82079 Y-86.94875
G01 X158.83778 Y-86.91054
G01 X158.92178 Y-86.65207
G01 X158.93047 Y-86.61118
G01 X158.95998 Y-86.31999
G01 X158.93047 Y-86.02881
G01 X158.92178 Y-85.98792
G01 X158.83029 Y-85.70989
G01 X158.67350 Y-85.43831
G01 X158.46367 Y-85.20529
G01 X158.22755 Y-85.03237
G01 X158.19133 Y-85.01146
