( pcb2gcode 2.5.0 )
( Software-independent Gcode )

G94 ( Millimeters per minute feed rate. )
G21 ( Units == Millimeters. )

G90 ( Absolute coordinates. )
G00 S24000 ( RPM spindle speed. )
G01 F680.00000 ( Feedrate. )


G00 Z50.00000 (Retract to tool change height)
T0
M5      (Spindle stop.)
G04 P1.00000 (Wait for spindle to stop)
(MSG, Change tool bit to mill diameter 0.10000mm)
M0      (Temporary machine stop.)
M3 ( Spindle on clockwise. )
G04 P1.00000 (Wait for spindle to get up to speed)
G04 P0 ( dwell for no time -- G64 should not smooth over this point )
G00 Z0.30000 ( retract )

G00 X-118.45000 Y-81.29999 ( rapid move to begin. )
G01 F120.00000
( begin pre-milling-gcode )
M7
( end pre-milling-gcode )
( Mill infeed pass 1/1 )
G01 Z-0.05000
G04 P0 ( dwell for no time -- G64 should not smooth over this point )
G01 F680.00000
G01 X-118.45000 Y-81.29999
G01 X-118.45000 Y-78.70000
G01 X-118.45480 Y-78.65123
G01 X-118.46903 Y-78.60431
G01 X-118.49214 Y-78.56111
G01 X-118.52323 Y-78.52324
G01 X-118.56110 Y-78.49215
G01 X-118.60433 Y-78.46903
G01 X-118.65122 Y-78.45481
G01 X-118.69999 Y-78.45001
G01 X-121.29999 Y-78.45001
G01 X-121.34875 Y-78.45481
G01 X-121.39564 Y-78.46903
G01 X-121.43887 Y-78.49215
G01 X-121.47674 Y-78.52324
G01 X-121.50783 Y-78.56111
G01 X-121.53095 Y-78.60431
G01 X-121.54517 Y-78.65123
G01 X-121.54997 Y-78.70000
G01 X-121.54997 Y-81.29999
G01 X-121.54517 Y-81.34876
G01 X-121.53095 Y-81.39565
G01 X-121.50783 Y-81.43888
G01 X-121.47674 Y-81.47675
G01 X-121.43887 Y-81.50784
G01 X-121.39564 Y-81.53093
G01 X-121.34875 Y-81.54518
G01 X-121.29999 Y-81.54998
G01 X-118.69999 Y-81.54998
G01 X-118.65122 Y-81.54518
G01 X-118.60433 Y-81.53093
G01 X-118.56110 Y-81.50784
G01 X-118.52323 Y-81.47675
G01 X-118.49214 Y-81.43888
G01 X-118.46903 Y-81.39565
G01 X-118.45480 Y-81.34876
G01 X-118.45000 Y-81.29999
G01 X-118.49999 Y-81.29999
G01 X-118.49999 Y-78.70000
G01 X-118.50385 Y-78.66098
G01 X-118.51523 Y-78.62346
G01 X-118.53370 Y-78.58887
G01 X-118.55856 Y-78.55857
G01 X-118.58889 Y-78.53370
G01 X-118.62346 Y-78.51524
G01 X-118.66098 Y-78.50386
G01 X-118.69999 Y-78.50000
G01 X-121.29999 Y-78.50000
G01 X-121.33900 Y-78.50386
G01 X-121.37652 Y-78.51524
G01 X-121.41109 Y-78.53370
G01 X-121.44139 Y-78.55857
G01 X-121.46628 Y-78.58887
G01 X-121.48475 Y-78.62346
G01 X-121.49612 Y-78.66098
G01 X-121.49996 Y-78.70000
G01 X-121.49996 Y-81.29999
G01 X-121.49612 Y-81.33900
G01 X-121.48475 Y-81.37652
G01 X-121.46628 Y-81.41109
G01 X-121.44139 Y-81.44139
G01 X-121.41109 Y-81.46626
G01 X-121.37652 Y-81.48475
G01 X-121.33900 Y-81.49613
G01 X-121.29999 Y-81.49996
G01 X-118.69999 Y-81.49996
G01 X-118.66098 Y-81.49613
G01 X-118.62346 Y-81.48475
G01 X-118.58889 Y-81.46626
G01 X-118.55856 Y-81.44139
G01 X-118.53370 Y-81.41109
G01 X-118.51523 Y-81.37652
G01 X-118.50385 Y-81.33900
G01 X-118.49999 Y-81.29999
G01 X-118.55000 Y-81.29999
G01 X-118.55000 Y-78.70000
G01 X-118.55287 Y-78.67073
G01 X-118.56141 Y-78.64259
G01 X-118.57528 Y-78.61666
G01 X-118.59392 Y-78.59392
G01 X-118.61665 Y-78.57528
G01 X-118.64259 Y-78.56141
G01 X-118.67073 Y-78.55288
G01 X-118.69999 Y-78.55001
G01 X-121.29999 Y-78.55001
G01 X-121.32925 Y-78.55288
G01 X-121.35739 Y-78.56141
G01 X-121.38332 Y-78.57528
G01 X-121.40606 Y-78.59392
G01 X-121.42470 Y-78.61666
G01 X-121.43857 Y-78.64259
G01 X-121.44710 Y-78.67073
G01 X-121.44997 Y-78.70000
G01 X-121.44997 Y-81.29999
G01 X-121.44710 Y-81.32925
G01 X-121.43857 Y-81.35739
G01 X-121.42470 Y-81.38333
G01 X-121.40606 Y-81.40603
G01 X-121.38332 Y-81.42470
G01 X-121.35739 Y-81.43857
G01 X-121.32925 Y-81.44711
G01 X-121.29999 Y-81.44998
G01 X-118.69999 Y-81.44998
G01 X-118.67073 Y-81.44711
G01 X-118.64259 Y-81.43857
G01 X-118.61665 Y-81.42470
G01 X-118.59392 Y-81.40603
G01 X-118.57528 Y-81.38333
G01 X-118.56141 Y-81.35739
G01 X-118.55287 Y-81.32925
G01 X-118.55000 Y-81.29999
G01 X-118.59999 Y-81.29999
G01 X-118.59999 Y-78.70000
G01 X-118.60761 Y-78.66172
G01 X-118.62928 Y-78.62928
G01 X-118.66171 Y-78.60762
G01 X-118.69999 Y-78.60000
G01 X-121.29999 Y-78.60000
G01 X-121.33826 Y-78.60762
G01 X-121.37070 Y-78.62928
G01 X-121.39237 Y-78.66172
G01 X-121.39999 Y-78.70000
G01 X-121.39999 Y-81.29999
G01 X-121.39237 Y-81.33824
G01 X-121.37070 Y-81.37070
G01 X-121.33826 Y-81.39237
G01 X-121.29999 Y-81.39999
G01 X-118.69999 Y-81.39999
G01 X-118.66171 Y-81.39237
G01 X-118.62928 Y-81.37070
G01 X-118.60761 Y-81.33824
G01 X-118.59999 Y-81.29999
G01 X-118.64998 Y-81.29999
G01 X-118.65379 Y-81.31912
G01 X-118.66463 Y-81.33535
G01 X-118.68086 Y-81.34619
G01 X-118.69999 Y-81.34998
G01 X-121.29999 Y-81.34998
G01 X-121.31911 Y-81.34619
G01 X-121.33534 Y-81.33535
G01 X-121.34619 Y-81.31912
G01 X-121.35000 Y-81.29999
G01 X-121.35000 Y-78.70000
G01 X-121.34619 Y-78.68084
G01 X-121.33534 Y-78.66464
G01 X-121.31911 Y-78.65379
G01 X-121.29999 Y-78.64998
G01 X-118.69999 Y-78.64998
G01 X-118.68086 Y-78.65379
G01 X-118.66463 Y-78.66464
G01 X-118.65379 Y-78.68084
G01 X-118.64998 Y-78.70000
G01 X-118.64998 Y-81.29999
G04 P0 ( dwell for no time -- G64 should not smooth over this point )
G00 Z0.30000 ( retract )

G00 X-118.64998 Y-85.07999 ( rapid move to begin. )
G01 F120.00000
( begin pre-milling-gcode )
M7
( end pre-milling-gcode )
( Mill infeed pass 1/1 )
G01 Z-0.05000
G04 P0 ( dwell for no time -- G64 should not smooth over this point )
G01 F680.00000
G01 X-118.64998 Y-85.07999
G01 X-118.67949 Y-84.79930
G01 X-118.76908 Y-84.52622
G01 X-118.90781 Y-84.28647
G01 X-119.09295 Y-84.08045
G01 X-119.32498 Y-83.91086
G01 X-119.58282 Y-83.79607
G01 X-119.86410 Y-83.73712
G01 X-120.14111 Y-83.73737
G01 X-120.41210 Y-83.79470
G01 X-120.67499 Y-83.91086
G01 X-120.90702 Y-84.08045
G01 X-121.09216 Y-84.28647
G01 X-121.23090 Y-84.52622
G01 X-121.32048 Y-84.79930
G01 X-121.35000 Y-85.07999
G01 X-121.31914 Y-85.36572
G01 X-121.23329 Y-85.62909
G01 X-121.09501 Y-85.86912
G01 X-120.90331 Y-86.08324
G01 X-120.67499 Y-86.24913
G01 X-120.41716 Y-86.36391
G01 X-120.13588 Y-86.42286
G01 X-119.85887 Y-86.42259
G01 X-119.58787 Y-86.36526
G01 X-119.32498 Y-86.24913
G01 X-119.09666 Y-86.08324
G01 X-118.90497 Y-85.86912
G01 X-118.76669 Y-85.62909
G01 X-118.68084 Y-85.36572
G01 X-118.64998 Y-85.07999
G01 X-118.59999 Y-85.07999
G01 X-118.63057 Y-84.78891
G01 X-118.72577 Y-84.50123
G01 X-118.86738 Y-84.25708
G01 X-119.05579 Y-84.04700
G01 X-119.29999 Y-83.86755
G01 X-119.56738 Y-83.74852
G01 X-119.86410 Y-83.68711
G01 X-120.14632 Y-83.68767
G01 X-120.42249 Y-83.74581
G01 X-120.69999 Y-83.86755
G01 X-120.94416 Y-84.04700
G01 X-121.13260 Y-84.25708
G01 X-121.27420 Y-84.50123
G01 X-121.36938 Y-84.78891
G01 X-121.39999 Y-85.07999
G01 X-121.36669 Y-85.38116
G01 X-121.27895 Y-85.64941
G01 X-121.13831 Y-85.89411
G01 X-120.93677 Y-86.12038
G01 X-120.69999 Y-86.29241
G01 X-120.43260 Y-86.41146
G01 X-120.13588 Y-86.47285
G01 X-119.85366 Y-86.47232
G01 X-119.57748 Y-86.41418
G01 X-119.29999 Y-86.29241
G01 X-119.06321 Y-86.12038
G01 X-118.86166 Y-85.89411
G01 X-118.72102 Y-85.64941
G01 X-118.63329 Y-85.38116
G01 X-118.59999 Y-85.07999
G01 X-118.55000 Y-85.07999
G01 X-118.58168 Y-84.77852
G01 X-118.66974 Y-84.50489
G01 X-118.68249 Y-84.47623
G01 X-118.82691 Y-84.22770
G01 X-119.01866 Y-84.01355
G01 X-119.04195 Y-83.99254
G01 X-119.27500 Y-83.82427
G01 X-119.55191 Y-83.70098
G01 X-119.83291 Y-83.64040
G01 X-119.86410 Y-83.63712
G01 X-120.13588 Y-83.63712
G01 X-120.16707 Y-83.64040
G01 X-120.44807 Y-83.70098
G01 X-120.71099 Y-83.81713
G01 X-120.73814 Y-83.83280
G01 X-120.97022 Y-84.00242
G01 X-121.16318 Y-84.21550
G01 X-121.18160 Y-84.24088
G01 X-121.32462 Y-84.49023
G01 X-121.41424 Y-84.76336
G01 X-121.42074 Y-84.79401
G01 X-121.44916 Y-85.06432
G01 X-121.44916 Y-85.09566
G01 X-121.41830 Y-85.38146
G01 X-121.32462 Y-85.66975
G01 X-121.17306 Y-85.93226
G01 X-120.98132 Y-86.14644
G01 X-120.95803 Y-86.16742
G01 X-120.72498 Y-86.33572
G01 X-120.46273 Y-86.45340
G01 X-120.43291 Y-86.46307
G01 X-120.16707 Y-86.51959
G01 X-120.13588 Y-86.52286
G01 X-119.84843 Y-86.52203
G01 X-119.56707 Y-86.46307
G01 X-119.53725 Y-86.45340
G01 X-119.27500 Y-86.33572
G01 X-119.04195 Y-86.16742
G01 X-119.01866 Y-86.14644
G01 X-118.82691 Y-85.93226
G01 X-118.67535 Y-85.66975
G01 X-118.58168 Y-85.38146
G01 X-118.55000 Y-85.07999
G01 X-118.49999 Y-85.07999
G01 X-118.53278 Y-84.76813
G01 X-118.62968 Y-84.46988
G01 X-118.78648 Y-84.19831
G01 X-118.98150 Y-83.98007
G01 X-119.01256 Y-83.95211
G01 X-119.25000 Y-83.78096
G01 X-119.51693 Y-83.66092
G01 X-119.55668 Y-83.64799
G01 X-119.82252 Y-83.59150
G01 X-119.86410 Y-83.58713
G01 X-120.15678 Y-83.58822
G01 X-120.46351 Y-83.65343
G01 X-120.74997 Y-83.78096
G01 X-120.98741 Y-83.95211
G01 X-121.01848 Y-83.98007
G01 X-121.21350 Y-84.19831
G01 X-121.36079 Y-84.45124
G01 X-121.37779 Y-84.48944
G01 X-121.46178 Y-84.74791
G01 X-121.47047 Y-84.78881
G01 X-121.49996 Y-85.07999
G01 X-121.46719 Y-85.39185
G01 X-121.37029 Y-85.69007
G01 X-121.21350 Y-85.96165
G01 X-121.00367 Y-86.19470
G01 X-120.76753 Y-86.36762
G01 X-120.73133 Y-86.38852
G01 X-120.46351 Y-86.50656
G01 X-120.17746 Y-86.56848
G01 X-120.13588 Y-86.57285
G01 X-119.84319 Y-86.57176
G01 X-119.53646 Y-86.50656
G01 X-119.26865 Y-86.38852
G01 X-119.23245 Y-86.36762
G01 X-118.99631 Y-86.19470
G01 X-118.79964 Y-85.97793
G01 X-118.77507 Y-85.94410
G01 X-118.63918 Y-85.70874
G01 X-118.62219 Y-85.67054
G01 X-118.53278 Y-85.39185
G01 X-118.49999 Y-85.07999
G01 X-118.45000 Y-85.07999
G01 X-118.48389 Y-84.75772
G01 X-118.57464 Y-84.47397
G01 X-118.59588 Y-84.42625
G01 X-118.74602 Y-84.16892
G01 X-118.94434 Y-83.94662
G01 X-118.98318 Y-83.91167
G01 X-119.20306 Y-83.75193
G01 X-119.24830 Y-83.72579
G01 X-119.52102 Y-83.60588
G01 X-119.81213 Y-83.54258
G01 X-119.86410 Y-83.53712
G01 X-120.16202 Y-83.53849
G01 X-120.47896 Y-83.60588
G01 X-120.77497 Y-83.73765
G01 X-121.03712 Y-83.92813
G01 X-121.25394 Y-84.16892
G01 X-121.41596 Y-84.44956
G01 X-121.51609 Y-84.75772
G01 X-121.54997 Y-85.07999
G01 X-121.51609 Y-85.40224
G01 X-121.41596 Y-85.71042
G01 X-121.25394 Y-85.99104
G01 X-121.05564 Y-86.21334
G01 X-121.01680 Y-86.24832
G01 X-120.77497 Y-86.42231
G01 X-120.50339 Y-86.54473
G01 X-120.45368 Y-86.56089
G01 X-120.18785 Y-86.61738
G01 X-120.13588 Y-86.62284
G01 X-119.83796 Y-86.62147
G01 X-119.52102 Y-86.55411
G01 X-119.22501 Y-86.42231
G01 X-118.96286 Y-86.23186
G01 X-118.74602 Y-85.99104
G01 X-118.58401 Y-85.71042
G01 X-118.48389 Y-85.40224
G01 X-118.45000 Y-85.07999
G04 P0 ( dwell for no time -- G64 should not smooth over this point )
G00 Z0.30000 ( retract )

G00 X-118.64998 Y-90.15999 ( rapid move to begin. )
G01 F120.00000
( begin pre-milling-gcode )
M7
( end pre-milling-gcode )
( Mill infeed pass 1/1 )
G01 Z-0.05000
G04 P0 ( dwell for no time -- G64 should not smooth over this point )
G01 F680.00000
G01 X-118.64998 Y-90.15999
G01 X-118.68084 Y-90.44572
G01 X-118.76669 Y-90.70909
G01 X-118.90497 Y-90.94912
G01 X-119.09666 Y-91.16324
G01 X-119.32498 Y-91.32913
G01 X-119.58282 Y-91.44391
G01 X-119.86410 Y-91.50286
G01 X-120.14111 Y-91.50259
G01 X-120.41210 Y-91.44526
G01 X-120.67499 Y-91.32913
G01 X-120.90331 Y-91.16324
G01 X-121.09501 Y-90.94912
G01 X-121.23329 Y-90.70909
G01 X-121.31914 Y-90.44572
G01 X-121.35000 Y-90.15999
G01 X-121.32048 Y-89.87930
G01 X-121.23090 Y-89.60622
G01 X-121.09216 Y-89.36647
G01 X-120.90702 Y-89.16045
G01 X-120.67499 Y-88.99086
G01 X-120.41716 Y-88.87607
G01 X-120.13588 Y-88.81712
G01 X-119.85887 Y-88.81737
G01 X-119.58787 Y-88.87470
G01 X-119.32498 Y-88.99086
G01 X-119.09666 Y-89.15674
G01 X-118.90497 Y-89.37087
G01 X-118.76669 Y-89.61090
G01 X-118.68084 Y-89.87424
G01 X-118.64998 Y-90.15999
G01 X-118.59999 Y-90.15999
G01 X-118.63057 Y-89.86891
G01 X-118.72577 Y-89.58123
G01 X-118.86738 Y-89.33708
G01 X-119.05579 Y-89.12700
G01 X-119.29999 Y-88.94755
G01 X-119.56738 Y-88.82852
G01 X-119.86410 Y-88.76711
G01 X-120.14632 Y-88.76767
G01 X-120.42249 Y-88.82581
G01 X-120.69999 Y-88.94755
G01 X-120.94416 Y-89.12700
G01 X-121.13260 Y-89.33708
G01 X-121.27420 Y-89.58123
G01 X-121.36938 Y-89.86891
G01 X-121.39999 Y-90.15999
G01 X-121.36669 Y-90.46116
G01 X-121.27895 Y-90.72941
G01 X-121.13831 Y-90.97411
G01 X-120.93677 Y-91.20038
G01 X-120.69999 Y-91.37241
G01 X-120.43260 Y-91.49146
G01 X-120.13588 Y-91.55285
G01 X-119.85366 Y-91.55232
G01 X-119.57748 Y-91.49418
G01 X-119.29999 Y-91.37241
G01 X-119.06321 Y-91.20038
G01 X-118.86166 Y-90.97411
G01 X-118.72102 Y-90.72941
G01 X-118.63329 Y-90.46116
G01 X-118.59999 Y-90.15999
G01 X-118.55000 Y-90.15999
G01 X-118.58168 Y-89.85852
G01 X-118.66974 Y-89.58489
G01 X-118.68249 Y-89.55623
G01 X-118.82691 Y-89.30770
G01 X-119.01866 Y-89.09355
G01 X-119.04195 Y-89.07254
G01 X-119.27500 Y-88.90427
G01 X-119.55191 Y-88.78098
G01 X-119.83291 Y-88.72040
G01 X-119.86410 Y-88.71712
G01 X-120.13588 Y-88.71712
G01 X-120.16707 Y-88.72040
G01 X-120.44807 Y-88.78098
G01 X-120.71099 Y-88.89713
G01 X-120.73814 Y-88.91280
G01 X-120.97022 Y-89.08242
G01 X-121.16318 Y-89.29550
G01 X-121.18160 Y-89.32088
G01 X-121.32462 Y-89.57023
G01 X-121.41424 Y-89.84336
G01 X-121.42074 Y-89.87401
G01 X-121.44916 Y-90.14432
G01 X-121.44916 Y-90.17566
G01 X-121.41830 Y-90.46147
G01 X-121.32462 Y-90.74975
G01 X-121.17306 Y-91.01226
G01 X-120.98132 Y-91.22644
G01 X-120.95803 Y-91.24742
G01 X-120.72498 Y-91.41572
G01 X-120.46273 Y-91.53340
G01 X-120.43291 Y-91.54307
G01 X-120.16707 Y-91.59959
G01 X-120.13588 Y-91.60286
G01 X-119.84843 Y-91.60203
G01 X-119.56707 Y-91.54307
G01 X-119.53725 Y-91.53340
G01 X-119.27500 Y-91.41572
G01 X-119.04195 Y-91.24742
G01 X-119.01866 Y-91.22644
G01 X-118.82691 Y-91.01226
G01 X-118.67535 Y-90.74975
G01 X-118.58168 Y-90.46147
G01 X-118.55000 Y-90.15999
G01 X-118.49999 Y-90.15999
G01 X-118.53278 Y-89.84813
G01 X-118.62968 Y-89.54988
G01 X-118.78648 Y-89.27831
G01 X-118.98150 Y-89.06007
G01 X-119.01256 Y-89.03211
G01 X-119.25000 Y-88.86096
G01 X-119.51693 Y-88.74092
G01 X-119.55668 Y-88.72799
G01 X-119.82252 Y-88.67150
G01 X-119.86410 Y-88.66713
G01 X-120.15678 Y-88.66822
G01 X-120.46351 Y-88.73343
G01 X-120.74997 Y-88.86096
G01 X-120.98741 Y-89.03211
G01 X-121.01848 Y-89.06007
G01 X-121.21350 Y-89.27831
G01 X-121.36079 Y-89.53124
G01 X-121.37779 Y-89.56944
G01 X-121.46178 Y-89.82791
G01 X-121.47047 Y-89.86881
G01 X-121.49996 Y-90.15999
G01 X-121.46719 Y-90.47185
G01 X-121.37029 Y-90.77007
G01 X-121.21350 Y-91.04165
G01 X-121.00367 Y-91.27470
G01 X-120.76753 Y-91.44762
G01 X-120.73133 Y-91.46852
G01 X-120.46351 Y-91.58656
G01 X-120.17746 Y-91.64848
G01 X-120.13588 Y-91.65285
G01 X-119.84319 Y-91.65176
G01 X-119.53646 Y-91.58656
G01 X-119.26865 Y-91.46852
G01 X-119.23245 Y-91.44762
G01 X-118.99631 Y-91.27470
G01 X-118.79964 Y-91.05793
G01 X-118.77507 Y-91.02410
G01 X-118.63918 Y-90.78874
G01 X-118.62219 Y-90.75054
G01 X-118.53278 Y-90.47185
G01 X-118.49999 Y-90.15999
G01 X-118.45000 Y-90.15999
G01 X-118.48389 Y-89.83772
G01 X-118.57464 Y-89.55397
G01 X-118.59588 Y-89.50625
G01 X-118.74602 Y-89.24892
G01 X-118.94434 Y-89.02662
G01 X-118.98318 Y-88.99167
G01 X-119.20306 Y-88.83193
G01 X-119.24830 Y-88.80579
G01 X-119.52102 Y-88.68588
G01 X-119.81213 Y-88.62258
G01 X-119.86410 Y-88.61712
G01 X-120.16202 Y-88.61849
G01 X-120.47896 Y-88.68588
G01 X-120.77497 Y-88.81765
G01 X-121.03712 Y-89.00813
G01 X-121.25394 Y-89.24892
G01 X-121.41596 Y-89.52956
G01 X-121.51609 Y-89.83772
G01 X-121.54997 Y-90.15999
G01 X-121.51609 Y-90.48224
G01 X-121.41596 Y-90.79042
G01 X-121.25394 Y-91.07104
G01 X-121.05564 Y-91.29334
G01 X-121.01680 Y-91.32832
G01 X-120.77497 Y-91.50231
G01 X-120.50339 Y-91.62473
G01 X-120.45368 Y-91.64089
G01 X-120.18785 Y-91.69738
G01 X-120.13588 Y-91.70284
G01 X-119.83796 Y-91.70147
G01 X-119.52102 Y-91.63411
G01 X-119.22501 Y-91.50231
G01 X-118.96286 Y-91.31186
G01 X-118.74602 Y-91.07104
G01 X-118.58401 Y-90.79042
G01 X-118.48389 Y-90.48224
G01 X-118.45000 Y-90.15999
G04 P0 ( dwell for no time -- G64 should not smooth over this point )
G00 Z0.30000 ( retract )

G00 X-118.64998 Y-95.23999 ( rapid move to begin. )
G01 F120.00000
( begin pre-milling-gcode )
M7
( end pre-milling-gcode )
( Mill infeed pass 1/1 )
G01 Z-0.05000
G04 P0 ( dwell for no time -- G64 should not smooth over this point )
G01 F680.00000
G01 X-118.64998 Y-95.23999
G01 X-118.67949 Y-94.95930
G01 X-118.76908 Y-94.68622
G01 X-118.90781 Y-94.44647
G01 X-119.09295 Y-94.24045
G01 X-119.32498 Y-94.07086
G01 X-119.58282 Y-93.95607
G01 X-119.86410 Y-93.89712
G01 X-120.14111 Y-93.89737
G01 X-120.41210 Y-93.95470
G01 X-120.67499 Y-94.07086
G01 X-120.90702 Y-94.24045
G01 X-121.09216 Y-94.44647
G01 X-121.23090 Y-94.68622
G01 X-121.32048 Y-94.95930
G01 X-121.35000 Y-95.23999
G01 X-121.31914 Y-95.52572
G01 X-121.23329 Y-95.78909
G01 X-121.09501 Y-96.02912
G01 X-120.90331 Y-96.24324
G01 X-120.67499 Y-96.40913
G01 X-120.41716 Y-96.52391
G01 X-120.13588 Y-96.58286
G01 X-119.85887 Y-96.58259
G01 X-119.58787 Y-96.52526
G01 X-119.32498 Y-96.40913
G01 X-119.09666 Y-96.24324
G01 X-118.90497 Y-96.02912
G01 X-118.76669 Y-95.78909
G01 X-118.68084 Y-95.52572
G01 X-118.64998 Y-95.23999
G01 X-118.59999 Y-95.23999
G01 X-118.63057 Y-94.94891
G01 X-118.72577 Y-94.66123
G01 X-118.86738 Y-94.41708
G01 X-119.05579 Y-94.20700
G01 X-119.29999 Y-94.02755
G01 X-119.56738 Y-93.90852
G01 X-119.86410 Y-93.84711
G01 X-120.14632 Y-93.84767
G01 X-120.42249 Y-93.90581
G01 X-120.69999 Y-94.02755
G01 X-120.94416 Y-94.20700
G01 X-121.13260 Y-94.41708
G01 X-121.27420 Y-94.66123
G01 X-121.36938 Y-94.94891
G01 X-121.39999 Y-95.23999
G01 X-121.36669 Y-95.54116
G01 X-121.27895 Y-95.80941
G01 X-121.13831 Y-96.05411
G01 X-120.93677 Y-96.28038
G01 X-120.69999 Y-96.45241
G01 X-120.43260 Y-96.57146
G01 X-120.13588 Y-96.63285
G01 X-119.85366 Y-96.63232
G01 X-119.57748 Y-96.57418
G01 X-119.29999 Y-96.45241
G01 X-119.06321 Y-96.28038
G01 X-118.86166 Y-96.05411
G01 X-118.72102 Y-95.80941
G01 X-118.63329 Y-95.54116
G01 X-118.59999 Y-95.23999
G01 X-118.55000 Y-95.23999
G01 X-118.58168 Y-94.93852
G01 X-118.66974 Y-94.66489
G01 X-118.68249 Y-94.63623
G01 X-118.82691 Y-94.38770
G01 X-119.01866 Y-94.17355
G01 X-119.04195 Y-94.15254
G01 X-119.27500 Y-93.98427
G01 X-119.55191 Y-93.86098
G01 X-119.83291 Y-93.80040
G01 X-119.86410 Y-93.79712
G01 X-120.13588 Y-93.79712
G01 X-120.16707 Y-93.80040
G01 X-120.44807 Y-93.86098
G01 X-120.71099 Y-93.97713
G01 X-120.73814 Y-93.99280
G01 X-120.97022 Y-94.16242
G01 X-121.16318 Y-94.37550
G01 X-121.18160 Y-94.40088
G01 X-121.32462 Y-94.65023
G01 X-121.41424 Y-94.92336
G01 X-121.42074 Y-94.95401
G01 X-121.44916 Y-95.22432
G01 X-121.44916 Y-95.25566
G01 X-121.41830 Y-95.54146
G01 X-121.32462 Y-95.82975
G01 X-121.17306 Y-96.09226
G01 X-120.98132 Y-96.30644
G01 X-120.95803 Y-96.32742
G01 X-120.72498 Y-96.49572
G01 X-120.46273 Y-96.61340
G01 X-120.43291 Y-96.62307
G01 X-120.16707 Y-96.67959
G01 X-120.13588 Y-96.68286
G01 X-119.84843 Y-96.68203
G01 X-119.56707 Y-96.62307
G01 X-119.53725 Y-96.61340
G01 X-119.27500 Y-96.49572
G01 X-119.04195 Y-96.32742
G01 X-119.01866 Y-96.30644
G01 X-118.82691 Y-96.09226
G01 X-118.67535 Y-95.82975
G01 X-118.58168 Y-95.54146
G01 X-118.55000 Y-95.23999
G01 X-118.49999 Y-95.23999
G01 X-118.53278 Y-94.92813
G01 X-118.62968 Y-94.62988
G01 X-118.78648 Y-94.35831
G01 X-118.98150 Y-94.14007
G01 X-119.01256 Y-94.11211
G01 X-119.25000 Y-93.94096
G01 X-119.51693 Y-93.82092
G01 X-119.55668 Y-93.80799
G01 X-119.82252 Y-93.75150
G01 X-119.86410 Y-93.74713
G01 X-120.15678 Y-93.74823
G01 X-120.46351 Y-93.81343
G01 X-120.74997 Y-93.94096
G01 X-120.98741 Y-94.11211
G01 X-121.01848 Y-94.14007
G01 X-121.21350 Y-94.35831
G01 X-121.36079 Y-94.61124
G01 X-121.37779 Y-94.64944
G01 X-121.46178 Y-94.90791
G01 X-121.47047 Y-94.94881
G01 X-121.49996 Y-95.23999
G01 X-121.46719 Y-95.55185
G01 X-121.37029 Y-95.85007
G01 X-121.21350 Y-96.12165
G01 X-121.00367 Y-96.35470
G01 X-120.76753 Y-96.52762
G01 X-120.73133 Y-96.54852
G01 X-120.46351 Y-96.66656
G01 X-120.17746 Y-96.72848
G01 X-120.13588 Y-96.73285
G01 X-119.84319 Y-96.73176
G01 X-119.53646 Y-96.66656
G01 X-119.26865 Y-96.54852
G01 X-119.23245 Y-96.52762
G01 X-118.99631 Y-96.35470
G01 X-118.79964 Y-96.13793
G01 X-118.77507 Y-96.10410
G01 X-118.63918 Y-95.86874
G01 X-118.62219 Y-95.83054
G01 X-118.53278 Y-95.55185
G01 X-118.49999 Y-95.23999
G01 X-118.45000 Y-95.23999
G01 X-118.48389 Y-94.91772
G01 X-118.57464 Y-94.63397
G01 X-118.59588 Y-94.58625
G01 X-118.74602 Y-94.32892
G01 X-118.94434 Y-94.10662
G01 X-118.98318 Y-94.07167
G01 X-119.20306 Y-93.91193
G01 X-119.24830 Y-93.88579
G01 X-119.52102 Y-93.76588
G01 X-119.81213 Y-93.70258
G01 X-119.86410 Y-93.69712
G01 X-120.16202 Y-93.69849
G01 X-120.47896 Y-93.76588
G01 X-120.77497 Y-93.89765
G01 X-121.03712 Y-94.08813
G01 X-121.25394 Y-94.32892
G01 X-121.41596 Y-94.60956
G01 X-121.51609 Y-94.91772
G01 X-121.54997 Y-95.23999
G01 X-121.51609 Y-95.56224
G01 X-121.41596 Y-95.87042
G01 X-121.25394 Y-96.15104
G01 X-121.05564 Y-96.37334
G01 X-121.01680 Y-96.40832
G01 X-120.77497 Y-96.58231
G01 X-120.50339 Y-96.70473
G01 X-120.45368 Y-96.72089
G01 X-120.18785 Y-96.77738
G01 X-120.13588 Y-96.78284
G01 X-119.83796 Y-96.78147
G01 X-119.52102 Y-96.71411
G01 X-119.22501 Y-96.58231
G01 X-118.96286 Y-96.39186
G01 X-118.74602 Y-96.15104
G01 X-118.58401 Y-95.87042
G01 X-118.48389 Y-95.56224
G01 X-118.45000 Y-95.23999
G04 P0 ( dwell for no time -- G64 should not smooth over this point )
G00 Z0.30000 ( retract )

G00 X-118.64998 Y-100.31999 ( rapid move to begin. )
G01 F120.00000
( begin pre-milling-gcode )
M7
( end pre-milling-gcode )
( Mill infeed pass 1/1 )
G01 Z-0.05000
G04 P0 ( dwell for no time -- G64 should not smooth over this point )
G01 F680.00000
G01 X-118.64998 Y-100.31999
G01 X-118.67949 Y-100.03930
G01 X-118.76908 Y-99.76622
G01 X-118.90781 Y-99.52647
G01 X-119.09295 Y-99.32045
G01 X-119.32498 Y-99.15086
G01 X-119.58282 Y-99.03607
G01 X-119.86410 Y-98.97712
G01 X-120.14111 Y-98.97737
G01 X-120.41210 Y-99.03470
G01 X-120.67499 Y-99.15086
G01 X-120.90702 Y-99.32045
G01 X-121.09216 Y-99.52647
G01 X-121.23090 Y-99.76622
G01 X-121.32048 Y-100.03930
G01 X-121.35000 Y-100.31999
G01 X-121.31914 Y-100.60572
G01 X-121.23329 Y-100.86909
G01 X-121.09501 Y-101.10912
G01 X-120.90331 Y-101.32324
G01 X-120.67499 Y-101.48913
G01 X-120.41716 Y-101.60391
G01 X-120.13588 Y-101.66284
G01 X-119.85887 Y-101.66259
G01 X-119.58787 Y-101.60523
G01 X-119.32498 Y-101.48913
G01 X-119.09666 Y-101.32324
G01 X-118.90497 Y-101.10912
G01 X-118.76669 Y-100.86909
G01 X-118.68084 Y-100.60572
G01 X-118.64998 Y-100.31999
G01 X-118.59999 Y-100.31999
G01 X-118.63057 Y-100.02891
G01 X-118.72577 Y-99.74123
G01 X-118.86738 Y-99.49708
G01 X-119.05579 Y-99.28700
G01 X-119.29999 Y-99.10755
G01 X-119.56738 Y-98.98852
G01 X-119.86410 Y-98.92711
G01 X-120.14632 Y-98.92767
G01 X-120.42249 Y-98.98581
G01 X-120.69999 Y-99.10755
G01 X-120.94416 Y-99.28700
G01 X-121.13260 Y-99.49708
G01 X-121.27420 Y-99.74123
G01 X-121.36938 Y-100.02891
G01 X-121.39999 Y-100.31999
G01 X-121.36669 Y-100.62116
G01 X-121.27895 Y-100.88941
G01 X-121.13831 Y-101.13411
G01 X-120.93677 Y-101.36038
G01 X-120.69999 Y-101.53241
G01 X-120.43260 Y-101.65146
G01 X-120.13588 Y-101.71285
G01 X-119.85366 Y-101.71232
G01 X-119.57748 Y-101.65415
G01 X-119.29999 Y-101.53241
G01 X-119.06321 Y-101.36038
G01 X-118.86166 Y-101.13411
G01 X-118.72102 Y-100.88941
G01 X-118.63329 Y-100.62116
G01 X-118.59999 Y-100.31999
G01 X-118.55000 Y-100.31999
G01 X-118.58168 Y-100.01852
G01 X-118.66974 Y-99.74489
G01 X-118.68249 Y-99.71623
G01 X-118.82691 Y-99.46770
G01 X-119.01866 Y-99.25355
G01 X-119.04195 Y-99.23254
G01 X-119.27500 Y-99.06427
G01 X-119.55191 Y-98.94098
G01 X-119.83291 Y-98.88040
G01 X-119.86410 Y-98.87712
G01 X-120.13588 Y-98.87712
G01 X-120.16707 Y-98.88040
G01 X-120.44807 Y-98.94098
G01 X-120.71099 Y-99.05713
G01 X-120.73814 Y-99.07280
G01 X-120.97022 Y-99.24242
G01 X-121.16318 Y-99.45550
G01 X-121.18160 Y-99.48088
G01 X-121.32462 Y-99.73023
G01 X-121.41424 Y-100.00336
G01 X-121.42074 Y-100.03401
G01 X-121.44916 Y-100.30432
G01 X-121.44916 Y-100.33566
G01 X-121.41830 Y-100.62147
G01 X-121.32462 Y-100.90975
G01 X-121.17306 Y-101.17226
G01 X-120.98132 Y-101.38644
G01 X-120.95803 Y-101.40742
G01 X-120.73814 Y-101.56716
G01 X-120.71099 Y-101.58285
G01 X-120.44807 Y-101.69901
G01 X-120.16707 Y-101.75959
G01 X-120.13588 Y-101.76286
G01 X-119.84843 Y-101.76203
G01 X-119.56707 Y-101.70305
G01 X-119.53725 Y-101.69337
G01 X-119.27500 Y-101.57572
G01 X-119.04195 Y-101.40742
G01 X-119.01866 Y-101.38644
G01 X-118.82691 Y-101.17226
G01 X-118.67535 Y-100.90975
G01 X-118.58168 Y-100.62147
G01 X-118.55000 Y-100.31999
G01 X-118.49999 Y-100.31999
G01 X-118.53278 Y-100.00813
G01 X-118.62968 Y-99.70988
G01 X-118.78648 Y-99.43831
G01 X-118.98150 Y-99.22007
G01 X-119.01256 Y-99.19211
G01 X-119.25000 Y-99.02096
G01 X-119.51693 Y-98.90092
G01 X-119.55668 Y-98.88799
G01 X-119.82252 Y-98.83150
G01 X-119.86410 Y-98.82713
G01 X-120.15678 Y-98.82822
G01 X-120.46351 Y-98.89343
G01 X-120.74997 Y-99.02096
G01 X-120.98741 Y-99.19211
G01 X-121.01848 Y-99.22007
G01 X-121.21350 Y-99.43831
G01 X-121.36079 Y-99.69124
G01 X-121.37779 Y-99.72944
G01 X-121.46178 Y-99.98791
G01 X-121.47047 Y-100.02881
G01 X-121.49996 Y-100.31999
G01 X-121.46719 Y-100.63185
G01 X-121.37029 Y-100.93008
G01 X-121.21350 Y-101.20165
G01 X-121.00367 Y-101.43470
G01 X-120.76753 Y-101.60762
G01 X-120.73133 Y-101.62850
G01 X-120.46351 Y-101.74656
G01 X-120.17746 Y-101.80848
G01 X-120.13588 Y-101.81285
G01 X-119.84319 Y-101.81176
G01 X-119.53646 Y-101.74656
G01 X-119.26865 Y-101.62850
G01 X-119.23245 Y-101.60762
G01 X-118.99631 Y-101.43470
G01 X-118.79964 Y-101.21793
G01 X-118.77507 Y-101.18410
G01 X-118.63918 Y-100.94874
G01 X-118.62219 Y-100.91054
G01 X-118.53278 Y-100.63185
G01 X-118.49999 Y-100.31999
G01 X-118.45000 Y-100.31999
G01 X-118.48389 Y-99.99772
G01 X-118.57464 Y-99.71397
G01 X-118.59588 Y-99.66625
G01 X-118.74602 Y-99.40892
G01 X-118.94434 Y-99.18662
G01 X-118.98318 Y-99.15167
G01 X-119.20306 Y-98.99193
G01 X-119.24830 Y-98.96579
G01 X-119.52102 Y-98.84588
G01 X-119.81213 Y-98.78258
G01 X-119.86410 Y-98.77712
G01 X-120.16202 Y-98.77849
G01 X-120.47896 Y-98.84588
G01 X-120.77497 Y-98.97765
G01 X-121.03712 Y-99.16813
G01 X-121.25394 Y-99.40892
G01 X-121.41596 Y-99.68956
G01 X-121.51609 Y-99.99772
G01 X-121.54997 Y-100.31999
G01 X-121.51609 Y-100.64224
G01 X-121.41596 Y-100.95042
G01 X-121.25394 Y-101.23104
G01 X-121.05564 Y-101.45334
G01 X-121.01680 Y-101.48832
G01 X-120.77497 Y-101.66231
G01 X-120.50339 Y-101.78471
G01 X-120.45368 Y-101.80086
G01 X-120.18785 Y-101.85735
G01 X-120.13588 Y-101.86281
G01 X-119.83796 Y-101.86147
G01 X-119.52102 Y-101.79408
G01 X-119.22501 Y-101.66231
G01 X-118.96286 Y-101.47186
G01 X-118.74602 Y-101.23104
G01 X-118.58401 Y-100.95042
G01 X-118.48389 Y-100.64224
G01 X-118.45000 Y-100.31999
G04 P0 ( dwell for no time -- G64 should not smooth over this point )
G00 Z0.30000 ( retract )

G00 X-118.45000 Y-105.39999 ( rapid move to begin. )
G01 F120.00000
( begin pre-milling-gcode )
M7
( end pre-milling-gcode )
( Mill infeed pass 1/1 )
G01 Z-0.05000
G04 P0 ( dwell for no time -- G64 should not smooth over this point )
G01 F680.00000
G01 X-118.45000 Y-105.39999
G01 X-118.48389 Y-105.72224
G01 X-118.58401 Y-106.03042
G01 X-118.74602 Y-106.31104
G01 X-118.94434 Y-106.53332
G01 X-118.98318 Y-106.56832
G01 X-119.20306 Y-106.72806
G01 X-119.24830 Y-106.75419
G01 X-119.52102 Y-106.87411
G01 X-119.81213 Y-106.93738
G01 X-119.86410 Y-106.94284
G01 X-120.16202 Y-106.94147
G01 X-120.47896 Y-106.87411
G01 X-120.77497 Y-106.74231
G01 X-121.03712 Y-106.55186
G01 X-121.25394 Y-106.31104
G01 X-121.41596 Y-106.03042
G01 X-121.51609 Y-105.72224
G01 X-121.54997 Y-105.39999
G01 X-121.51609 Y-105.07769
G01 X-121.41596 Y-104.76956
G01 X-121.25394 Y-104.48892
G01 X-121.05564 Y-104.26662
G01 X-121.01680 Y-104.23164
G01 X-120.77497 Y-104.05765
G01 X-120.50339 Y-103.93525
G01 X-120.45368 Y-103.91910
G01 X-120.18785 Y-103.86258
G01 X-120.13588 Y-103.85712
G01 X-119.86410 Y-103.85712
G01 X-119.81213 Y-103.86258
G01 X-119.52102 Y-103.92588
G01 X-119.24830 Y-104.04579
G01 X-119.20306 Y-104.07193
G01 X-118.96286 Y-104.24810
G01 X-118.74602 Y-104.48892
G01 X-118.59588 Y-104.74625
G01 X-118.57464 Y-104.79395
G01 X-118.48389 Y-105.07769
G01 X-118.45138 Y-105.37386
G01 X-118.45000 Y-105.39999
G01 X-118.49999 Y-105.39999
G01 X-118.53278 Y-105.71183
G01 X-118.62219 Y-105.99054
G01 X-118.63918 Y-106.02874
G01 X-118.78648 Y-106.28165
G01 X-118.98150 Y-106.49989
G01 X-119.01256 Y-106.52785
G01 X-119.23245 Y-106.68762
G01 X-119.26865 Y-106.70852
G01 X-119.53646 Y-106.82656
G01 X-119.82252 Y-106.88848
G01 X-119.86410 Y-106.89285
G01 X-120.15678 Y-106.89176
G01 X-120.46351 Y-106.82656
G01 X-120.74997 Y-106.69902
G01 X-120.98741 Y-106.52785
G01 X-121.01848 Y-106.49989
G01 X-121.21350 Y-106.28165
G01 X-121.36079 Y-106.02874
G01 X-121.37779 Y-105.99054
G01 X-121.46178 Y-105.73207
G01 X-121.47047 Y-105.69115
G01 X-121.49996 Y-105.39999
G01 X-121.47047 Y-105.10881
G01 X-121.46178 Y-105.06791
G01 X-121.37029 Y-104.78988
G01 X-121.21350 Y-104.51828
G01 X-121.00367 Y-104.28529
G01 X-120.76753 Y-104.11236
G01 X-120.73133 Y-104.09146
G01 X-120.48305 Y-103.98092
G01 X-120.44329 Y-103.96799
G01 X-120.15678 Y-103.90820
G01 X-119.86410 Y-103.90713
G01 X-119.82252 Y-103.91150
G01 X-119.53646 Y-103.97340
G01 X-119.25000 Y-104.10093
G01 X-119.01256 Y-104.27211
G01 X-118.98150 Y-104.30007
G01 X-118.78648 Y-104.51828
G01 X-118.63918 Y-104.77122
G01 X-118.62219 Y-104.80944
G01 X-118.53278 Y-105.08813
G01 X-118.49999 Y-105.39999
G01 X-118.55000 Y-105.39999
G01 X-118.57924 Y-105.68595
G01 X-118.58574 Y-105.71663
G01 X-118.67535 Y-105.98973
G01 X-118.81838 Y-106.23911
G01 X-118.83680 Y-106.26446
G01 X-119.02976 Y-106.47754
G01 X-119.27500 Y-106.65572
G01 X-119.55191 Y-106.77901
G01 X-119.83291 Y-106.83959
G01 X-119.86410 Y-106.84286
G01 X-120.15155 Y-106.84203
G01 X-120.43291 Y-106.78307
G01 X-120.46273 Y-106.77340
G01 X-120.72498 Y-106.65572
G01 X-120.95803 Y-106.48742
G01 X-120.98132 Y-106.46644
G01 X-121.17306 Y-106.25226
G01 X-121.31749 Y-106.00375
G01 X-121.33024 Y-105.97507
G01 X-121.41830 Y-105.70146
G01 X-121.44997 Y-105.39999
G01 X-121.41830 Y-105.09852
G01 X-121.33024 Y-104.82489
G01 X-121.31749 Y-104.79621
G01 X-121.17306 Y-104.54767
G01 X-120.98132 Y-104.33355
G01 X-120.95803 Y-104.31252
G01 X-120.72498 Y-104.14427
G01 X-120.44807 Y-104.02098
G01 X-120.16707 Y-103.96040
G01 X-120.13588 Y-103.95712
G01 X-119.84843 Y-103.95791
G01 X-119.56707 Y-104.01691
G01 X-119.53725 Y-104.02659
G01 X-119.27500 Y-104.14427
G01 X-119.04195 Y-104.31252
G01 X-119.01866 Y-104.33355
G01 X-118.82691 Y-104.54767
G01 X-118.68249 Y-104.79621
G01 X-118.66974 Y-104.82489
G01 X-118.58168 Y-105.09852
G01 X-118.55000 Y-105.39999
G01 X-118.59999 Y-105.39999
G01 X-118.63329 Y-105.70116
G01 X-118.72102 Y-105.96941
G01 X-118.86166 Y-106.21409
G01 X-119.06321 Y-106.44035
G01 X-119.29999 Y-106.61241
G01 X-119.56738 Y-106.73146
G01 X-119.86410 Y-106.79285
G01 X-120.14632 Y-106.79232
G01 X-120.42249 Y-106.73418
G01 X-120.69999 Y-106.61241
G01 X-120.94416 Y-106.43296
G01 X-121.13260 Y-106.22288
G01 X-121.27420 Y-105.97873
G01 X-121.36938 Y-105.69105
G01 X-121.39999 Y-105.39999
G01 X-121.36938 Y-105.10891
G01 X-121.27420 Y-104.82123
G01 X-121.13260 Y-104.57706
G01 X-120.94416 Y-104.36700
G01 X-120.69999 Y-104.18755
G01 X-120.43260 Y-104.06852
G01 X-120.13588 Y-104.00711
G01 X-119.85366 Y-104.00764
G01 X-119.57748 Y-104.06581
G01 X-119.29999 Y-104.18755
G01 X-119.05579 Y-104.36700
G01 X-118.86738 Y-104.57706
G01 X-118.72577 Y-104.82123
G01 X-118.63057 Y-105.10891
G01 X-118.59999 Y-105.39999
G01 X-118.64998 Y-105.39999
G01 X-118.68084 Y-105.68569
G01 X-118.76669 Y-105.94906
G01 X-118.90497 Y-106.18912
G01 X-119.09666 Y-106.40324
G01 X-119.32498 Y-106.56913
G01 X-119.58282 Y-106.68391
G01 X-119.86410 Y-106.74286
G01 X-120.14111 Y-106.74259
G01 X-120.41210 Y-106.68526
G01 X-120.67499 Y-106.56913
G01 X-120.90331 Y-106.40324
G01 X-121.09501 Y-106.18912
G01 X-121.23329 Y-105.94906
G01 X-121.31914 Y-105.68569
G01 X-121.35000 Y-105.39999
G01 X-121.32048 Y-105.11930
G01 X-121.23090 Y-104.84622
G01 X-121.09216 Y-104.60647
G01 X-120.90702 Y-104.40045
G01 X-120.67499 Y-104.23083
G01 X-120.41716 Y-104.11607
G01 X-120.13588 Y-104.05712
G01 X-119.85887 Y-104.05735
G01 X-119.58787 Y-104.11470
G01 X-119.32498 Y-104.23083
G01 X-119.09295 Y-104.40045
G01 X-118.90781 Y-104.60647
G01 X-118.76908 Y-104.84622
G01 X-118.67949 Y-105.11930
G01 X-118.64998 Y-105.39999
G04 P0 ( dwell for no time -- G64 should not smooth over this point )
G00 Z0.30000 ( retract )

G00 X-128.50000 Y-99.99998 ( rapid move to begin. )
G01 F120.00000
( begin pre-milling-gcode )
M7
( end pre-milling-gcode )
( Mill infeed pass 1/1 )
G01 Z-0.05000
G04 P0 ( dwell for no time -- G64 should not smooth over this point )
G01 F680.00000
G01 X-128.50000 Y-99.99998
G01 X-128.50000 Y-98.99998
G01 X-128.51094 Y-98.89604
G01 X-128.54323 Y-98.79663
G01 X-128.59550 Y-98.70610
G01 X-128.66543 Y-98.62843
G01 X-128.72806 Y-98.58124
G01 X-128.77330 Y-98.55512
G01 X-128.84549 Y-98.52447
G01 X-128.96078 Y-98.50171
G01 X-130.05242 Y-98.50277
G01 X-130.15448 Y-98.52447
G01 X-130.24998 Y-98.56699
G01 X-130.33454 Y-98.62843
G01 X-130.40449 Y-98.70610
G01 X-130.44487 Y-98.77331
G01 X-130.46611 Y-98.82106
G01 X-130.48905 Y-98.89604
G01 X-130.49860 Y-98.97387
G01 X-130.49860 Y-100.02611
G01 X-130.48905 Y-100.10394
G01 X-130.46611 Y-100.17892
G01 X-130.44487 Y-100.22667
G01 X-130.40449 Y-100.29386
G01 X-130.35303 Y-100.35304
G01 X-130.31419 Y-100.38801
G01 X-130.24998 Y-100.43297
G01 X-130.17891 Y-100.46612
G01 X-130.12920 Y-100.48227
G01 X-130.03921 Y-100.49825
G01 X-128.97353 Y-100.49861
G01 X-128.92189 Y-100.49314
G01 X-128.84549 Y-100.47549
G01 X-128.77330 Y-100.44486
G01 X-128.72806 Y-100.41872
G01 X-128.66543 Y-100.37155
G01 X-128.59550 Y-100.29386
G01 X-128.55512 Y-100.22667
G01 X-128.54323 Y-100.20336
G01 X-128.51770 Y-100.12921
G01 X-128.50683 Y-100.07808
G01 X-128.50000 Y-99.99998
G01 X-128.55001 Y-99.99998
G01 X-128.55001 Y-98.99998
G01 X-128.55656 Y-98.92711
G01 X-128.56525 Y-98.88621
G01 X-128.59840 Y-98.79830
G01 X-128.63594 Y-98.73549
G01 X-128.69888 Y-98.66559
G01 X-128.77500 Y-98.61029
G01 X-128.84140 Y-98.57953
G01 X-128.88115 Y-98.56660
G01 X-128.96339 Y-98.55164
G01 X-130.02638 Y-98.55136
G01 X-130.11882 Y-98.56660
G01 X-130.15859 Y-98.57953
G01 X-130.24254 Y-98.62170
G01 X-130.30109 Y-98.66559
G01 X-130.35087 Y-98.71923
G01 X-130.37543 Y-98.75304
G01 X-130.41107 Y-98.81697
G01 X-130.43471 Y-98.88621
G01 X-130.44340 Y-98.92711
G01 X-130.44998 Y-98.99998
G01 X-130.44889 Y-100.02088
G01 X-130.44015 Y-100.09355
G01 X-130.41107 Y-100.18301
G01 X-130.36403 Y-100.26449
G01 X-130.31589 Y-100.31959
G01 X-130.28483 Y-100.34758
G01 X-130.20632 Y-100.39919
G01 X-130.13903 Y-100.42794
G01 X-130.03660 Y-100.44834
G01 X-128.95283 Y-100.44750
G01 X-128.86093 Y-100.42794
G01 X-128.79365 Y-100.39919
G01 X-128.75745 Y-100.37829
G01 X-128.69888 Y-100.33439
G01 X-128.63594 Y-100.26449
G01 X-128.59840 Y-100.20165
G01 X-128.56525 Y-100.11377
G01 X-128.55656 Y-100.07288
G01 X-128.55001 Y-99.99998
G01 X-128.60000 Y-99.99998
G01 X-128.60000 Y-98.99998
G01 X-128.60627 Y-98.93234
G01 X-128.61280 Y-98.90166
G01 X-128.64170 Y-98.82330
G01 X-128.67640 Y-98.76488
G01 X-128.73233 Y-98.70275
G01 X-128.80000 Y-98.65357
G01 X-128.86172 Y-98.62520
G01 X-128.89154 Y-98.61550
G01 X-128.96601 Y-98.60158
G01 X-130.02631 Y-98.60138
G01 X-130.05730 Y-98.60465
G01 X-130.12359 Y-98.61956
G01 X-130.18600 Y-98.64646
G01 X-130.26763 Y-98.70275
G01 X-130.32359 Y-98.76488
G01 X-130.35826 Y-98.82330
G01 X-130.38717 Y-98.90166
G01 X-130.39369 Y-98.93234
G01 X-130.39997 Y-98.99998
G01 X-130.39915 Y-100.01568
G01 X-130.39123 Y-100.08314
G01 X-130.36540 Y-100.16266
G01 X-130.32359 Y-100.23511
G01 X-130.27873 Y-100.28613
G01 X-130.21315 Y-100.33785
G01 X-130.18600 Y-100.35352
G01 X-130.12359 Y-100.38039
G01 X-130.03398 Y-100.39840
G01 X-128.95809 Y-100.39777
G01 X-128.86172 Y-100.37478
G01 X-128.80000 Y-100.34638
G01 X-128.73233 Y-100.29723
G01 X-128.67640 Y-100.23511
G01 X-128.64170 Y-100.17666
G01 X-128.62895 Y-100.14801
G01 X-128.60627 Y-100.06764
G01 X-128.60000 Y-99.99998
G01 X-128.64998 Y-99.99998
G01 X-128.64998 Y-98.99998
G01 X-128.65600 Y-98.93755
G01 X-128.68501 Y-98.84832
G01 X-128.71684 Y-98.79427
G01 X-128.76578 Y-98.73988
G01 X-128.82499 Y-98.69688
G01 X-128.88206 Y-98.67087
G01 X-128.96863 Y-98.65149
G01 X-130.04691 Y-98.65355
G01 X-130.10815 Y-98.66711
G01 X-130.16565 Y-98.69213
G01 X-130.23418 Y-98.73988
G01 X-130.28313 Y-98.79427
G01 X-130.31498 Y-98.84832
G01 X-130.34396 Y-98.93755
G01 X-130.34998 Y-98.99998
G01 X-130.34945 Y-100.01044
G01 X-130.34234 Y-100.07275
G01 X-130.31973 Y-100.14234
G01 X-130.28313 Y-100.20572
G01 X-130.23418 Y-100.26007
G01 X-130.17497 Y-100.30310
G01 X-130.11790 Y-100.32911
G01 X-130.03136 Y-100.34847
G01 X-128.96334 Y-100.34806
G01 X-128.89184 Y-100.33284
G01 X-128.83431 Y-100.30785
G01 X-128.76578 Y-100.26007
G01 X-128.71684 Y-100.20572
G01 X-128.68501 Y-100.15167
G01 X-128.65600 Y-100.06241
G01 X-128.64998 Y-99.99998
G01 X-128.70000 Y-99.99998
G01 X-128.70655 Y-100.06236
G01 X-128.72405 Y-100.11712
G01 X-128.76058 Y-100.18039
G01 X-128.79926 Y-100.22294
G01 X-128.84998 Y-100.25979
G01 X-128.90729 Y-100.28530
G01 X-128.96860 Y-100.29835
G01 X-130.02875 Y-100.29855
G01 X-130.09758 Y-100.28342
G01 X-130.14998 Y-100.25979
G01 X-130.20073 Y-100.22294
G01 X-130.24269 Y-100.17633
G01 X-130.27406 Y-100.12200
G01 X-130.29344 Y-100.06236
G01 X-130.29971 Y-100.00521
G01 X-130.29999 Y-98.99998
G01 X-130.29425 Y-98.94278
G01 X-130.27167 Y-98.87331
G01 X-130.24269 Y-98.82365
G01 X-130.20073 Y-98.77704
G01 X-130.14533 Y-98.73780
G01 X-130.09270 Y-98.71466
G01 X-130.03652 Y-98.70244
G01 X-128.97124 Y-98.70143
G01 X-128.90241 Y-98.71654
G01 X-128.84998 Y-98.74019
G01 X-128.79926 Y-98.77704
G01 X-128.75727 Y-98.82365
G01 X-128.72593 Y-98.87796
G01 X-128.70655 Y-98.93762
G01 X-128.70025 Y-98.99477
G01 X-128.70000 Y-99.99998
G04 P0 ( dwell for no time -- G64 should not smooth over this point )
G00 Z0.30000 ( retract )

G00 X-131.50002 Y-99.49998 ( rapid move to begin. )
G01 F120.00000
( begin pre-milling-gcode )
M7
( end pre-milling-gcode )
( Mill infeed pass 1/1 )
G01 Z-0.05000
G04 P0 ( dwell for no time -- G64 should not smooth over this point )
G01 F680.00000
G01 X-131.50002 Y-99.49998
G01 X-131.52186 Y-99.70790
G01 X-131.58645 Y-99.90671
G01 X-131.69100 Y-100.08776
G01 X-131.81236 Y-100.22462
G01 X-131.85120 Y-100.25959
G01 X-131.99999 Y-100.36599
G01 X-132.16654 Y-100.44166
G01 X-132.21625 Y-100.45779
G01 X-132.36961 Y-100.49040
G01 X-132.42158 Y-100.49586
G01 X-132.60451 Y-100.49449
G01 X-132.80901 Y-100.45103
G01 X-132.99999 Y-100.36599
G01 X-133.16910 Y-100.24311
G01 X-133.30898 Y-100.08776
G01 X-133.41353 Y-99.90671
G01 X-133.47812 Y-99.70790
G01 X-133.49996 Y-99.49998
G01 X-133.47812 Y-99.29208
G01 X-133.41353 Y-99.09325
G01 X-133.30898 Y-98.91222
G01 X-133.18762 Y-98.77537
G01 X-133.14878 Y-98.74039
G01 X-133.02193 Y-98.64824
G01 X-132.97667 Y-98.62210
G01 X-132.80901 Y-98.54895
G01 X-132.63037 Y-98.50958
G01 X-132.57837 Y-98.50412
G01 X-132.39547 Y-98.50549
G01 X-132.21625 Y-98.54217
G01 X-132.16654 Y-98.55832
G01 X-132.02331 Y-98.62210
G01 X-131.97804 Y-98.64824
G01 X-131.83088 Y-98.75685
G01 X-131.69100 Y-98.91222
G01 X-131.59834 Y-99.06996
G01 X-131.57708 Y-99.11768
G01 X-131.52186 Y-99.29208
G01 X-131.50139 Y-99.47387
G01 X-131.50002 Y-99.49998
G01 X-131.55000 Y-99.49998
G01 X-131.57076 Y-99.69749
G01 X-131.63212 Y-99.88639
G01 X-131.72003 Y-100.04082
G01 X-131.74462 Y-100.07465
G01 X-131.86433 Y-100.20597
G01 X-132.00743 Y-100.31131
G01 X-132.04365 Y-100.33221
G01 X-132.20642 Y-100.40348
G01 X-132.40068 Y-100.44476
G01 X-132.59928 Y-100.44476
G01 X-132.77332 Y-100.40889
G01 X-132.81309 Y-100.39596
G01 X-132.95633 Y-100.33221
G01 X-132.99255 Y-100.31131
G01 X-133.13565 Y-100.20597
G01 X-133.25536 Y-100.07465
G01 X-133.27995 Y-100.04082
G01 X-133.36783 Y-99.88639
G01 X-133.42922 Y-99.69749
G01 X-133.44997 Y-99.49998
G01 X-133.43250 Y-99.32314
G01 X-133.42379 Y-99.28225
G01 X-133.36783 Y-99.11359
G01 X-133.27995 Y-98.95916
G01 X-133.25536 Y-98.92533
G01 X-133.15046 Y-98.80882
G01 X-133.11939 Y-98.78083
G01 X-132.97497 Y-98.67727
G01 X-132.79354 Y-98.59650
G01 X-132.59928 Y-98.55520
G01 X-132.42158 Y-98.55411
G01 X-132.38000 Y-98.55848
G01 X-132.22663 Y-98.59109
G01 X-132.18688 Y-98.60399
G01 X-132.02498 Y-98.67727
G01 X-131.88058 Y-98.78083
G01 X-131.84952 Y-98.80882
G01 X-131.73144 Y-98.94161
G01 X-131.63212 Y-99.11359
G01 X-131.57076 Y-99.30247
G01 X-131.55000 Y-99.49998
G01 X-131.59999 Y-99.49998
G01 X-131.61968 Y-99.68710
G01 X-131.67218 Y-99.85139
G01 X-131.68493 Y-99.88004
G01 X-131.77187 Y-100.02898
G01 X-131.88668 Y-100.15771
G01 X-131.90997 Y-100.17869
G01 X-132.05000 Y-100.27940
G01 X-132.20723 Y-100.35029
G01 X-132.23705 Y-100.36000
G01 X-132.40591 Y-100.39505
G01 X-132.57837 Y-100.39586
G01 X-132.60956 Y-100.39259
G01 X-132.77809 Y-100.35593
G01 X-132.93601 Y-100.28654
G01 X-132.96316 Y-100.27084
G01 X-133.10220 Y-100.16881
G01 X-133.22811 Y-100.02898
G01 X-133.31505 Y-99.88004
G01 X-133.32780 Y-99.85139
G01 X-133.37624 Y-99.70226
G01 X-133.38277 Y-99.67161
G01 X-133.39999 Y-99.49998
G01 X-133.38277 Y-99.32838
G01 X-133.37624 Y-99.29769
G01 X-133.32216 Y-99.13394
G01 X-133.22811 Y-98.97100
G01 X-133.10220 Y-98.83117
G01 X-132.96316 Y-98.72911
G01 X-132.93601 Y-98.71344
G01 X-132.77809 Y-98.64405
G01 X-132.60956 Y-98.60737
G01 X-132.57837 Y-98.60410
G01 X-132.42158 Y-98.60410
G01 X-132.39041 Y-98.60737
G01 X-132.22188 Y-98.64405
G01 X-132.05000 Y-98.72058
G01 X-131.90997 Y-98.82129
G01 X-131.88668 Y-98.84227
G01 X-131.77187 Y-98.97100
G01 X-131.68493 Y-99.11994
G01 X-131.67218 Y-99.14860
G01 X-131.61968 Y-99.31286
G01 X-131.59999 Y-99.49998
G01 X-131.65000 Y-99.49998
G01 X-131.67126 Y-99.68682
G01 X-131.72349 Y-99.84572
G01 X-131.80662 Y-99.99083
G01 X-131.93123 Y-100.13165
G01 X-132.07500 Y-100.23610
G01 X-132.23733 Y-100.30838
G01 X-132.42158 Y-100.34587
G01 X-132.58884 Y-100.34532
G01 X-132.75254 Y-100.31108
G01 X-132.92498 Y-100.23610
G01 X-133.06875 Y-100.13165
G01 X-133.19336 Y-99.99083
G01 X-133.27649 Y-99.84572
G01 X-133.32869 Y-99.68682
G01 X-133.34997 Y-99.49998
G01 X-133.32869 Y-99.31316
G01 X-133.27649 Y-99.15426
G01 X-133.19336 Y-99.00915
G01 X-133.06875 Y-98.86831
G01 X-132.92498 Y-98.76386
G01 X-132.76265 Y-98.69160
G01 X-132.57837 Y-98.65411
G01 X-132.41114 Y-98.65464
G01 X-132.24744 Y-98.68888
G01 X-132.07500 Y-98.76386
G01 X-131.93123 Y-98.86831
G01 X-131.80662 Y-99.00915
G01 X-131.72349 Y-99.15426
G01 X-131.67126 Y-99.31316
G01 X-131.65000 Y-99.49998
G01 X-131.69999 Y-99.49998
G01 X-131.71881 Y-99.32860
G01 X-131.76915 Y-99.17460
G01 X-131.85277 Y-99.02975
G01 X-131.96468 Y-98.90547
G01 X-132.09999 Y-98.80717
G01 X-132.25277 Y-98.73915
G01 X-132.42158 Y-98.70410
G01 X-132.58361 Y-98.70437
G01 X-132.74215 Y-98.73778
G01 X-132.89999 Y-98.80717
G01 X-133.03529 Y-98.90547
G01 X-133.15005 Y-99.03414
G01 X-133.23082 Y-99.17460
G01 X-133.28114 Y-99.32860
G01 X-133.29999 Y-99.49998
G01 X-133.28251 Y-99.66632
G01 X-133.22844 Y-99.83005
G01 X-133.14721 Y-99.97021
G01 X-133.03900 Y-100.09081
G01 X-132.89999 Y-100.19281
G01 X-132.74721 Y-100.26084
G01 X-132.57837 Y-100.29589
G01 X-132.41637 Y-100.29561
G01 X-132.25783 Y-100.26218
G01 X-132.09999 Y-100.19281
G01 X-131.96098 Y-100.09081
G01 X-131.85277 Y-99.97021
G01 X-131.77152 Y-99.83005
G01 X-131.71747 Y-99.66632
G01 X-131.69999 Y-99.49998
G04 P0 ( dwell for no time -- G64 should not smooth over this point )
G00 Z0.30000 ( retract )

G00 X-131.69999 Y-96.49998 ( rapid move to begin. )
G01 F120.00000
( begin pre-milling-gcode )
M7
( end pre-milling-gcode )
( Mill infeed pass 1/1 )
G01 Z-0.05000
G04 P0 ( dwell for no time -- G64 should not smooth over this point )
G01 F680.00000
G01 X-131.69999 Y-96.49998
G01 X-131.71747 Y-96.66630
G01 X-131.77152 Y-96.83003
G01 X-131.85277 Y-96.97021
G01 X-131.96098 Y-97.09081
G01 X-132.09999 Y-97.19280
G01 X-132.25277 Y-97.26084
G01 X-132.42158 Y-97.29587
G01 X-132.58361 Y-97.29561
G01 X-132.74215 Y-97.26219
G01 X-132.89999 Y-97.19280
G01 X-133.03529 Y-97.09450
G01 X-133.15005 Y-96.96582
G01 X-133.23082 Y-96.82538
G01 X-133.28114 Y-96.67138
G01 X-133.29999 Y-96.49998
G01 X-133.28114 Y-96.32861
G01 X-133.23082 Y-96.17459
G01 X-133.15005 Y-96.03415
G01 X-133.03529 Y-95.90547
G01 X-132.89999 Y-95.80717
G01 X-132.74721 Y-95.73915
G01 X-132.57837 Y-95.70410
G01 X-132.41637 Y-95.70438
G01 X-132.25783 Y-95.73778
G01 X-132.09999 Y-95.80717
G01 X-131.96468 Y-95.90547
G01 X-131.85277 Y-96.02975
G01 X-131.76915 Y-96.17459
G01 X-131.71881 Y-96.32861
G01 X-131.69999 Y-96.49998
G01 X-131.65000 Y-96.49998
G01 X-131.67126 Y-96.31314
G01 X-131.72349 Y-96.15427
G01 X-131.80662 Y-96.00916
G01 X-131.93123 Y-95.86831
G01 X-132.07500 Y-95.76387
G01 X-132.23733 Y-95.69160
G01 X-132.42158 Y-95.65409
G01 X-132.58884 Y-95.65465
G01 X-132.75254 Y-95.68889
G01 X-132.92498 Y-95.76387
G01 X-133.06875 Y-95.86831
G01 X-133.19336 Y-96.00916
G01 X-133.27649 Y-96.15427
G01 X-133.32869 Y-96.31314
G01 X-133.34997 Y-96.49998
G01 X-133.32869 Y-96.68683
G01 X-133.27649 Y-96.84570
G01 X-133.19336 Y-96.99081
G01 X-133.06875 Y-97.13166
G01 X-132.92498 Y-97.23610
G01 X-132.76265 Y-97.30839
G01 X-132.57837 Y-97.34588
G01 X-132.41114 Y-97.34532
G01 X-132.24744 Y-97.31108
G01 X-132.07500 Y-97.23610
G01 X-131.93123 Y-97.13166
G01 X-131.80662 Y-96.99081
G01 X-131.72349 Y-96.84570
G01 X-131.67126 Y-96.68683
G01 X-131.65000 Y-96.49998
G01 X-131.59999 Y-96.49998
G01 X-131.61968 Y-96.31286
G01 X-131.67218 Y-96.14858
G01 X-131.68493 Y-96.11995
G01 X-131.77187 Y-95.97098
G01 X-131.88668 Y-95.84228
G01 X-131.90997 Y-95.82130
G01 X-132.05000 Y-95.72056
G01 X-132.22188 Y-95.64406
G01 X-132.39041 Y-95.60738
G01 X-132.42158 Y-95.60410
G01 X-132.57837 Y-95.60410
G01 X-132.60956 Y-95.60738
G01 X-132.77809 Y-95.64406
G01 X-132.93601 Y-95.71345
G01 X-132.96316 Y-95.72912
G01 X-133.10220 Y-95.83115
G01 X-133.22811 Y-95.97098
G01 X-133.32216 Y-96.13392
G01 X-133.37624 Y-96.29770
G01 X-133.38277 Y-96.32838
G01 X-133.39999 Y-96.49998
G01 X-133.38277 Y-96.67159
G01 X-133.37624 Y-96.70227
G01 X-133.32780 Y-96.85139
G01 X-133.31505 Y-96.88004
G01 X-133.22811 Y-97.02899
G01 X-133.10220 Y-97.16882
G01 X-132.96316 Y-97.27085
G01 X-132.93601 Y-97.28652
G01 X-132.77809 Y-97.35594
G01 X-132.60956 Y-97.39259
G01 X-132.57837 Y-97.39587
G01 X-132.40591 Y-97.39506
G01 X-132.23705 Y-97.36000
G01 X-132.20723 Y-97.35030
G01 X-132.05000 Y-97.27941
G01 X-131.90997 Y-97.17870
G01 X-131.88668 Y-97.15772
G01 X-131.77187 Y-97.02899
G01 X-131.68493 Y-96.88004
G01 X-131.67218 Y-96.85139
G01 X-131.61968 Y-96.68711
G01 X-131.59999 Y-96.49998
G01 X-131.55000 Y-96.49998
G01 X-131.57076 Y-96.30247
G01 X-131.63212 Y-96.11360
G01 X-131.73144 Y-95.94159
G01 X-131.84952 Y-95.80880
G01 X-131.88058 Y-95.78083
G01 X-132.02498 Y-95.67728
G01 X-132.18688 Y-95.60400
G01 X-132.22663 Y-95.59107
G01 X-132.38000 Y-95.55848
G01 X-132.42158 Y-95.55411
G01 X-132.59928 Y-95.55521
G01 X-132.79354 Y-95.59651
G01 X-132.97497 Y-95.67728
G01 X-133.13565 Y-95.79402
G01 X-133.26854 Y-95.94159
G01 X-133.35833 Y-96.09493
G01 X-133.37535 Y-96.13313
G01 X-133.42379 Y-96.28226
G01 X-133.43250 Y-96.32315
G01 X-133.44997 Y-96.49998
G01 X-133.43250 Y-96.67682
G01 X-133.42379 Y-96.71771
G01 X-133.36783 Y-96.88637
G01 X-133.26854 Y-97.05838
G01 X-133.15046 Y-97.19117
G01 X-133.11939 Y-97.21913
G01 X-132.97497 Y-97.32269
G01 X-132.81309 Y-97.39597
G01 X-132.77332 Y-97.40890
G01 X-132.59928 Y-97.44476
G01 X-132.40068 Y-97.44476
G01 X-132.20642 Y-97.40349
G01 X-132.04365 Y-97.33219
G01 X-132.00743 Y-97.31129
G01 X-131.88058 Y-97.21913
G01 X-131.84952 Y-97.19117
G01 X-131.73144 Y-97.05838
G01 X-131.64165 Y-96.90504
G01 X-131.62463 Y-96.86684
G01 X-131.57076 Y-96.69750
G01 X-131.55000 Y-96.49998
G01 X-131.50002 Y-96.49998
G01 X-131.52186 Y-96.29209
G01 X-131.57708 Y-96.11769
G01 X-131.59834 Y-96.06994
G01 X-131.69100 Y-95.91220
G01 X-131.81236 Y-95.77535
G01 X-131.85120 Y-95.74040
G01 X-131.97804 Y-95.64822
G01 X-132.02331 Y-95.62211
G01 X-132.19097 Y-95.54896
G01 X-132.36961 Y-95.50959
G01 X-132.42158 Y-95.50413
G01 X-132.60451 Y-95.50547
G01 X-132.80901 Y-95.54896
G01 X-132.99999 Y-95.63397
G01 X-133.16910 Y-95.75686
G01 X-133.30898 Y-95.91220
G01 X-133.41353 Y-96.09325
G01 X-133.47812 Y-96.29209
G01 X-133.49996 Y-96.49998
G01 X-133.47812 Y-96.70788
G01 X-133.41353 Y-96.90671
G01 X-133.30898 Y-97.08777
G01 X-133.18762 Y-97.22462
G01 X-133.14878 Y-97.25957
G01 X-133.02193 Y-97.35175
G01 X-132.97667 Y-97.37788
G01 X-132.80901 Y-97.45104
G01 X-132.63037 Y-97.49041
G01 X-132.57837 Y-97.49587
G01 X-132.39547 Y-97.49450
G01 X-132.19097 Y-97.45104
G01 X-131.99999 Y-97.36600
G01 X-131.83088 Y-97.24311
G01 X-131.69100 Y-97.08777
G01 X-131.58645 Y-96.90671
G01 X-131.52186 Y-96.70788
G01 X-131.50002 Y-96.49998
G04 P0 ( dwell for no time -- G64 should not smooth over this point )
G00 Z0.30000 ( retract )

G00 X-128.70000 Y-96.49998 ( rapid move to begin. )
G01 F120.00000
( begin pre-milling-gcode )
M7
( end pre-milling-gcode )
( Mill infeed pass 1/1 )
G01 Z-0.05000
G04 P0 ( dwell for no time -- G64 should not smooth over this point )
G01 F680.00000
G01 X-128.70000 Y-96.49998
G01 X-128.71747 Y-96.66630
G01 X-128.77152 Y-96.83003
G01 X-128.85278 Y-96.97021
G01 X-128.96098 Y-97.09081
G01 X-129.10000 Y-97.19280
G01 X-129.25278 Y-97.26084
G01 X-129.42159 Y-97.29587
G01 X-129.58361 Y-97.29561
G01 X-129.74213 Y-97.26219
G01 X-129.89999 Y-97.19280
G01 X-130.03530 Y-97.09450
G01 X-130.15006 Y-96.96582
G01 X-130.23083 Y-96.82538
G01 X-130.28115 Y-96.67138
G01 X-130.29999 Y-96.49998
G01 X-130.28115 Y-96.32861
G01 X-130.23083 Y-96.17459
G01 X-130.15006 Y-96.03415
G01 X-130.03530 Y-95.90547
G01 X-129.89999 Y-95.80717
G01 X-129.74721 Y-95.73915
G01 X-129.57838 Y-95.70410
G01 X-129.41635 Y-95.70438
G01 X-129.25783 Y-95.73778
G01 X-129.10000 Y-95.80717
G01 X-128.96469 Y-95.90547
G01 X-128.85278 Y-96.02975
G01 X-128.76916 Y-96.17459
G01 X-128.71882 Y-96.32861
G01 X-128.70000 Y-96.49998
G01 X-128.64998 Y-96.49998
G01 X-128.67127 Y-96.31314
G01 X-128.72347 Y-96.15427
G01 X-128.80663 Y-96.00916
G01 X-128.93124 Y-95.86831
G01 X-129.07500 Y-95.76387
G01 X-129.23733 Y-95.69160
G01 X-129.42159 Y-95.65409
G01 X-129.58884 Y-95.65465
G01 X-129.75255 Y-95.68889
G01 X-129.92499 Y-95.76387
G01 X-130.07614 Y-95.87573
G01 X-130.18765 Y-96.00037
G01 X-130.27175 Y-96.14494
G01 X-130.33141 Y-96.32325
G01 X-130.34998 Y-96.49998
G01 X-130.33141 Y-96.67672
G01 X-130.27175 Y-96.85503
G01 X-130.18765 Y-96.99960
G01 X-130.07614 Y-97.12427
G01 X-129.92499 Y-97.23610
G01 X-129.76266 Y-97.30839
G01 X-129.57838 Y-97.34588
G01 X-129.41115 Y-97.34532
G01 X-129.24744 Y-97.31108
G01 X-129.07500 Y-97.23610
G01 X-128.93124 Y-97.13166
G01 X-128.80663 Y-96.99081
G01 X-128.72347 Y-96.84570
G01 X-128.67127 Y-96.68683
G01 X-128.64998 Y-96.49998
G01 X-128.60000 Y-96.49998
G01 X-128.61722 Y-96.32838
G01 X-128.62372 Y-96.29770
G01 X-128.67780 Y-96.13392
G01 X-128.76332 Y-95.98416
G01 X-128.78176 Y-95.95879
G01 X-128.89779 Y-95.83115
G01 X-129.04998 Y-95.72056
G01 X-129.22187 Y-95.64406
G01 X-129.39039 Y-95.60738
G01 X-129.42159 Y-95.60410
G01 X-129.57838 Y-95.60410
G01 X-129.60957 Y-95.60738
G01 X-129.77810 Y-95.64406
G01 X-129.93599 Y-95.71345
G01 X-129.96314 Y-95.72912
G01 X-130.10220 Y-95.83115
G01 X-130.22809 Y-95.97098
G01 X-130.32217 Y-96.13392
G01 X-130.37624 Y-96.29770
G01 X-130.38277 Y-96.32838
G01 X-130.39997 Y-96.49998
G01 X-130.38277 Y-96.67159
G01 X-130.37624 Y-96.70227
G01 X-130.32781 Y-96.85139
G01 X-130.31503 Y-96.88004
G01 X-130.22809 Y-97.02899
G01 X-130.10220 Y-97.16882
G01 X-129.96314 Y-97.27085
G01 X-129.93599 Y-97.28652
G01 X-129.77810 Y-97.35594
G01 X-129.60957 Y-97.39259
G01 X-129.57838 Y-97.39587
G01 X-129.40591 Y-97.39506
G01 X-129.23703 Y-97.36000
G01 X-129.20721 Y-97.35030
G01 X-129.04998 Y-97.27941
G01 X-128.90998 Y-97.17870
G01 X-128.88669 Y-97.15772
G01 X-128.77188 Y-97.02899
G01 X-128.67780 Y-96.86605
G01 X-128.62372 Y-96.70227
G01 X-128.61722 Y-96.67159
G01 X-128.60000 Y-96.49998
G01 X-128.55001 Y-96.49998
G01 X-128.57076 Y-96.30247
G01 X-128.63213 Y-96.11360
G01 X-128.73144 Y-95.94159
G01 X-128.84953 Y-95.80880
G01 X-128.88059 Y-95.78083
G01 X-129.02499 Y-95.67728
G01 X-129.18689 Y-95.60400
G01 X-129.22664 Y-95.59107
G01 X-129.38001 Y-95.55848
G01 X-129.42159 Y-95.55411
G01 X-129.59928 Y-95.55521
G01 X-129.79354 Y-95.59651
G01 X-129.97497 Y-95.67728
G01 X-130.13566 Y-95.79402
G01 X-130.26855 Y-95.94159
G01 X-130.35834 Y-96.09493
G01 X-130.37536 Y-96.13313
G01 X-130.42920 Y-96.30247
G01 X-130.44889 Y-96.47908
G01 X-130.44889 Y-96.52089
G01 X-130.43248 Y-96.67682
G01 X-130.42379 Y-96.71771
G01 X-130.36784 Y-96.88637
G01 X-130.26855 Y-97.05838
G01 X-130.15046 Y-97.19117
G01 X-130.11937 Y-97.21913
G01 X-129.97497 Y-97.32269
G01 X-129.81310 Y-97.39597
G01 X-129.77332 Y-97.40890
G01 X-129.59928 Y-97.44476
G01 X-129.40068 Y-97.44476
G01 X-129.20642 Y-97.40349
G01 X-129.04366 Y-97.33219
G01 X-129.00744 Y-97.31129
G01 X-128.88059 Y-97.21913
G01 X-128.84953 Y-97.19117
G01 X-128.73144 Y-97.05838
G01 X-128.64163 Y-96.90504
G01 X-128.62463 Y-96.86684
G01 X-128.57076 Y-96.69750
G01 X-128.55001 Y-96.49998
G01 X-128.50000 Y-96.49998
G01 X-128.52187 Y-96.29209
G01 X-128.57709 Y-96.11769
G01 X-128.59835 Y-96.06994
G01 X-128.69098 Y-95.91220
G01 X-128.81237 Y-95.77535
G01 X-128.85120 Y-95.74040
G01 X-128.97805 Y-95.64822
G01 X-129.02331 Y-95.62211
G01 X-129.19098 Y-95.54896
G01 X-129.36962 Y-95.50959
G01 X-129.42159 Y-95.50413
G01 X-129.60452 Y-95.50547
G01 X-129.80899 Y-95.54896
G01 X-129.99997 Y-95.63397
G01 X-130.16911 Y-95.75686
G01 X-130.30899 Y-95.91220
G01 X-130.41351 Y-96.09325
G01 X-130.47812 Y-96.29209
G01 X-130.49997 Y-96.49998
G01 X-130.47812 Y-96.70788
G01 X-130.41351 Y-96.90671
G01 X-130.30899 Y-97.08777
G01 X-130.18760 Y-97.22462
G01 X-130.14876 Y-97.25957
G01 X-130.02191 Y-97.35175
G01 X-129.97665 Y-97.37788
G01 X-129.80899 Y-97.45104
G01 X-129.63035 Y-97.49041
G01 X-129.57838 Y-97.49587
G01 X-129.39545 Y-97.49450
G01 X-129.19098 Y-97.45104
G01 X-129.00000 Y-97.36600
G01 X-128.83086 Y-97.24311
G01 X-128.69098 Y-97.08777
G01 X-128.58646 Y-96.90671
G01 X-128.52187 Y-96.70788
G01 X-128.50000 Y-96.49998
G04 P0 ( dwell for no time -- G64 should not smooth over this point )
G00 Z0.30000 ( retract )

G00 X-144.71066 Y-76.16066 ( rapid move to begin. )
G01 F120.00000
( begin pre-milling-gcode )
M7
( end pre-milling-gcode )
( Mill infeed pass 1/1 )
G01 Z-0.05000
G04 P0 ( dwell for no time -- G64 should not smooth over this point )
G01 F680.00000
G01 X-144.71066 Y-76.16066
G01 X-144.74015 Y-75.87996
G01 X-144.82973 Y-75.60688
G01 X-144.96847 Y-75.36713
G01 X-145.15361 Y-75.16109
G01 X-145.38564 Y-74.99152
G01 X-145.64347 Y-74.87671
G01 X-145.92475 Y-74.81776
G01 X-146.20176 Y-74.81804
G01 X-146.47276 Y-74.87536
G01 X-146.73565 Y-74.99152
G01 X-146.96768 Y-75.16109
G01 X-147.15282 Y-75.36713
G01 X-147.29155 Y-75.60688
G01 X-147.38114 Y-75.87996
G01 X-147.41065 Y-76.16066
G01 X-147.38114 Y-76.44133
G01 X-147.29155 Y-76.71440
G01 X-147.15282 Y-76.95415
G01 X-146.96768 Y-77.16020
G01 X-146.73565 Y-77.32979
G01 X-146.47781 Y-77.44457
G01 X-146.19653 Y-77.50353
G01 X-145.91955 Y-77.50325
G01 X-145.64853 Y-77.44592
G01 X-145.38564 Y-77.32979
G01 X-145.15732 Y-77.16388
G01 X-144.96562 Y-76.94976
G01 X-144.82737 Y-76.70975
G01 X-144.74149 Y-76.44638
G01 X-144.71066 Y-76.16066
G01 X-144.66065 Y-76.16066
G01 X-144.69394 Y-75.85946
G01 X-144.78168 Y-75.59121
G01 X-144.92232 Y-75.34653
G01 X-145.12387 Y-75.12025
G01 X-145.36064 Y-74.94821
G01 X-145.62803 Y-74.82916
G01 X-145.92475 Y-74.76777
G01 X-146.20700 Y-74.76833
G01 X-146.48317 Y-74.82647
G01 X-146.76064 Y-74.94821
G01 X-147.00484 Y-75.12764
G01 X-147.19328 Y-75.33775
G01 X-147.33486 Y-75.58189
G01 X-147.43006 Y-75.86957
G01 X-147.46064 Y-76.16066
G01 X-147.42734 Y-76.46182
G01 X-147.33961 Y-76.73007
G01 X-147.19897 Y-76.97478
G01 X-146.99742 Y-77.20104
G01 X-146.76064 Y-77.37307
G01 X-146.49328 Y-77.49212
G01 X-146.19653 Y-77.55352
G01 X-145.91431 Y-77.55298
G01 X-145.63814 Y-77.49484
G01 X-145.36064 Y-77.37307
G01 X-145.12387 Y-77.20104
G01 X-144.92232 Y-76.97478
G01 X-144.78168 Y-76.73007
G01 X-144.69394 Y-76.46182
G01 X-144.66065 Y-76.16066
G01 X-144.61066 Y-76.16066
G01 X-144.64233 Y-75.85918
G01 X-144.73039 Y-75.58555
G01 X-144.74314 Y-75.55690
G01 X-144.88757 Y-75.30836
G01 X-145.07931 Y-75.09419
G01 X-145.10261 Y-75.07321
G01 X-145.33565 Y-74.90493
G01 X-145.61259 Y-74.78161
G01 X-145.89359 Y-74.72106
G01 X-145.92475 Y-74.71778
G01 X-146.21220 Y-74.71860
G01 X-146.49356 Y-74.77755
G01 X-146.52338 Y-74.78725
G01 X-146.77166 Y-74.89779
G01 X-146.79882 Y-74.91346
G01 X-147.03087 Y-75.08309
G01 X-147.23372 Y-75.30836
G01 X-147.38528 Y-75.57089
G01 X-147.47489 Y-75.84402
G01 X-147.48142 Y-75.87468
G01 X-147.51063 Y-76.16066
G01 X-147.48142 Y-76.44661
G01 X-147.47489 Y-76.47729
G01 X-147.39092 Y-76.73576
G01 X-147.37814 Y-76.76439
G01 X-147.23372 Y-77.01293
G01 X-147.04197 Y-77.22710
G01 X-147.01868 Y-77.24808
G01 X-146.78563 Y-77.41638
G01 X-146.52338 Y-77.53403
G01 X-146.49356 Y-77.54374
G01 X-146.22772 Y-77.60023
G01 X-146.19653 Y-77.60350
G01 X-145.90908 Y-77.60269
G01 X-145.62775 Y-77.54374
G01 X-145.59793 Y-77.53403
G01 X-145.33565 Y-77.41638
G01 X-145.10261 Y-77.24808
G01 X-145.07931 Y-77.22710
G01 X-144.88757 Y-77.01293
G01 X-144.73601 Y-76.75042
G01 X-144.64233 Y-76.46213
G01 X-144.61066 Y-76.16066
G01 X-144.56067 Y-76.16066
G01 X-144.59344 Y-75.84879
G01 X-144.69034 Y-75.55055
G01 X-144.84713 Y-75.27897
G01 X-145.04215 Y-75.06073
G01 X-145.07322 Y-75.03277
G01 X-145.31066 Y-74.86162
G01 X-145.57759 Y-74.74158
G01 X-145.61734 Y-74.72865
G01 X-145.88317 Y-74.67216
G01 X-145.92475 Y-74.66777
G01 X-146.21744 Y-74.66889
G01 X-146.52417 Y-74.73406
G01 X-146.81063 Y-74.86162
G01 X-147.06432 Y-75.04595
G01 X-147.27415 Y-75.27897
G01 X-147.42145 Y-75.53190
G01 X-147.43847 Y-75.57008
G01 X-147.52785 Y-75.84879
G01 X-147.55955 Y-76.13975
G01 X-147.55955 Y-76.18156
G01 X-147.53112 Y-76.45184
G01 X-147.52244 Y-76.49273
G01 X-147.43095 Y-76.77074
G01 X-147.27415 Y-77.04231
G01 X-147.06432 Y-77.27536
G01 X-146.82821 Y-77.44828
G01 X-146.79198 Y-77.46919
G01 X-146.52417 Y-77.58722
G01 X-146.23811 Y-77.64915
G01 X-146.19653 Y-77.65351
G01 X-145.90385 Y-77.65242
G01 X-145.59712 Y-77.58722
G01 X-145.32930 Y-77.46919
G01 X-145.29311 Y-77.44828
G01 X-145.07322 Y-77.28852
G01 X-145.04215 Y-77.26055
G01 X-144.84713 Y-77.04231
G01 X-144.69984 Y-76.78941
G01 X-144.68284 Y-76.75121
G01 X-144.59344 Y-76.47252
G01 X-144.56067 Y-76.16066
G01 X-144.51066 Y-76.16066
G01 X-144.54454 Y-75.83838
G01 X-144.63530 Y-75.55464
G01 X-144.65656 Y-75.50691
G01 X-144.79245 Y-75.27153
G01 X-144.82315 Y-75.22926
G01 X-145.02351 Y-75.00879
G01 X-145.26372 Y-74.83257
G01 X-145.30898 Y-74.80645
G01 X-145.58167 Y-74.68652
G01 X-145.87278 Y-74.62324
G01 X-145.92475 Y-74.61778
G01 X-146.22267 Y-74.61915
G01 X-146.53961 Y-74.68652
G01 X-146.83565 Y-74.81832
G01 X-147.09778 Y-75.00879
G01 X-147.31462 Y-75.24958
G01 X-147.47662 Y-75.53020
G01 X-147.57677 Y-75.83838
G01 X-147.61063 Y-76.16066
G01 X-147.57677 Y-76.48291
G01 X-147.47662 Y-76.79108
G01 X-147.31462 Y-77.07170
G01 X-147.11629 Y-77.29400
G01 X-147.07746 Y-77.32898
G01 X-146.85759 Y-77.48872
G01 X-146.81233 Y-77.51486
G01 X-146.53961 Y-77.63477
G01 X-146.24850 Y-77.69804
G01 X-146.19653 Y-77.70350
G01 X-145.89864 Y-77.70213
G01 X-145.58167 Y-77.63477
G01 X-145.28566 Y-77.50297
G01 X-145.02351 Y-77.31249
G01 X-144.80670 Y-77.07170
G01 X-144.64467 Y-76.79108
G01 X-144.54454 Y-76.48291
G01 X-144.51066 Y-76.16066
G04 P0 ( dwell for no time -- G64 should not smooth over this point )
G00 Z0.30000 ( retract )

G00 X-144.71066 Y-81.24066 ( rapid move to begin. )
G01 F120.00000
( begin pre-milling-gcode )
M7
( end pre-milling-gcode )
( Mill infeed pass 1/1 )
G01 Z-0.05000
G04 P0 ( dwell for no time -- G64 should not smooth over this point )
G01 F680.00000
G01 X-144.71066 Y-81.24066
G01 X-144.74015 Y-80.95996
G01 X-144.82973 Y-80.68688
G01 X-144.96847 Y-80.44713
G01 X-145.15361 Y-80.24109
G01 X-145.38564 Y-80.07152
G01 X-145.64347 Y-79.95671
G01 X-145.92475 Y-79.89776
G01 X-146.20176 Y-79.89804
G01 X-146.47276 Y-79.95536
G01 X-146.73565 Y-80.07152
G01 X-146.96768 Y-80.24109
G01 X-147.15282 Y-80.44713
G01 X-147.29155 Y-80.68688
G01 X-147.38114 Y-80.95996
G01 X-147.41065 Y-81.24066
G01 X-147.38114 Y-81.52133
G01 X-147.29155 Y-81.79440
G01 X-147.15282 Y-82.03415
G01 X-146.96768 Y-82.24020
G01 X-146.73565 Y-82.40979
G01 X-146.47781 Y-82.52457
G01 X-146.19653 Y-82.58353
G01 X-145.91955 Y-82.58325
G01 X-145.64853 Y-82.52592
G01 X-145.38564 Y-82.40979
G01 X-145.15732 Y-82.24388
G01 X-144.96562 Y-82.02976
G01 X-144.82737 Y-81.78975
G01 X-144.74149 Y-81.52638
G01 X-144.71066 Y-81.24066
G01 X-144.66065 Y-81.24066
G01 X-144.69394 Y-80.93946
G01 X-144.78168 Y-80.67121
G01 X-144.92232 Y-80.42653
G01 X-145.12387 Y-80.20025
G01 X-145.36064 Y-80.02821
G01 X-145.62803 Y-79.90916
G01 X-145.92475 Y-79.84777
G01 X-146.20700 Y-79.84833
G01 X-146.48317 Y-79.90647
G01 X-146.76064 Y-80.02821
G01 X-147.00484 Y-80.20764
G01 X-147.19328 Y-80.41775
G01 X-147.33486 Y-80.66189
G01 X-147.43006 Y-80.94957
G01 X-147.46064 Y-81.24066
G01 X-147.42734 Y-81.54182
G01 X-147.33961 Y-81.81007
G01 X-147.19897 Y-82.05478
G01 X-146.99742 Y-82.28104
G01 X-146.76064 Y-82.45307
G01 X-146.49328 Y-82.57212
G01 X-146.19653 Y-82.63352
G01 X-145.91431 Y-82.63298
G01 X-145.63814 Y-82.57484
G01 X-145.36064 Y-82.45307
G01 X-145.12387 Y-82.28104
G01 X-144.92232 Y-82.05478
G01 X-144.78168 Y-81.81007
G01 X-144.69394 Y-81.54182
G01 X-144.66065 Y-81.24066
G01 X-144.61066 Y-81.24066
G01 X-144.64233 Y-80.93918
G01 X-144.73039 Y-80.66555
G01 X-144.74314 Y-80.63690
G01 X-144.88757 Y-80.38836
G01 X-145.07931 Y-80.17419
G01 X-145.10261 Y-80.15321
G01 X-145.33565 Y-79.98493
G01 X-145.61259 Y-79.86161
G01 X-145.89359 Y-79.80106
G01 X-145.92475 Y-79.79778
G01 X-146.21220 Y-79.79860
G01 X-146.49356 Y-79.85755
G01 X-146.52338 Y-79.86725
G01 X-146.77166 Y-79.97779
G01 X-146.79882 Y-79.99346
G01 X-147.03087 Y-80.16309
G01 X-147.23372 Y-80.38836
G01 X-147.38528 Y-80.65089
G01 X-147.47489 Y-80.92402
G01 X-147.48142 Y-80.95468
G01 X-147.51063 Y-81.24066
G01 X-147.48142 Y-81.52661
G01 X-147.47489 Y-81.55729
G01 X-147.39092 Y-81.81576
G01 X-147.37814 Y-81.84439
G01 X-147.23372 Y-82.09293
G01 X-147.04197 Y-82.30710
G01 X-147.01868 Y-82.32808
G01 X-146.78563 Y-82.49638
G01 X-146.52338 Y-82.61403
G01 X-146.49356 Y-82.62374
G01 X-146.22772 Y-82.68023
G01 X-146.19653 Y-82.68350
G01 X-145.90908 Y-82.68269
G01 X-145.62775 Y-82.62374
G01 X-145.59793 Y-82.61403
G01 X-145.33565 Y-82.49638
G01 X-145.10261 Y-82.32808
G01 X-145.07931 Y-82.30710
G01 X-144.88757 Y-82.09293
G01 X-144.73601 Y-81.83042
G01 X-144.64233 Y-81.54213
G01 X-144.61066 Y-81.24066
G01 X-144.56067 Y-81.24066
G01 X-144.59344 Y-80.92879
G01 X-144.69034 Y-80.63055
G01 X-144.84713 Y-80.35897
G01 X-145.04215 Y-80.14073
G01 X-145.07322 Y-80.11277
G01 X-145.31066 Y-79.94162
G01 X-145.57759 Y-79.82158
G01 X-145.61734 Y-79.80865
G01 X-145.88317 Y-79.75216
G01 X-145.92475 Y-79.74777
G01 X-146.21744 Y-79.74889
G01 X-146.52417 Y-79.81406
G01 X-146.81063 Y-79.94162
G01 X-147.06432 Y-80.12595
G01 X-147.27415 Y-80.35897
G01 X-147.42145 Y-80.61190
G01 X-147.43847 Y-80.65008
G01 X-147.52785 Y-80.92879
G01 X-147.55955 Y-81.21975
G01 X-147.55955 Y-81.26156
G01 X-147.53112 Y-81.53184
G01 X-147.52244 Y-81.57273
G01 X-147.43095 Y-81.85074
G01 X-147.27415 Y-82.12231
G01 X-147.06432 Y-82.35536
G01 X-146.82821 Y-82.52828
G01 X-146.79198 Y-82.54919
G01 X-146.52417 Y-82.66722
G01 X-146.23811 Y-82.72915
G01 X-146.19653 Y-82.73351
G01 X-145.90385 Y-82.73242
G01 X-145.59712 Y-82.66722
G01 X-145.32930 Y-82.54919
G01 X-145.29311 Y-82.52828
G01 X-145.07322 Y-82.36852
G01 X-145.04215 Y-82.34055
G01 X-144.84713 Y-82.12231
G01 X-144.69984 Y-81.86941
G01 X-144.68284 Y-81.83121
G01 X-144.59344 Y-81.55252
G01 X-144.56067 Y-81.24066
G01 X-144.51066 Y-81.24066
G01 X-144.54454 Y-80.91838
G01 X-144.63530 Y-80.63464
G01 X-144.65656 Y-80.58691
G01 X-144.79245 Y-80.35153
G01 X-144.82315 Y-80.30926
G01 X-145.02351 Y-80.08879
G01 X-145.26372 Y-79.91257
G01 X-145.30898 Y-79.88645
G01 X-145.58167 Y-79.76652
G01 X-145.87278 Y-79.70324
G01 X-145.92475 Y-79.69778
G01 X-146.22267 Y-79.69915
G01 X-146.53961 Y-79.76652
G01 X-146.83565 Y-79.89832
G01 X-147.09778 Y-80.08879
G01 X-147.31462 Y-80.32958
G01 X-147.47662 Y-80.61020
G01 X-147.57677 Y-80.91838
G01 X-147.61063 Y-81.24066
G01 X-147.57677 Y-81.56291
G01 X-147.47662 Y-81.87108
G01 X-147.31462 Y-82.15170
G01 X-147.11629 Y-82.37400
G01 X-147.07746 Y-82.40898
G01 X-146.85759 Y-82.56872
G01 X-146.81233 Y-82.59486
G01 X-146.53961 Y-82.71477
G01 X-146.24850 Y-82.77804
G01 X-146.19653 Y-82.78350
G01 X-145.89864 Y-82.78213
G01 X-145.58167 Y-82.71477
G01 X-145.28566 Y-82.58297
G01 X-145.02351 Y-82.39249
G01 X-144.80670 Y-82.15170
G01 X-144.64467 Y-81.87108
G01 X-144.54454 Y-81.56291
G01 X-144.51066 Y-81.24066
G04 P0 ( dwell for no time -- G64 should not smooth over this point )
G00 Z0.30000 ( retract )

G00 X-144.71066 Y-86.32066 ( rapid move to begin. )
G01 F120.00000
( begin pre-milling-gcode )
M7
( end pre-milling-gcode )
( Mill infeed pass 1/1 )
G01 Z-0.05000
G04 P0 ( dwell for no time -- G64 should not smooth over this point )
G01 F680.00000
G01 X-144.71066 Y-86.32066
G01 X-144.74015 Y-86.03996
G01 X-144.82973 Y-85.76688
G01 X-144.96847 Y-85.52713
G01 X-145.15361 Y-85.32109
G01 X-145.38564 Y-85.15152
G01 X-145.64347 Y-85.03671
G01 X-145.92475 Y-84.97776
G01 X-146.20176 Y-84.97804
G01 X-146.47276 Y-85.03536
G01 X-146.73565 Y-85.15152
G01 X-146.96768 Y-85.32109
G01 X-147.15282 Y-85.52713
G01 X-147.29155 Y-85.76688
G01 X-147.38114 Y-86.03996
G01 X-147.41065 Y-86.32066
G01 X-147.38114 Y-86.60133
G01 X-147.29155 Y-86.87440
G01 X-147.15282 Y-87.11415
G01 X-146.96768 Y-87.32020
G01 X-146.73565 Y-87.48979
G01 X-146.47781 Y-87.60457
G01 X-146.19653 Y-87.66353
G01 X-145.91955 Y-87.66325
G01 X-145.64853 Y-87.60592
G01 X-145.38564 Y-87.48979
G01 X-145.15732 Y-87.32388
G01 X-144.96562 Y-87.10976
G01 X-144.82737 Y-86.86975
G01 X-144.74149 Y-86.60638
G01 X-144.71066 Y-86.32066
G01 X-144.66065 Y-86.32066
G01 X-144.69394 Y-86.01946
G01 X-144.78168 Y-85.75121
G01 X-144.92232 Y-85.50653
G01 X-145.12387 Y-85.28025
G01 X-145.36064 Y-85.10821
G01 X-145.62803 Y-84.98916
G01 X-145.92475 Y-84.92777
G01 X-146.20700 Y-84.92833
G01 X-146.48317 Y-84.98647
G01 X-146.76064 Y-85.10821
G01 X-147.00484 Y-85.28764
G01 X-147.19328 Y-85.49775
G01 X-147.33486 Y-85.74189
G01 X-147.43006 Y-86.02957
G01 X-147.46064 Y-86.32066
G01 X-147.42734 Y-86.62182
G01 X-147.33961 Y-86.89007
G01 X-147.19897 Y-87.13478
G01 X-146.99742 Y-87.36104
G01 X-146.76064 Y-87.53307
G01 X-146.49328 Y-87.65212
G01 X-146.19653 Y-87.71352
G01 X-145.91431 Y-87.71298
G01 X-145.63814 Y-87.65484
G01 X-145.36064 Y-87.53307
G01 X-145.12387 Y-87.36104
G01 X-144.92232 Y-87.13478
G01 X-144.78168 Y-86.89007
G01 X-144.69394 Y-86.62182
G01 X-144.66065 Y-86.32066
G01 X-144.61066 Y-86.32066
G01 X-144.64233 Y-86.01918
G01 X-144.73039 Y-85.74555
G01 X-144.74314 Y-85.71690
G01 X-144.88757 Y-85.46836
G01 X-145.07931 Y-85.25419
G01 X-145.10261 Y-85.23321
G01 X-145.33565 Y-85.06493
G01 X-145.61259 Y-84.94161
G01 X-145.89359 Y-84.88106
G01 X-145.92475 Y-84.87778
G01 X-146.21220 Y-84.87860
G01 X-146.49356 Y-84.93755
G01 X-146.52338 Y-84.94725
G01 X-146.77166 Y-85.05779
G01 X-146.79882 Y-85.07346
G01 X-147.03087 Y-85.24309
G01 X-147.23372 Y-85.46836
G01 X-147.38528 Y-85.73089
G01 X-147.47489 Y-86.00402
G01 X-147.48142 Y-86.03468
G01 X-147.51063 Y-86.32066
G01 X-147.48142 Y-86.60661
G01 X-147.47489 Y-86.63729
G01 X-147.39092 Y-86.89576
G01 X-147.37814 Y-86.92439
G01 X-147.23372 Y-87.17293
G01 X-147.04197 Y-87.38710
G01 X-147.01868 Y-87.40808
G01 X-146.78563 Y-87.57638
G01 X-146.52338 Y-87.69403
G01 X-146.49356 Y-87.70374
G01 X-146.22772 Y-87.76023
G01 X-146.19653 Y-87.76350
G01 X-145.90908 Y-87.76269
G01 X-145.62775 Y-87.70374
G01 X-145.59793 Y-87.69403
G01 X-145.33565 Y-87.57638
G01 X-145.10261 Y-87.40808
G01 X-145.07931 Y-87.38710
G01 X-144.88757 Y-87.17293
G01 X-144.73601 Y-86.91042
G01 X-144.64233 Y-86.62213
G01 X-144.61066 Y-86.32066
G01 X-144.56067 Y-86.32066
G01 X-144.59344 Y-86.00879
G01 X-144.69034 Y-85.71055
G01 X-144.84713 Y-85.43897
G01 X-145.04215 Y-85.22073
G01 X-145.07322 Y-85.19277
G01 X-145.31066 Y-85.02162
G01 X-145.57759 Y-84.90158
G01 X-145.61734 Y-84.88865
G01 X-145.88317 Y-84.83216
G01 X-145.92475 Y-84.82777
G01 X-146.21744 Y-84.82889
G01 X-146.52417 Y-84.89406
G01 X-146.81063 Y-85.02162
G01 X-147.06432 Y-85.20595
G01 X-147.27415 Y-85.43897
G01 X-147.42145 Y-85.69190
G01 X-147.43847 Y-85.73008
G01 X-147.52785 Y-86.00879
G01 X-147.55955 Y-86.29975
G01 X-147.55955 Y-86.34156
G01 X-147.53112 Y-86.61184
G01 X-147.52244 Y-86.65273
G01 X-147.43095 Y-86.93074
G01 X-147.27415 Y-87.20231
G01 X-147.06432 Y-87.43536
G01 X-146.82821 Y-87.60828
G01 X-146.79198 Y-87.62919
G01 X-146.52417 Y-87.74722
G01 X-146.23811 Y-87.80915
G01 X-146.19653 Y-87.81351
G01 X-145.90385 Y-87.81242
G01 X-145.59712 Y-87.74722
G01 X-145.32930 Y-87.62919
G01 X-145.29311 Y-87.60828
G01 X-145.07322 Y-87.44852
G01 X-145.04215 Y-87.42055
G01 X-144.84713 Y-87.20231
G01 X-144.69984 Y-86.94941
G01 X-144.68284 Y-86.91121
G01 X-144.59344 Y-86.63252
G01 X-144.56067 Y-86.32066
G01 X-144.51066 Y-86.32066
G01 X-144.54454 Y-85.99838
G01 X-144.63530 Y-85.71464
G01 X-144.65656 Y-85.66691
G01 X-144.79245 Y-85.43153
G01 X-144.82315 Y-85.38926
G01 X-145.02351 Y-85.16879
G01 X-145.26372 Y-84.99257
G01 X-145.30898 Y-84.96645
G01 X-145.58167 Y-84.84652
G01 X-145.87278 Y-84.78324
G01 X-145.92475 Y-84.77778
G01 X-146.22267 Y-84.77915
G01 X-146.53961 Y-84.84652
G01 X-146.83565 Y-84.97832
G01 X-147.09778 Y-85.16879
G01 X-147.31462 Y-85.40958
G01 X-147.47662 Y-85.69020
G01 X-147.57677 Y-85.99838
G01 X-147.61063 Y-86.32066
G01 X-147.57677 Y-86.64291
G01 X-147.47662 Y-86.95108
G01 X-147.31462 Y-87.23170
G01 X-147.11629 Y-87.45400
G01 X-147.07746 Y-87.48898
G01 X-146.85759 Y-87.64872
G01 X-146.81233 Y-87.67486
G01 X-146.53961 Y-87.79477
G01 X-146.24850 Y-87.85804
G01 X-146.19653 Y-87.86350
G01 X-145.89864 Y-87.86213
G01 X-145.58167 Y-87.79477
G01 X-145.28566 Y-87.66297
G01 X-145.02351 Y-87.47249
G01 X-144.80670 Y-87.23170
G01 X-144.64467 Y-86.95108
G01 X-144.54454 Y-86.64291
G01 X-144.51066 Y-86.32066
G04 P0 ( dwell for no time -- G64 should not smooth over this point )
G00 Z0.30000 ( retract )

G00 X-144.71066 Y-91.40066 ( rapid move to begin. )
G01 F120.00000
( begin pre-milling-gcode )
M7
( end pre-milling-gcode )
( Mill infeed pass 1/1 )
G01 Z-0.05000
G04 P0 ( dwell for no time -- G64 should not smooth over this point )
G01 F680.00000
G01 X-144.71066 Y-91.40066
G01 X-144.74015 Y-91.11996
G01 X-144.82973 Y-90.84688
G01 X-144.96847 Y-90.60713
G01 X-145.15361 Y-90.40109
G01 X-145.38564 Y-90.23152
G01 X-145.64347 Y-90.11671
G01 X-145.92475 Y-90.05776
G01 X-146.20176 Y-90.05804
G01 X-146.47276 Y-90.11536
G01 X-146.73565 Y-90.23152
G01 X-146.96768 Y-90.40109
G01 X-147.15282 Y-90.60713
G01 X-147.29155 Y-90.84688
G01 X-147.38114 Y-91.11996
G01 X-147.41065 Y-91.40066
G01 X-147.38114 Y-91.68133
G01 X-147.29155 Y-91.95440
G01 X-147.15282 Y-92.19415
G01 X-146.96768 Y-92.40020
G01 X-146.73565 Y-92.56979
G01 X-146.47781 Y-92.68457
G01 X-146.19653 Y-92.74353
G01 X-145.91955 Y-92.74325
G01 X-145.64853 Y-92.68592
G01 X-145.38564 Y-92.56979
G01 X-145.15732 Y-92.40388
G01 X-144.96562 Y-92.18976
G01 X-144.82737 Y-91.94975
G01 X-144.74149 Y-91.68638
G01 X-144.71066 Y-91.40066
G01 X-144.66065 Y-91.40066
G01 X-144.69394 Y-91.09946
G01 X-144.78168 Y-90.83121
G01 X-144.92232 Y-90.58653
G01 X-145.12387 Y-90.36025
G01 X-145.36064 Y-90.18821
G01 X-145.62803 Y-90.06916
G01 X-145.92475 Y-90.00777
G01 X-146.20700 Y-90.00833
G01 X-146.48317 Y-90.06647
G01 X-146.76064 Y-90.18821
G01 X-147.00484 Y-90.36764
G01 X-147.19328 Y-90.57775
G01 X-147.33486 Y-90.82189
G01 X-147.43006 Y-91.10957
G01 X-147.46064 Y-91.40066
G01 X-147.42734 Y-91.70182
G01 X-147.33961 Y-91.97007
G01 X-147.19897 Y-92.21478
G01 X-146.99742 Y-92.44104
G01 X-146.76064 Y-92.61307
G01 X-146.49328 Y-92.73212
G01 X-146.19653 Y-92.79352
G01 X-145.91431 Y-92.79298
G01 X-145.63814 Y-92.73484
G01 X-145.36064 Y-92.61307
G01 X-145.12387 Y-92.44104
G01 X-144.92232 Y-92.21478
G01 X-144.78168 Y-91.97007
G01 X-144.69394 Y-91.70182
G01 X-144.66065 Y-91.40066
G01 X-144.61066 Y-91.40066
G01 X-144.64233 Y-91.09918
G01 X-144.73039 Y-90.82555
G01 X-144.74314 Y-90.79690
G01 X-144.88757 Y-90.54836
G01 X-145.07931 Y-90.33419
G01 X-145.10261 Y-90.31321
G01 X-145.33565 Y-90.14493
G01 X-145.61259 Y-90.02161
G01 X-145.89359 Y-89.96106
G01 X-145.92475 Y-89.95778
G01 X-146.21220 Y-89.95860
G01 X-146.49356 Y-90.01755
G01 X-146.52338 Y-90.02725
G01 X-146.77166 Y-90.13779
G01 X-146.79882 Y-90.15346
G01 X-147.03087 Y-90.32309
G01 X-147.23372 Y-90.54836
G01 X-147.38528 Y-90.81089
G01 X-147.47489 Y-91.08402
G01 X-147.48142 Y-91.11468
G01 X-147.51063 Y-91.40066
G01 X-147.48142 Y-91.68661
G01 X-147.47489 Y-91.71729
G01 X-147.39092 Y-91.97576
G01 X-147.37814 Y-92.00439
G01 X-147.23372 Y-92.25293
G01 X-147.04197 Y-92.46710
G01 X-147.01868 Y-92.48808
G01 X-146.78563 Y-92.65638
G01 X-146.52338 Y-92.77403
G01 X-146.49356 Y-92.78374
G01 X-146.22772 Y-92.84023
G01 X-146.19653 Y-92.84350
G01 X-145.90908 Y-92.84269
G01 X-145.62775 Y-92.78374
G01 X-145.59793 Y-92.77403
G01 X-145.33565 Y-92.65638
G01 X-145.10261 Y-92.48808
G01 X-145.07931 Y-92.46710
G01 X-144.88757 Y-92.25293
G01 X-144.73601 Y-91.99042
G01 X-144.64233 Y-91.70213
G01 X-144.61066 Y-91.40066
G01 X-144.56067 Y-91.40066
G01 X-144.59344 Y-91.08879
G01 X-144.69034 Y-90.79055
G01 X-144.84713 Y-90.51897
G01 X-145.04215 Y-90.30073
G01 X-145.07322 Y-90.27277
G01 X-145.31066 Y-90.10162
G01 X-145.57759 Y-89.98158
G01 X-145.61734 Y-89.96865
G01 X-145.88317 Y-89.91216
G01 X-145.92475 Y-89.90777
G01 X-146.21744 Y-89.90889
G01 X-146.52417 Y-89.97406
G01 X-146.81063 Y-90.10162
G01 X-147.06432 Y-90.28595
G01 X-147.27415 Y-90.51897
G01 X-147.42145 Y-90.77190
G01 X-147.43847 Y-90.81008
G01 X-147.52785 Y-91.08879
G01 X-147.55955 Y-91.37975
G01 X-147.55955 Y-91.42156
G01 X-147.53112 Y-91.69184
G01 X-147.52244 Y-91.73273
G01 X-147.43095 Y-92.01074
G01 X-147.27415 Y-92.28231
G01 X-147.06432 Y-92.51536
G01 X-146.82821 Y-92.68828
G01 X-146.79198 Y-92.70919
G01 X-146.52417 Y-92.82722
G01 X-146.23811 Y-92.88915
G01 X-146.19653 Y-92.89351
G01 X-145.90385 Y-92.89242
G01 X-145.59712 Y-92.82722
G01 X-145.32930 Y-92.70919
G01 X-145.29311 Y-92.68828
G01 X-145.07322 Y-92.52852
G01 X-145.04215 Y-92.50055
G01 X-144.84713 Y-92.28231
G01 X-144.69984 Y-92.02941
G01 X-144.68284 Y-91.99121
G01 X-144.59344 Y-91.71252
G01 X-144.56067 Y-91.40066
G01 X-144.51066 Y-91.40066
G01 X-144.54454 Y-91.07838
G01 X-144.63530 Y-90.79464
G01 X-144.65656 Y-90.74691
G01 X-144.79245 Y-90.51153
G01 X-144.82315 Y-90.46926
G01 X-145.02351 Y-90.24879
G01 X-145.26372 Y-90.07257
G01 X-145.30898 Y-90.04645
G01 X-145.58167 Y-89.92652
G01 X-145.87278 Y-89.86324
G01 X-145.92475 Y-89.85778
G01 X-146.22267 Y-89.85915
G01 X-146.53961 Y-89.92652
G01 X-146.83565 Y-90.05832
G01 X-147.09778 Y-90.24879
G01 X-147.31462 Y-90.48958
G01 X-147.47662 Y-90.77020
G01 X-147.57677 Y-91.07838
G01 X-147.61063 Y-91.40066
G01 X-147.57677 Y-91.72291
G01 X-147.47662 Y-92.03108
G01 X-147.31462 Y-92.31170
G01 X-147.11629 Y-92.53400
G01 X-147.07746 Y-92.56898
G01 X-146.85759 Y-92.72872
G01 X-146.81233 Y-92.75486
G01 X-146.53961 Y-92.87477
G01 X-146.24850 Y-92.93804
G01 X-146.19653 Y-92.94350
G01 X-145.89864 Y-92.94213
G01 X-145.58167 Y-92.87477
G01 X-145.28566 Y-92.74297
G01 X-145.02351 Y-92.55249
G01 X-144.80670 Y-92.31170
G01 X-144.64467 Y-92.03108
G01 X-144.54454 Y-91.72291
G01 X-144.51066 Y-91.40066
G04 P0 ( dwell for no time -- G64 should not smooth over this point )
G00 Z0.30000 ( retract )

G00 X-144.71066 Y-96.48066 ( rapid move to begin. )
G01 F120.00000
( begin pre-milling-gcode )
M7
( end pre-milling-gcode )
( Mill infeed pass 1/1 )
G01 Z-0.05000
G04 P0 ( dwell for no time -- G64 should not smooth over this point )
G01 F680.00000
G01 X-144.71066 Y-96.48066
G01 X-144.74015 Y-96.19996
G01 X-144.82973 Y-95.92688
G01 X-144.96847 Y-95.68713
G01 X-145.15361 Y-95.48109
G01 X-145.38564 Y-95.31152
G01 X-145.64347 Y-95.19671
G01 X-145.92475 Y-95.13776
G01 X-146.20176 Y-95.13804
G01 X-146.47276 Y-95.19536
G01 X-146.73565 Y-95.31152
G01 X-146.96768 Y-95.48109
G01 X-147.15282 Y-95.68713
G01 X-147.29155 Y-95.92688
G01 X-147.38114 Y-96.19996
G01 X-147.41065 Y-96.48066
G01 X-147.38114 Y-96.76133
G01 X-147.29155 Y-97.03440
G01 X-147.15282 Y-97.27415
G01 X-146.96768 Y-97.48020
G01 X-146.73565 Y-97.64979
G01 X-146.47781 Y-97.76457
G01 X-146.19653 Y-97.82353
G01 X-145.91955 Y-97.82325
G01 X-145.64853 Y-97.76592
G01 X-145.38564 Y-97.64979
G01 X-145.15732 Y-97.48388
G01 X-144.96562 Y-97.26976
G01 X-144.82737 Y-97.02975
G01 X-144.74149 Y-96.76638
G01 X-144.71066 Y-96.48066
G01 X-144.66065 Y-96.48066
G01 X-144.69394 Y-96.17946
G01 X-144.78168 Y-95.91121
G01 X-144.92232 Y-95.66653
G01 X-145.12387 Y-95.44025
G01 X-145.36064 Y-95.26821
G01 X-145.62803 Y-95.14916
G01 X-145.92475 Y-95.08777
G01 X-146.20700 Y-95.08833
G01 X-146.48317 Y-95.14647
G01 X-146.76064 Y-95.26821
G01 X-147.00484 Y-95.44764
G01 X-147.19328 Y-95.65775
G01 X-147.33486 Y-95.90189
G01 X-147.43006 Y-96.18957
G01 X-147.46064 Y-96.48066
G01 X-147.42734 Y-96.78182
G01 X-147.33961 Y-97.05007
G01 X-147.19897 Y-97.29478
G01 X-146.99742 Y-97.52104
G01 X-146.76064 Y-97.69307
G01 X-146.49328 Y-97.81212
G01 X-146.19653 Y-97.87352
G01 X-145.91431 Y-97.87298
G01 X-145.63814 Y-97.81484
G01 X-145.36064 Y-97.69307
G01 X-145.12387 Y-97.52104
G01 X-144.92232 Y-97.29478
G01 X-144.78168 Y-97.05007
G01 X-144.69394 Y-96.78182
G01 X-144.66065 Y-96.48066
G01 X-144.61066 Y-96.48066
G01 X-144.64233 Y-96.17918
G01 X-144.73039 Y-95.90555
G01 X-144.74314 Y-95.87690
G01 X-144.88757 Y-95.62836
G01 X-145.07931 Y-95.41419
G01 X-145.10261 Y-95.39321
G01 X-145.33565 Y-95.22493
G01 X-145.61259 Y-95.10161
G01 X-145.89359 Y-95.04106
G01 X-145.92475 Y-95.03778
G01 X-146.21220 Y-95.03860
G01 X-146.49356 Y-95.09755
G01 X-146.52338 Y-95.10725
G01 X-146.77166 Y-95.21779
G01 X-146.79882 Y-95.23346
G01 X-147.03087 Y-95.40309
G01 X-147.23372 Y-95.62836
G01 X-147.38528 Y-95.89089
G01 X-147.47489 Y-96.16402
G01 X-147.48142 Y-96.19468
G01 X-147.51063 Y-96.48066
G01 X-147.48142 Y-96.76661
G01 X-147.47489 Y-96.79729
G01 X-147.39092 Y-97.05576
G01 X-147.37814 Y-97.08439
G01 X-147.23372 Y-97.33293
G01 X-147.04197 Y-97.54710
G01 X-147.01868 Y-97.56808
G01 X-146.78563 Y-97.73638
G01 X-146.52338 Y-97.85403
G01 X-146.49356 Y-97.86374
G01 X-146.22772 Y-97.92023
G01 X-146.19653 Y-97.92350
G01 X-145.90908 Y-97.92269
G01 X-145.62775 Y-97.86374
G01 X-145.59793 Y-97.85403
G01 X-145.33565 Y-97.73638
G01 X-145.10261 Y-97.56808
G01 X-145.07931 Y-97.54710
G01 X-144.88757 Y-97.33293
G01 X-144.73601 Y-97.07042
G01 X-144.64233 Y-96.78213
G01 X-144.61066 Y-96.48066
G01 X-144.56067 Y-96.48066
G01 X-144.59344 Y-96.16879
G01 X-144.69034 Y-95.87055
G01 X-144.84713 Y-95.59897
G01 X-145.04215 Y-95.38073
G01 X-145.07322 Y-95.35277
G01 X-145.31066 Y-95.18162
G01 X-145.57759 Y-95.06158
G01 X-145.61734 Y-95.04865
G01 X-145.88317 Y-94.99216
G01 X-145.92475 Y-94.98777
G01 X-146.21744 Y-94.98889
G01 X-146.52417 Y-95.05406
G01 X-146.81063 Y-95.18162
G01 X-147.06432 Y-95.36595
G01 X-147.27415 Y-95.59897
G01 X-147.42145 Y-95.85190
G01 X-147.43847 Y-95.89008
G01 X-147.52785 Y-96.16879
G01 X-147.55955 Y-96.45975
G01 X-147.55955 Y-96.50156
G01 X-147.53112 Y-96.77184
G01 X-147.52244 Y-96.81273
G01 X-147.43095 Y-97.09074
G01 X-147.27415 Y-97.36231
G01 X-147.06432 Y-97.59536
G01 X-146.82821 Y-97.76828
G01 X-146.79198 Y-97.78919
G01 X-146.52417 Y-97.90722
G01 X-146.23811 Y-97.96915
G01 X-146.19653 Y-97.97351
G01 X-145.90385 Y-97.97242
G01 X-145.59712 Y-97.90722
G01 X-145.32930 Y-97.78919
G01 X-145.29311 Y-97.76828
G01 X-145.07322 Y-97.60852
G01 X-145.04215 Y-97.58055
G01 X-144.84713 Y-97.36231
G01 X-144.69984 Y-97.10941
G01 X-144.68284 Y-97.07121
G01 X-144.59344 Y-96.79252
G01 X-144.56067 Y-96.48066
G01 X-144.51066 Y-96.48066
G01 X-144.54454 Y-96.15838
G01 X-144.63530 Y-95.87464
G01 X-144.65656 Y-95.82691
G01 X-144.79245 Y-95.59153
G01 X-144.82315 Y-95.54926
G01 X-145.02351 Y-95.32879
G01 X-145.26372 Y-95.15257
G01 X-145.30898 Y-95.12645
G01 X-145.58167 Y-95.00652
G01 X-145.87278 Y-94.94324
G01 X-145.92475 Y-94.93778
G01 X-146.22267 Y-94.93915
G01 X-146.53961 Y-95.00652
G01 X-146.83565 Y-95.13832
G01 X-147.09778 Y-95.32879
G01 X-147.31462 Y-95.56958
G01 X-147.47662 Y-95.85020
G01 X-147.57677 Y-96.15838
G01 X-147.61063 Y-96.48066
G01 X-147.57677 Y-96.80291
G01 X-147.47662 Y-97.11108
G01 X-147.31462 Y-97.39170
G01 X-147.11629 Y-97.61400
G01 X-147.07746 Y-97.64898
G01 X-146.85759 Y-97.80872
G01 X-146.81233 Y-97.83486
G01 X-146.53961 Y-97.95477
G01 X-146.24850 Y-98.01804
G01 X-146.19653 Y-98.02350
G01 X-145.89864 Y-98.02213
G01 X-145.58167 Y-97.95477
G01 X-145.28566 Y-97.82297
G01 X-145.02351 Y-97.63249
G01 X-144.80670 Y-97.39170
G01 X-144.64467 Y-97.11108
G01 X-144.54454 Y-96.80291
G01 X-144.51066 Y-96.48066
G04 P0 ( dwell for no time -- G64 should not smooth over this point )
G00 Z0.30000 ( retract )

G00 X-144.51066 Y-102.86065 ( rapid move to begin. )
G01 F120.00000
( begin pre-milling-gcode )
M7
( end pre-milling-gcode )
( Mill infeed pass 1/1 )
G01 Z-0.05000
G04 P0 ( dwell for no time -- G64 should not smooth over this point )
G01 F680.00000
G01 X-144.51066 Y-102.86065
G01 X-144.51066 Y-100.26066
G01 X-144.51546 Y-100.21189
G01 X-144.52971 Y-100.16498
G01 X-144.55280 Y-100.12177
G01 X-144.58389 Y-100.08387
G01 X-144.62176 Y-100.05278
G01 X-144.66499 Y-100.02970
G01 X-144.71188 Y-100.01547
G01 X-144.76065 Y-100.01067
G01 X-147.36064 Y-100.01067
G01 X-147.40941 Y-100.01547
G01 X-147.45632 Y-100.02970
G01 X-147.49953 Y-100.05278
G01 X-147.53740 Y-100.08387
G01 X-147.56849 Y-100.12177
G01 X-147.59160 Y-100.16498
G01 X-147.60583 Y-100.21189
G01 X-147.61063 Y-100.26066
G01 X-147.61063 Y-102.86065
G01 X-147.60583 Y-102.90942
G01 X-147.59160 Y-102.95628
G01 X-147.56849 Y-102.99954
G01 X-147.53740 Y-103.03741
G01 X-147.49953 Y-103.06848
G01 X-147.45632 Y-103.09159
G01 X-147.40941 Y-103.10581
G01 X-147.36064 Y-103.11059
G01 X-144.76065 Y-103.11059
G01 X-144.71188 Y-103.10581
G01 X-144.66499 Y-103.09159
G01 X-144.62176 Y-103.06848
G01 X-144.58389 Y-103.03741
G01 X-144.55280 Y-102.99954
G01 X-144.52971 Y-102.95628
G01 X-144.51546 Y-102.90942
G01 X-144.51066 Y-102.86065
G01 X-144.56067 Y-102.86065
G01 X-144.56067 Y-100.26066
G01 X-144.56451 Y-100.22164
G01 X-144.57589 Y-100.18413
G01 X-144.59438 Y-100.14953
G01 X-144.61924 Y-100.11923
G01 X-144.64955 Y-100.09436
G01 X-144.68411 Y-100.07587
G01 X-144.72163 Y-100.06449
G01 X-144.76065 Y-100.06066
G01 X-147.36064 Y-100.06066
G01 X-147.39965 Y-100.06449
G01 X-147.43717 Y-100.07587
G01 X-147.47177 Y-100.09436
G01 X-147.50207 Y-100.11923
G01 X-147.52693 Y-100.14953
G01 X-147.54540 Y-100.18413
G01 X-147.55678 Y-100.22164
G01 X-147.56064 Y-100.26066
G01 X-147.56064 Y-102.86065
G01 X-147.55678 Y-102.89964
G01 X-147.54540 Y-102.93718
G01 X-147.52693 Y-102.97175
G01 X-147.50207 Y-103.00205
G01 X-147.47177 Y-103.02692
G01 X-147.43717 Y-103.04539
G01 X-147.39965 Y-103.05679
G01 X-147.36064 Y-103.06063
G01 X-144.76065 Y-103.06063
G01 X-144.72163 Y-103.05679
G01 X-144.68411 Y-103.04539
G01 X-144.64955 Y-103.02692
G01 X-144.61924 Y-103.00205
G01 X-144.59438 Y-102.97175
G01 X-144.57589 Y-102.93718
G01 X-144.56451 Y-102.89964
G01 X-144.56067 Y-102.86065
G01 X-144.61066 Y-102.86065
G01 X-144.61066 Y-100.26066
G01 X-144.61353 Y-100.23140
G01 X-144.62206 Y-100.20325
G01 X-144.63593 Y-100.17732
G01 X-144.65460 Y-100.15459
G01 X-144.67731 Y-100.13594
G01 X-144.70324 Y-100.12208
G01 X-144.73138 Y-100.11354
G01 X-144.76065 Y-100.11065
G01 X-147.36064 Y-100.11065
G01 X-147.38990 Y-100.11354
G01 X-147.41804 Y-100.12208
G01 X-147.44398 Y-100.13594
G01 X-147.46671 Y-100.15459
G01 X-147.48535 Y-100.17732
G01 X-147.49922 Y-100.20325
G01 X-147.50776 Y-100.23140
G01 X-147.51063 Y-100.26066
G01 X-147.51063 Y-102.86065
G01 X-147.50776 Y-102.88991
G01 X-147.49922 Y-102.91803
G01 X-147.48535 Y-102.94396
G01 X-147.46671 Y-102.96670
G01 X-147.44398 Y-102.98534
G01 X-147.41804 Y-102.99921
G01 X-147.38990 Y-103.00774
G01 X-147.36064 Y-103.01064
G01 X-144.76065 Y-103.01064
G01 X-144.73138 Y-103.00774
G01 X-144.70324 Y-102.99921
G01 X-144.67731 Y-102.98534
G01 X-144.65460 Y-102.96670
G01 X-144.63593 Y-102.94396
G01 X-144.62206 Y-102.91803
G01 X-144.61353 Y-102.88991
G01 X-144.61066 Y-102.86065
G01 X-144.66065 Y-102.86065
G01 X-144.66065 Y-100.26066
G01 X-144.66827 Y-100.22238
G01 X-144.68993 Y-100.18994
G01 X-144.72239 Y-100.16825
G01 X-144.76065 Y-100.16066
G01 X-147.36064 Y-100.16066
G01 X-147.39892 Y-100.16825
G01 X-147.43135 Y-100.18994
G01 X-147.45302 Y-100.22238
G01 X-147.46064 Y-100.26066
G01 X-147.46064 Y-102.86065
G01 X-147.45302 Y-102.89891
G01 X-147.43135 Y-102.93134
G01 X-147.39892 Y-102.95303
G01 X-147.36064 Y-102.96065
G01 X-144.76065 Y-102.96065
G01 X-144.72239 Y-102.95303
G01 X-144.68993 Y-102.93134
G01 X-144.66827 Y-102.89891
G01 X-144.66065 Y-102.86065
G01 X-144.71066 Y-102.86065
G01 X-144.71444 Y-102.87978
G01 X-144.72529 Y-102.89601
G01 X-144.74152 Y-102.90683
G01 X-144.76065 Y-102.91061
G01 X-147.36064 Y-102.91061
G01 X-147.37979 Y-102.90683
G01 X-147.39600 Y-102.89601
G01 X-147.40684 Y-102.87978
G01 X-147.41065 Y-102.86065
G01 X-147.41065 Y-100.26066
G01 X-147.40684 Y-100.24151
G01 X-147.39600 Y-100.22530
G01 X-147.37979 Y-100.21446
G01 X-147.36064 Y-100.21065
G01 X-144.76065 Y-100.21065
G01 X-144.74152 Y-100.21446
G01 X-144.72529 Y-100.22530
G01 X-144.71444 Y-100.24151
G01 X-144.71066 Y-100.26066
G01 X-144.71066 Y-102.86065
G04 P0 ( dwell for no time -- G64 should not smooth over this point )
G00 Z0.30000 ( retract )

G00 X-155.91000 Y-101.56000 ( rapid move to begin. )
G01 F120.00000
( begin pre-milling-gcode )
M7
( end pre-milling-gcode )
( Mill infeed pass 1/1 )
G01 Z-0.05000
G04 P0 ( dwell for no time -- G64 should not smooth over this point )
G01 F680.00000
G01 X-155.91000 Y-101.56000
G01 X-155.94388 Y-101.88224
G01 X-156.04401 Y-102.19042
G01 X-156.20604 Y-102.47104
G01 X-156.40434 Y-102.69334
G01 X-156.44317 Y-102.72832
G01 X-156.68501 Y-102.90231
G01 X-156.95658 Y-103.02471
G01 X-157.00629 Y-103.04087
G01 X-157.27213 Y-103.09736
G01 X-157.32409 Y-103.10284
G01 X-157.62201 Y-103.10147
G01 X-157.93895 Y-103.03408
G01 X-158.23499 Y-102.90231
G01 X-158.49712 Y-102.71186
G01 X-158.71396 Y-102.47104
G01 X-158.87596 Y-102.19042
G01 X-158.97609 Y-101.88224
G01 X-159.00997 Y-101.56000
G01 X-158.97609 Y-101.23772
G01 X-158.87596 Y-100.92954
G01 X-158.71396 Y-100.64892
G01 X-158.51563 Y-100.42662
G01 X-158.47680 Y-100.39167
G01 X-158.25691 Y-100.23191
G01 X-158.21167 Y-100.20579
G01 X-157.93895 Y-100.08588
G01 X-157.64784 Y-100.02258
G01 X-157.59587 Y-100.01712
G01 X-157.32409 Y-100.01712
G01 X-157.27213 Y-100.02258
G01 X-156.98102 Y-100.08588
G01 X-156.70832 Y-100.20579
G01 X-156.66306 Y-100.23191
G01 X-156.42285 Y-100.40813
G01 X-156.20604 Y-100.64892
G01 X-156.05590 Y-100.90625
G01 X-156.03464 Y-100.95398
G01 X-155.94388 Y-101.23772
G01 X-155.91137 Y-101.53386
G01 X-155.91000 Y-101.56000
G01 X-155.96001 Y-101.56000
G01 X-155.99278 Y-101.87186
G01 X-156.08219 Y-102.15054
G01 X-156.09918 Y-102.18875
G01 X-156.24647 Y-102.44165
G01 X-156.44150 Y-102.65989
G01 X-156.47256 Y-102.68786
G01 X-156.71000 Y-102.85898
G01 X-156.97693 Y-102.97904
G01 X-157.01668 Y-102.99195
G01 X-157.28251 Y-103.04846
G01 X-157.32409 Y-103.05285
G01 X-157.61678 Y-103.05176
G01 X-157.92351 Y-102.98656
G01 X-158.20997 Y-102.85898
G01 X-158.44741 Y-102.68786
G01 X-158.47847 Y-102.65989
G01 X-158.67350 Y-102.44165
G01 X-158.82079 Y-102.18875
G01 X-158.83778 Y-102.15054
G01 X-158.92178 Y-101.89205
G01 X-158.93047 Y-101.85118
G01 X-158.95998 Y-101.56000
G01 X-158.93047 Y-101.26881
G01 X-158.92178 Y-101.22792
G01 X-158.83029 Y-100.94989
G01 X-158.67350 Y-100.67831
G01 X-158.46367 Y-100.44529
G01 X-158.22755 Y-100.27237
G01 X-158.19133 Y-100.25146
G01 X-157.94304 Y-100.14092
G01 X-157.90329 Y-100.12799
G01 X-157.61678 Y-100.06823
G01 X-157.32409 Y-100.06714
G01 X-157.28251 Y-100.07150
G01 X-156.99646 Y-100.13343
G01 X-156.71000 Y-100.26096
G01 X-156.45630 Y-100.44529
G01 X-156.25966 Y-100.66205
G01 X-156.23507 Y-100.69586
G01 X-156.08968 Y-100.94989
G01 X-155.99819 Y-101.22792
G01 X-155.98950 Y-101.26881
G01 X-155.96001 Y-101.56000
G01 X-156.01000 Y-101.56000
G01 X-156.03924 Y-101.84595
G01 X-156.04574 Y-101.87663
G01 X-156.13535 Y-102.14976
G01 X-156.27838 Y-102.39911
G01 X-156.29679 Y-102.42446
G01 X-156.48976 Y-102.63754
G01 X-156.73499 Y-102.81572
G01 X-157.01190 Y-102.93901
G01 X-157.29290 Y-102.99957
G01 X-157.32409 Y-103.00287
G01 X-157.61155 Y-103.00203
G01 X-157.89290 Y-102.94305
G01 X-157.92272 Y-102.93337
G01 X-158.18498 Y-102.81572
G01 X-158.43021 Y-102.63754
G01 X-158.62318 Y-102.42446
G01 X-158.64159 Y-102.39911
G01 X-158.78462 Y-102.14976
G01 X-158.87423 Y-101.87663
G01 X-158.88076 Y-101.84595
G01 X-158.90997 Y-101.56000
G01 X-158.87830 Y-101.25852
G01 X-158.79023 Y-100.98489
G01 X-158.77748 Y-100.95624
G01 X-158.63306 Y-100.70770
G01 X-158.44131 Y-100.49353
G01 X-158.41802 Y-100.47254
G01 X-158.18498 Y-100.30427
G01 X-157.90807 Y-100.18095
G01 X-157.62707 Y-100.12040
G01 X-157.59587 Y-100.11712
G01 X-157.30842 Y-100.11794
G01 X-157.02709 Y-100.17689
G01 X-156.99725 Y-100.18659
G01 X-156.73499 Y-100.30427
G01 X-156.50195 Y-100.47254
G01 X-156.47866 Y-100.49353
G01 X-156.28691 Y-100.70770
G01 X-156.14249 Y-100.95624
G01 X-156.12974 Y-100.98489
G01 X-156.04167 Y-101.25852
G01 X-156.01000 Y-101.56000
G01 X-156.05999 Y-101.56000
G01 X-156.09329 Y-101.86116
G01 X-156.18102 Y-102.12941
G01 X-156.32166 Y-102.37412
G01 X-156.52321 Y-102.60038
G01 X-156.75999 Y-102.77241
G01 X-157.02737 Y-102.89146
G01 X-157.32409 Y-102.95285
G01 X-157.60631 Y-102.95232
G01 X-157.88249 Y-102.89416
G01 X-158.15998 Y-102.77241
G01 X-158.39676 Y-102.60038
G01 X-158.59831 Y-102.37412
G01 X-158.73895 Y-102.12941
G01 X-158.82668 Y-101.86116
G01 X-158.85998 Y-101.56000
G01 X-158.82940 Y-101.26891
G01 X-158.73420 Y-100.98123
G01 X-158.59260 Y-100.73709
G01 X-158.40418 Y-100.52698
G01 X-158.15998 Y-100.34755
G01 X-157.89260 Y-100.22850
G01 X-157.59587 Y-100.16711
G01 X-157.31366 Y-100.16767
G01 X-157.03748 Y-100.22581
G01 X-156.75999 Y-100.34755
G01 X-156.51582 Y-100.52698
G01 X-156.32737 Y-100.73709
G01 X-156.18577 Y-100.98123
G01 X-156.09059 Y-101.26891
G01 X-156.05999 Y-101.56000
G01 X-156.10997 Y-101.56000
G01 X-156.14084 Y-101.84572
G01 X-156.22671 Y-102.10909
G01 X-156.36497 Y-102.34910
G01 X-156.55666 Y-102.56324
G01 X-156.78498 Y-102.72913
G01 X-157.04282 Y-102.84391
G01 X-157.32409 Y-102.90287
G01 X-157.60111 Y-102.90256
G01 X-157.87210 Y-102.84524
G01 X-158.13499 Y-102.72913
G01 X-158.36702 Y-102.55954
G01 X-158.55216 Y-102.35347
G01 X-158.69089 Y-102.11374
G01 X-158.78048 Y-101.84067
G01 X-158.80999 Y-101.56000
G01 X-158.78048 Y-101.27930
G01 X-158.69089 Y-101.00622
G01 X-158.55216 Y-100.76647
G01 X-158.36702 Y-100.56045
G01 X-158.13499 Y-100.39086
G01 X-157.87715 Y-100.27605
G01 X-157.59587 Y-100.21710
G01 X-157.31886 Y-100.21738
G01 X-157.04787 Y-100.27470
G01 X-156.78498 Y-100.39086
G01 X-156.55295 Y-100.56045
G01 X-156.36781 Y-100.76647
G01 X-156.22908 Y-101.00622
G01 X-156.13949 Y-101.27930
G01 X-156.10997 Y-101.56000
G04 P0 ( dwell for no time -- G64 should not smooth over this point )
G00 Z0.30000 ( retract )

G00 X-155.91000 Y-96.47999 ( rapid move to begin. )
G01 F120.00000
( begin pre-milling-gcode )
M7
( end pre-milling-gcode )
( Mill infeed pass 1/1 )
G01 Z-0.05000
G04 P0 ( dwell for no time -- G64 should not smooth over this point )
G01 F680.00000
G01 X-155.91000 Y-96.47999
G01 X-155.94388 Y-96.80224
G01 X-156.04401 Y-97.11042
G01 X-156.20604 Y-97.39104
G01 X-156.40434 Y-97.61334
G01 X-156.44317 Y-97.64832
G01 X-156.68501 Y-97.82231
G01 X-156.95658 Y-97.94474
G01 X-157.00629 Y-97.96087
G01 X-157.27213 Y-98.01738
G01 X-157.32409 Y-98.02284
G01 X-157.62201 Y-98.02147
G01 X-157.93895 Y-97.95411
G01 X-158.23499 Y-97.82231
G01 X-158.49712 Y-97.63186
G01 X-158.71396 Y-97.39104
G01 X-158.87596 Y-97.11042
G01 X-158.97609 Y-96.80224
G01 X-159.00997 Y-96.47999
G01 X-158.97609 Y-96.15772
G01 X-158.87596 Y-95.84954
G01 X-158.71396 Y-95.56892
G01 X-158.51563 Y-95.34662
G01 X-158.47680 Y-95.31167
G01 X-158.25691 Y-95.15191
G01 X-158.21167 Y-95.12579
G01 X-157.93895 Y-95.00588
G01 X-157.64784 Y-94.94258
G01 X-157.59587 Y-94.93712
G01 X-157.32409 Y-94.93712
G01 X-157.27213 Y-94.94258
G01 X-156.98102 Y-95.00588
G01 X-156.70832 Y-95.12579
G01 X-156.66306 Y-95.15191
G01 X-156.42285 Y-95.32813
G01 X-156.20604 Y-95.56892
G01 X-156.05590 Y-95.82625
G01 X-156.03464 Y-95.87398
G01 X-155.94388 Y-96.15772
G01 X-155.91137 Y-96.45386
G01 X-155.91000 Y-96.47999
G01 X-155.96001 Y-96.47999
G01 X-155.99278 Y-96.79186
G01 X-156.08219 Y-97.07054
G01 X-156.09918 Y-97.10875
G01 X-156.24647 Y-97.36165
G01 X-156.44150 Y-97.57989
G01 X-156.47256 Y-97.60786
G01 X-156.69245 Y-97.76762
G01 X-156.72864 Y-97.78853
G01 X-156.99646 Y-97.90656
G01 X-157.28251 Y-97.96849
G01 X-157.32409 Y-97.97285
G01 X-157.61678 Y-97.97176
G01 X-157.92351 Y-97.90656
G01 X-158.20997 Y-97.77900
G01 X-158.44741 Y-97.60786
G01 X-158.47847 Y-97.57989
G01 X-158.67350 Y-97.36165
G01 X-158.82079 Y-97.10875
G01 X-158.83778 Y-97.07054
G01 X-158.92178 Y-96.81207
G01 X-158.93047 Y-96.77118
G01 X-158.95998 Y-96.47999
G01 X-158.93047 Y-96.18881
G01 X-158.92178 Y-96.14792
G01 X-158.83029 Y-95.86989
G01 X-158.67350 Y-95.59831
G01 X-158.46367 Y-95.36529
G01 X-158.22755 Y-95.19237
G01 X-158.19133 Y-95.17146
G01 X-157.94304 Y-95.06092
G01 X-157.90329 Y-95.04799
G01 X-157.61678 Y-94.98823
G01 X-157.32409 Y-94.98714
G01 X-157.28251 Y-94.99150
G01 X-156.99646 Y-95.05343
G01 X-156.71000 Y-95.18096
G01 X-156.45630 Y-95.36529
G01 X-156.25966 Y-95.58205
G01 X-156.23507 Y-95.61586
G01 X-156.08968 Y-95.86989
G01 X-155.99819 Y-96.14792
G01 X-155.98950 Y-96.18881
G01 X-155.96001 Y-96.47999
G01 X-156.01000 Y-96.47999
G01 X-156.03924 Y-96.76595
G01 X-156.04574 Y-96.79663
G01 X-156.13535 Y-97.06976
G01 X-156.27838 Y-97.31911
G01 X-156.29679 Y-97.34446
G01 X-156.48976 Y-97.55754
G01 X-156.73499 Y-97.73572
G01 X-157.01190 Y-97.85901
G01 X-157.29290 Y-97.91959
G01 X-157.32409 Y-97.92287
G01 X-157.61155 Y-97.92203
G01 X-157.89290 Y-97.86308
G01 X-157.92272 Y-97.85337
G01 X-158.18498 Y-97.73572
G01 X-158.43021 Y-97.55754
G01 X-158.62318 Y-97.34446
G01 X-158.64159 Y-97.31911
G01 X-158.78462 Y-97.06976
G01 X-158.87423 Y-96.79663
G01 X-158.88076 Y-96.76595
G01 X-158.90997 Y-96.47999
G01 X-158.87830 Y-96.17852
G01 X-158.79023 Y-95.90489
G01 X-158.77748 Y-95.87624
G01 X-158.63306 Y-95.62770
G01 X-158.44131 Y-95.41353
G01 X-158.41802 Y-95.39254
G01 X-158.18498 Y-95.22427
G01 X-157.90807 Y-95.10095
G01 X-157.62707 Y-95.04040
G01 X-157.59587 Y-95.03712
G01 X-157.30842 Y-95.03794
G01 X-157.02709 Y-95.09689
G01 X-156.99725 Y-95.10659
G01 X-156.73499 Y-95.22427
G01 X-156.50195 Y-95.39254
G01 X-156.47866 Y-95.41353
G01 X-156.28691 Y-95.62770
G01 X-156.14249 Y-95.87624
G01 X-156.12974 Y-95.90489
G01 X-156.04167 Y-96.17852
G01 X-156.01000 Y-96.47999
G01 X-156.05999 Y-96.47999
G01 X-156.09329 Y-96.78116
G01 X-156.18102 Y-97.04941
G01 X-156.32166 Y-97.29412
G01 X-156.52321 Y-97.52038
G01 X-156.75999 Y-97.69241
G01 X-157.02737 Y-97.81146
G01 X-157.32409 Y-97.87285
G01 X-157.60631 Y-97.87232
G01 X-157.88249 Y-97.81418
G01 X-158.15998 Y-97.69241
G01 X-158.39676 Y-97.52038
G01 X-158.59831 Y-97.29412
G01 X-158.73895 Y-97.04941
G01 X-158.82668 Y-96.78116
G01 X-158.85998 Y-96.47999
G01 X-158.82940 Y-96.18891
G01 X-158.73420 Y-95.90123
G01 X-158.59260 Y-95.65709
G01 X-158.40418 Y-95.44698
G01 X-158.15998 Y-95.26755
G01 X-157.89260 Y-95.14850
G01 X-157.59587 Y-95.08711
G01 X-157.31366 Y-95.08767
G01 X-157.03748 Y-95.14581
G01 X-156.75999 Y-95.26755
G01 X-156.51582 Y-95.44698
G01 X-156.32737 Y-95.65709
G01 X-156.18577 Y-95.90123
G01 X-156.09059 Y-96.18891
G01 X-156.05999 Y-96.47999
G01 X-156.10997 Y-96.47999
G01 X-156.14084 Y-96.76572
G01 X-156.22671 Y-97.02909
G01 X-156.36497 Y-97.26910
G01 X-156.55666 Y-97.48324
G01 X-156.78498 Y-97.64913
G01 X-157.04282 Y-97.76391
G01 X-157.32409 Y-97.82287
G01 X-157.60111 Y-97.82259
G01 X-157.87210 Y-97.76526
G01 X-158.13499 Y-97.64913
G01 X-158.36702 Y-97.47954
G01 X-158.55216 Y-97.27349
G01 X-158.69089 Y-97.03374
G01 X-158.78048 Y-96.76066
G01 X-158.80999 Y-96.47999
G01 X-158.78048 Y-96.19930
G01 X-158.69089 Y-95.92622
G01 X-158.55216 Y-95.68647
G01 X-158.36702 Y-95.48045
G01 X-158.13499 Y-95.31086
G01 X-157.87715 Y-95.19605
G01 X-157.59587 Y-95.13710
G01 X-157.31886 Y-95.13738
G01 X-157.04787 Y-95.19470
G01 X-156.78498 Y-95.31086
G01 X-156.55295 Y-95.48045
G01 X-156.36781 Y-95.68647
G01 X-156.22908 Y-95.92622
G01 X-156.13949 Y-96.19930
G01 X-156.10997 Y-96.47999
G04 P0 ( dwell for no time -- G64 should not smooth over this point )
G00 Z0.30000 ( retract )

G00 X-155.91000 Y-91.40000 ( rapid move to begin. )
G01 F120.00000
( begin pre-milling-gcode )
M7
( end pre-milling-gcode )
( Mill infeed pass 1/1 )
G01 Z-0.05000
G04 P0 ( dwell for no time -- G64 should not smooth over this point )
G01 F680.00000
G01 X-155.91000 Y-91.40000
G01 X-155.94388 Y-91.72224
G01 X-156.04401 Y-92.03042
G01 X-156.20604 Y-92.31104
G01 X-156.40434 Y-92.53334
G01 X-156.44317 Y-92.56832
G01 X-156.68501 Y-92.74231
G01 X-156.95658 Y-92.86474
G01 X-157.00629 Y-92.88087
G01 X-157.27213 Y-92.93738
G01 X-157.32409 Y-92.94284
G01 X-157.62201 Y-92.94147
G01 X-157.93895 Y-92.87411
G01 X-158.23499 Y-92.74231
G01 X-158.49712 Y-92.55186
G01 X-158.71396 Y-92.31104
G01 X-158.87596 Y-92.03042
G01 X-158.97609 Y-91.72224
G01 X-159.00997 Y-91.40000
G01 X-158.97609 Y-91.07772
G01 X-158.87596 Y-90.76954
G01 X-158.71396 Y-90.48892
G01 X-158.51563 Y-90.26662
G01 X-158.47680 Y-90.23167
G01 X-158.25691 Y-90.07191
G01 X-158.21167 Y-90.04579
G01 X-157.93895 Y-89.92588
G01 X-157.64784 Y-89.86258
G01 X-157.59587 Y-89.85712
G01 X-157.32409 Y-89.85712
G01 X-157.27213 Y-89.86258
G01 X-156.98102 Y-89.92588
G01 X-156.70832 Y-90.04579
G01 X-156.66306 Y-90.07191
G01 X-156.42285 Y-90.24813
G01 X-156.20604 Y-90.48892
G01 X-156.05590 Y-90.74625
G01 X-156.03464 Y-90.79398
G01 X-155.94388 Y-91.07772
G01 X-155.91137 Y-91.37386
G01 X-155.91000 Y-91.40000
G01 X-155.96001 Y-91.40000
G01 X-155.99278 Y-91.71186
G01 X-156.08219 Y-91.99054
G01 X-156.09918 Y-92.02875
G01 X-156.24647 Y-92.28165
G01 X-156.44150 Y-92.49989
G01 X-156.47256 Y-92.52786
G01 X-156.69245 Y-92.68762
G01 X-156.72864 Y-92.70853
G01 X-156.99646 Y-92.82656
G01 X-157.28251 Y-92.88849
G01 X-157.32409 Y-92.89285
G01 X-157.61678 Y-92.89176
G01 X-157.92351 Y-92.82656
G01 X-158.20997 Y-92.69900
G01 X-158.44741 Y-92.52786
G01 X-158.47847 Y-92.49989
G01 X-158.67350 Y-92.28165
G01 X-158.82079 Y-92.02875
G01 X-158.83778 Y-91.99054
G01 X-158.92178 Y-91.73207
G01 X-158.93047 Y-91.69118
G01 X-158.95998 Y-91.40000
G01 X-158.93047 Y-91.10881
G01 X-158.92178 Y-91.06792
G01 X-158.83029 Y-90.78989
G01 X-158.67350 Y-90.51831
G01 X-158.46367 Y-90.28529
G01 X-158.22755 Y-90.11237
G01 X-158.19133 Y-90.09146
G01 X-157.94304 Y-89.98092
G01 X-157.90329 Y-89.96799
G01 X-157.61678 Y-89.90823
G01 X-157.32409 Y-89.90714
G01 X-157.28251 Y-89.91150
G01 X-156.99646 Y-89.97343
G01 X-156.71000 Y-90.10096
G01 X-156.45630 Y-90.28529
G01 X-156.25966 Y-90.50205
G01 X-156.23507 Y-90.53586
G01 X-156.08968 Y-90.78989
G01 X-155.99819 Y-91.06792
G01 X-155.98950 Y-91.10881
G01 X-155.96001 Y-91.40000
G01 X-156.01000 Y-91.40000
G01 X-156.03924 Y-91.68595
G01 X-156.04574 Y-91.71663
G01 X-156.13535 Y-91.98976
G01 X-156.27838 Y-92.23911
G01 X-156.29679 Y-92.26446
G01 X-156.48976 Y-92.47754
G01 X-156.73499 Y-92.65572
G01 X-157.01190 Y-92.77901
G01 X-157.29290 Y-92.83959
G01 X-157.32409 Y-92.84287
G01 X-157.61155 Y-92.84203
G01 X-157.89290 Y-92.78308
G01 X-157.92272 Y-92.77337
G01 X-158.18498 Y-92.65572
G01 X-158.43021 Y-92.47754
G01 X-158.62318 Y-92.26446
G01 X-158.64159 Y-92.23911
G01 X-158.78462 Y-91.98976
G01 X-158.87423 Y-91.71663
G01 X-158.88076 Y-91.68595
G01 X-158.90997 Y-91.40000
G01 X-158.87830 Y-91.09852
G01 X-158.79023 Y-90.82489
G01 X-158.77748 Y-90.79624
G01 X-158.63306 Y-90.54770
G01 X-158.44131 Y-90.33353
G01 X-158.41802 Y-90.31254
G01 X-158.18498 Y-90.14427
