( pcb2gcode 2.5.0 )
( Software-independent Gcode )

G94 ( Millimeters per minute feed rate. )
G21 ( Units == Millimeters. )

G90 ( Absolute coordinates. )
G00 S24000 ( RPM spindle speed. )
G01 F880.00000 ( Feedrate. )


G00 Z50.00000 (Retract to tool change height)
T0
M5      (Spindle stop.)
G04 P1.00000 (Wait for spindle to stop)
(MSG, Change tool bit to cutter diameter 2.00000mm)
M0      (Temporary machine stop.)
M3 ( Spindle on clockwise. )
G04 P1.00000 (Wait for spindle to get up to speed)
G04 P0 ( dwell for no time -- G64 should not smooth over this point )
G00 Z0.30000 ( retract )

G00 X-165.87866 Y-96.39016 ( rapid move to begin. )
G01 Z-0.40000 F240.00000 ( plunge. )
G04 P0 ( dwell for no time -- G64 should not smooth over this point )
G01 F880.00000
G01 X-165.87866 Y-95.43932
G01 X-165.87866 Y-92.43932
G01 X-165.87866 Y-91.48849
G01 X-165.88306 Y-91.44373
G01 X-165.92774 Y-91.43934
G01 X-170.82950 Y-91.43931
G01 X-170.87426 Y-91.44371
G01 X-170.87865 Y-91.48849
G01 X-170.87865 Y-92.43932
G01 X-170.87865 Y-95.43932
G01 X-170.87865 Y-96.39016
G01 X-170.87426 Y-96.43491
G01 X-170.82955 Y-96.43930
G01 X-165.92774 Y-96.43930
G01 X-165.88306 Y-96.43491
G01 X-165.87866 Y-96.39016
G01 Z-0.80000 F240.00000 ( plunge. )
G04 P0 ( dwell for no time -- G64 should not smooth over this point )
G01 F880.00000
G01 X-165.87866 Y-95.43932
G01 X-165.87866 Y-92.43932
G01 X-165.87866 Y-91.48849
G01 X-165.88306 Y-91.44373
G01 X-165.92774 Y-91.43934
G01 X-170.82950 Y-91.43931
G01 X-170.87426 Y-91.44371
G01 X-170.87865 Y-91.48849
G01 X-170.87865 Y-92.43932
G01 X-170.87865 Y-95.43932
G01 X-170.87865 Y-96.39016
G01 X-170.87426 Y-96.43491
G01 X-170.82955 Y-96.43930
G01 X-165.92774 Y-96.43930
G01 X-165.88306 Y-96.43491
G01 X-165.87866 Y-96.39016
G01 Z-1.20000 F240.00000 ( plunge. )
G04 P0 ( dwell for no time -- G64 should not smooth over this point )
G01 F880.00000
G01 X-165.87866 Y-95.43932
G01 X-165.87866 Y-92.43932
G01 X-165.87866 Y-91.48849
G01 X-165.88306 Y-91.44373
G01 X-165.92774 Y-91.43934
G01 X-170.82950 Y-91.43931
G01 X-170.87426 Y-91.44371
G01 X-170.87865 Y-91.48849
G01 X-170.87865 Y-92.43932
G01 X-170.87865 Y-95.43932
G01 X-170.87865 Y-96.39016
G01 X-170.87426 Y-96.43491
G01 X-170.82955 Y-96.43930
G01 X-165.92774 Y-96.43930
G01 X-165.88306 Y-96.43491
G01 X-165.87866 Y-96.39016
G01 Z-1.60000 F240.00000 ( plunge. )
G04 P0 ( dwell for no time -- G64 should not smooth over this point )
G01 F880.00000
G01 X-165.87866 Y-95.43932
G00 Z-1.20000
G01 X-165.87866 Y-92.43932
G01 Z-1.60000 F240.00000
G01 F880.00000
G01 X-165.87866 Y-91.48849
G01 X-165.88306 Y-91.44373
G01 X-165.92774 Y-91.43934
G01 X-170.82950 Y-91.43931
G01 X-170.87426 Y-91.44371
G01 X-170.87865 Y-91.48849
G01 X-170.87865 Y-92.43932
G00 Z-1.20000
G01 X-170.87865 Y-95.43932
G01 Z-1.60000 F240.00000
G01 F880.00000
G01 X-170.87865 Y-96.39016
G01 X-170.87426 Y-96.43491
G01 X-170.82955 Y-96.43930
G01 X-165.92774 Y-96.43930
G01 X-165.88306 Y-96.43491
G01 X-165.87866 Y-96.39016
G04 P0 ( dwell for no time -- G64 should not smooth over this point )
G00 Z0.30000 ( retract )

G00 X-132.62130 Y-86.01146 ( rapid move to begin. )
G01 Z-0.40000 F240.00000 ( plunge. )
G04 P0 ( dwell for no time -- G64 should not smooth over this point )
G01 F880.00000
G01 X-132.62130 Y-81.10979
G01 X-132.62569 Y-81.06504
G01 X-132.67040 Y-81.06065
G01 X-133.62129 Y-81.06065
G01 X-136.62129 Y-81.06065
G01 X-137.57219 Y-81.06065
G01 X-137.61690 Y-81.06504
G01 X-137.62129 Y-81.10979
G01 X-137.62129 Y-86.01146
G01 X-137.61690 Y-86.05624
G01 X-137.57214 Y-86.06064
G01 X-136.62129 Y-86.06064
G01 X-133.62129 Y-86.06064
G01 X-132.67045 Y-86.06064
G01 X-132.62569 Y-86.05624
G01 X-132.62130 Y-86.01146
G01 Z-0.80000 F240.00000 ( plunge. )
G04 P0 ( dwell for no time -- G64 should not smooth over this point )
G01 F880.00000
G01 X-132.62130 Y-81.10979
G01 X-132.62569 Y-81.06504
G01 X-132.67040 Y-81.06065
G01 X-133.62129 Y-81.06065
G01 X-136.62129 Y-81.06065
G01 X-137.57219 Y-81.06065
G01 X-137.61690 Y-81.06504
G01 X-137.62129 Y-81.10979
G01 X-137.62129 Y-86.01146
G01 X-137.61690 Y-86.05624
G01 X-137.57214 Y-86.06064
G01 X-136.62129 Y-86.06064
G01 X-133.62129 Y-86.06064
G01 X-132.67045 Y-86.06064
G01 X-132.62569 Y-86.05624
G01 X-132.62130 Y-86.01146
G01 Z-1.20000 F240.00000 ( plunge. )
G04 P0 ( dwell for no time -- G64 should not smooth over this point )
G01 F880.00000
G01 X-132.62130 Y-81.10979
G01 X-132.62569 Y-81.06504
G01 X-132.67040 Y-81.06065
G01 X-133.62129 Y-81.06065
G01 X-136.62129 Y-81.06065
G01 X-137.57219 Y-81.06065
G01 X-137.61690 Y-81.06504
G01 X-137.62129 Y-81.10979
G01 X-137.62129 Y-86.01146
G01 X-137.61690 Y-86.05624
G01 X-137.57214 Y-86.06064
G01 X-136.62129 Y-86.06064
G01 X-133.62129 Y-86.06064
G01 X-132.67045 Y-86.06064
G01 X-132.62569 Y-86.05624
G01 X-132.62130 Y-86.01146
G01 Z-1.60000 F240.00000 ( plunge. )
G04 P0 ( dwell for no time -- G64 should not smooth over this point )
G01 F880.00000
G01 X-132.62130 Y-81.10979
G01 X-132.62569 Y-81.06504
G01 X-132.67040 Y-81.06065
G01 X-133.62129 Y-81.06065
G00 Z-1.20000
G01 X-136.62129 Y-81.06065
G01 Z-1.60000 F240.00000
G01 F880.00000
G01 X-137.57219 Y-81.06065
G01 X-137.61690 Y-81.06504
G01 X-137.62129 Y-81.10979
G01 X-137.62129 Y-86.01146
G01 X-137.61690 Y-86.05624
G01 X-137.57214 Y-86.06064
G01 X-136.62129 Y-86.06064
G00 Z-1.20000
G01 X-133.62129 Y-86.06064
G01 Z-1.60000 F240.00000
G01 F880.00000
G01 X-132.67045 Y-86.06064
G01 X-132.62569 Y-86.05624
G01 X-132.62130 Y-86.01146
G04 P0 ( dwell for no time -- G64 should not smooth over this point )
G00 Z0.30000 ( retract )

G00 X-152.43929 Y-102.93932 ( rapid move to begin. )
G01 Z-0.40000 F240.00000 ( plunge. )
G04 P0 ( dwell for no time -- G64 should not smooth over this point )
G01 F880.00000
G01 X-152.43929 Y-74.43932
G01 X-152.44412 Y-74.34128
G01 X-152.47295 Y-74.04865
G01 X-152.48735 Y-73.95154
G01 X-152.51120 Y-73.85634
G01 X-152.59657 Y-73.57496
G01 X-152.67158 Y-73.39393
G01 X-152.81018 Y-73.13460
G01 X-152.86063 Y-73.05040
G01 X-152.91910 Y-72.97158
G01 X-153.10564 Y-72.74428
G01 X-153.17155 Y-72.67156
G01 X-153.24427 Y-72.60565
G01 X-153.47158 Y-72.41911
G01 X-153.63452 Y-72.31022
G01 X-153.89385 Y-72.17159
G01 X-153.98260 Y-72.12960
G01 X-154.07503 Y-72.09653
G01 X-154.35641 Y-72.01118
G01 X-154.54864 Y-71.97296
G01 X-154.84130 Y-71.94413
G01 X-154.93934 Y-71.93930
G01 X-157.18933 Y-71.93930
G01 X-160.18933 Y-71.93930
G01 X-162.43932 Y-71.93930
G01 X-162.53734 Y-71.94413
G01 X-162.82998 Y-71.97296
G01 X-163.02220 Y-72.01118
G01 X-163.30358 Y-72.09653
G01 X-163.39602 Y-72.12960
G01 X-163.48476 Y-72.17159
G01 X-163.74410 Y-72.31022
G01 X-163.90704 Y-72.41911
G01 X-164.13434 Y-72.60565
G01 X-164.27295 Y-72.74423
G01 X-164.45951 Y-72.97153
G01 X-164.51798 Y-73.05037
G01 X-164.56845 Y-73.13460
G01 X-164.70706 Y-73.39393
G01 X-164.74902 Y-73.48263
G01 X-164.78209 Y-73.57504
G01 X-164.86744 Y-73.85642
G01 X-164.90566 Y-74.04865
G01 X-164.93449 Y-74.34128
G01 X-164.93932 Y-74.43932
G01 X-164.93932 Y-86.39018
G01 X-164.95367 Y-86.53589
G01 X-164.98184 Y-86.62881
G01 X-165.02761 Y-86.71441
G01 X-165.08920 Y-86.78946
G01 X-165.16424 Y-86.85103
G01 X-165.24983 Y-86.89680
G01 X-165.34270 Y-86.92497
G01 X-165.48839 Y-86.93930
G01 X-172.93933 Y-86.93930
G01 X-173.03735 Y-86.94412
G01 X-173.32998 Y-86.97295
G01 X-173.42709 Y-86.98735
G01 X-173.52228 Y-87.01121
G01 X-173.80367 Y-87.09657
G01 X-173.98469 Y-87.17158
G01 X-174.24403 Y-87.31019
G01 X-174.32823 Y-87.36063
G01 X-174.40704 Y-87.41910
G01 X-174.63435 Y-87.60564
G01 X-174.70707 Y-87.67155
G01 X-174.77298 Y-87.74427
G01 X-174.95952 Y-87.97158
G01 X-175.06841 Y-88.13452
G01 X-175.20704 Y-88.39385
G01 X-175.24903 Y-88.48260
G01 X-175.28210 Y-88.57503
G01 X-175.36744 Y-88.85641
G01 X-175.40567 Y-89.04864
G01 X-175.43450 Y-89.34127
G01 X-175.43932 Y-89.43932
G01 X-175.43932 Y-98.43933
G01 X-175.43450 Y-98.53734
G01 X-175.40567 Y-98.82998
G01 X-175.36744 Y-99.02218
G01 X-175.28210 Y-99.30359
G01 X-175.24903 Y-99.39604
G01 X-175.20702 Y-99.48484
G01 X-175.06838 Y-99.74415
G01 X-174.95952 Y-99.90704
G01 X-174.77298 Y-100.13434
G01 X-174.63440 Y-100.27295
G01 X-174.40709 Y-100.45951
G01 X-174.32825 Y-100.51799
G01 X-174.24403 Y-100.56846
G01 X-173.98469 Y-100.70706
G01 X-173.89599 Y-100.74902
G01 X-173.80359 Y-100.78209
G01 X-173.52221 Y-100.86744
G01 X-173.32998 Y-100.90567
G01 X-173.03735 Y-100.93449
G01 X-172.93933 Y-100.93932
G01 X-165.48844 Y-100.93932
G01 X-165.34275 Y-100.95367
G01 X-165.24983 Y-100.98184
G01 X-165.16419 Y-101.02761
G01 X-165.08918 Y-101.08918
G01 X-165.02761 Y-101.16419
G01 X-164.98184 Y-101.24984
G01 X-164.95367 Y-101.34275
G01 X-164.93932 Y-101.48844
G01 X-164.93932 Y-102.93932
G01 X-164.93449 Y-103.03731
G01 X-164.90566 Y-103.32999
G01 X-164.86744 Y-103.52222
G01 X-164.78209 Y-103.80360
G01 X-164.74902 Y-103.89601
G01 X-164.70706 Y-103.98470
G01 X-164.56845 Y-104.24404
G01 X-164.51798 Y-104.32826
G01 X-164.45951 Y-104.40708
G01 X-164.27295 Y-104.63441
G01 X-164.13434 Y-104.77297
G01 X-163.90704 Y-104.95953
G01 X-163.74407 Y-105.06845
G01 X-163.48476 Y-105.20705
G01 X-163.30366 Y-105.28203
G01 X-163.02225 Y-105.36740
G01 X-162.82998 Y-105.40566
G01 X-162.53734 Y-105.43451
G01 X-162.43932 Y-105.43934
G01 X-160.18933 Y-105.43934
G01 X-157.18933 Y-105.43934
G01 X-154.93934 Y-105.43934
G01 X-154.84130 Y-105.43451
G01 X-154.54864 Y-105.40566
G01 X-154.45156 Y-105.39128
G01 X-154.35633 Y-105.36740
G01 X-154.07495 Y-105.28203
G01 X-153.89393 Y-105.20705
G01 X-153.63459 Y-105.06845
G01 X-153.55039 Y-105.01798
G01 X-153.47158 Y-104.95953
G01 X-153.24427 Y-104.77297
G01 X-153.17155 Y-104.70708
G01 X-153.10564 Y-104.63433
G01 X-152.91910 Y-104.40706
G01 X-152.86063 Y-104.32824
G01 X-152.81018 Y-104.24404
G01 X-152.67158 Y-103.98470
G01 X-152.59657 Y-103.80368
G01 X-152.51120 Y-103.52230
G01 X-152.48735 Y-103.42707
G01 X-152.47295 Y-103.32999
G01 X-152.44412 Y-103.03731
G01 X-152.43929 Y-102.93932
G01 Z-0.80000 F240.00000 ( plunge. )
G04 P0 ( dwell for no time -- G64 should not smooth over this point )
G01 F880.00000
G01 X-152.43929 Y-74.43932
G01 X-152.44412 Y-74.34128
G01 X-152.47295 Y-74.04865
G01 X-152.48735 Y-73.95154
G01 X-152.51120 Y-73.85634
G01 X-152.59657 Y-73.57496
G01 X-152.67158 Y-73.39393
G01 X-152.81018 Y-73.13460
G01 X-152.86063 Y-73.05040
G01 X-152.91910 Y-72.97158
G01 X-153.10564 Y-72.74428
G01 X-153.17155 Y-72.67156
G01 X-153.24427 Y-72.60565
G01 X-153.47158 Y-72.41911
G01 X-153.63452 Y-72.31022
G01 X-153.89385 Y-72.17159
G01 X-153.98260 Y-72.12960
G01 X-154.07503 Y-72.09653
G01 X-154.35641 Y-72.01118
G01 X-154.54864 Y-71.97296
G01 X-154.84130 Y-71.94413
G01 X-154.93934 Y-71.93930
G01 X-157.18933 Y-71.93930
G01 X-160.18933 Y-71.93930
G01 X-162.43932 Y-71.93930
G01 X-162.53734 Y-71.94413
G01 X-162.82998 Y-71.97296
G01 X-163.02220 Y-72.01118
G01 X-163.30358 Y-72.09653
G01 X-163.39602 Y-72.12960
G01 X-163.48476 Y-72.17159
G01 X-163.74410 Y-72.31022
G01 X-163.90704 Y-72.41911
G01 X-164.13434 Y-72.60565
G01 X-164.27295 Y-72.74423
G01 X-164.45951 Y-72.97153
G01 X-164.51798 Y-73.05037
G01 X-164.56845 Y-73.13460
G01 X-164.70706 Y-73.39393
G01 X-164.74902 Y-73.48263
G01 X-164.78209 Y-73.57504
G01 X-164.86744 Y-73.85642
G01 X-164.90566 Y-74.04865
G01 X-164.93449 Y-74.34128
G01 X-164.93932 Y-74.43932
G01 X-164.93932 Y-86.39018
G01 X-164.95367 Y-86.53589
G01 X-164.98184 Y-86.62881
G01 X-165.02761 Y-86.71441
G01 X-165.08920 Y-86.78946
G01 X-165.16424 Y-86.85103
G01 X-165.24983 Y-86.89680
G01 X-165.34270 Y-86.92497
G01 X-165.48839 Y-86.93930
G01 X-172.93933 Y-86.93930
G01 X-173.03735 Y-86.94412
G01 X-173.32998 Y-86.97295
G01 X-173.42709 Y-86.98735
G01 X-173.52228 Y-87.01121
G01 X-173.80367 Y-87.09657
G01 X-173.98469 Y-87.17158
G01 X-174.24403 Y-87.31019
G01 X-174.32823 Y-87.36063
G01 X-174.40704 Y-87.41910
G01 X-174.63435 Y-87.60564
G01 X-174.70707 Y-87.67155
G01 X-174.77298 Y-87.74427
G01 X-174.95952 Y-87.97158
G01 X-175.06841 Y-88.13452
G01 X-175.20704 Y-88.39385
G01 X-175.24903 Y-88.48260
G01 X-175.28210 Y-88.57503
G01 X-175.36744 Y-88.85641
G01 X-175.40567 Y-89.04864
G01 X-175.43450 Y-89.34127
G01 X-175.43932 Y-89.43932
G01 X-175.43932 Y-98.43933
G01 X-175.43450 Y-98.53734
G01 X-175.40567 Y-98.82998
G01 X-175.36744 Y-99.02218
G01 X-175.28210 Y-99.30359
G01 X-175.24903 Y-99.39604
G01 X-175.20702 Y-99.48484
G01 X-175.06838 Y-99.74415
G01 X-174.95952 Y-99.90704
G01 X-174.77298 Y-100.13434
G01 X-174.63440 Y-100.27295
G01 X-174.40709 Y-100.45951
G01 X-174.32825 Y-100.51799
G01 X-174.24403 Y-100.56846
G01 X-173.98469 Y-100.70706
G01 X-173.89599 Y-100.74902
G01 X-173.80359 Y-100.78209
G01 X-173.52221 Y-100.86744
G01 X-173.32998 Y-100.90567
G01 X-173.03735 Y-100.93449
G01 X-172.93933 Y-100.93932
G01 X-165.48844 Y-100.93932
G01 X-165.34275 Y-100.95367
G01 X-165.24983 Y-100.98184
G01 X-165.16419 Y-101.02761
G01 X-165.08918 Y-101.08918
G01 X-165.02761 Y-101.16419
G01 X-164.98184 Y-101.24984
G01 X-164.95367 Y-101.34275
G01 X-164.93932 Y-101.48844
G01 X-164.93932 Y-102.93932
G01 X-164.93449 Y-103.03731
G01 X-164.90566 Y-103.32999
G01 X-164.86744 Y-103.52222
G01 X-164.78209 Y-103.80360
G01 X-164.74902 Y-103.89601
G01 X-164.70706 Y-103.98470
G01 X-164.56845 Y-104.24404
G01 X-164.51798 Y-104.32826
G01 X-164.45951 Y-104.40708
G01 X-164.27295 Y-104.63441
G01 X-164.13434 Y-104.77297
G01 X-163.90704 Y-104.95953
G01 X-163.74407 Y-105.06845
G01 X-163.48476 Y-105.20705
G01 X-163.30366 Y-105.28203
G01 X-163.02225 Y-105.36740
G01 X-162.82998 Y-105.40566
G01 X-162.53734 Y-105.43451
G01 X-162.43932 Y-105.43934
G01 X-160.18933 Y-105.43934
G01 X-157.18933 Y-105.43934
G01 X-154.93934 Y-105.43934
G01 X-154.84130 Y-105.43451
G01 X-154.54864 Y-105.40566
G01 X-154.45156 Y-105.39128
G01 X-154.35633 Y-105.36740
G01 X-154.07495 Y-105.28203
G01 X-153.89393 Y-105.20705
G01 X-153.63459 Y-105.06845
G01 X-153.55039 Y-105.01798
G01 X-153.47158 Y-104.95953
G01 X-153.24427 Y-104.77297
G01 X-153.17155 Y-104.70708
G01 X-153.10564 Y-104.63433
G01 X-152.91910 Y-104.40706
G01 X-152.86063 Y-104.32824
G01 X-152.81018 Y-104.24404
G01 X-152.67158 Y-103.98470
G01 X-152.59657 Y-103.80368
G01 X-152.51120 Y-103.52230
G01 X-152.48735 Y-103.42707
G01 X-152.47295 Y-103.32999
G01 X-152.44412 Y-103.03731
G01 X-152.43929 Y-102.93932
G01 Z-1.20000 F240.00000 ( plunge. )
G04 P0 ( dwell for no time -- G64 should not smooth over this point )
G01 F880.00000
G01 X-152.43929 Y-74.43932
G01 X-152.44412 Y-74.34128
G01 X-152.47295 Y-74.04865
G01 X-152.48735 Y-73.95154
G01 X-152.51120 Y-73.85634
G01 X-152.59657 Y-73.57496
G01 X-152.67158 Y-73.39393
G01 X-152.81018 Y-73.13460
G01 X-152.86063 Y-73.05040
G01 X-152.91910 Y-72.97158
G01 X-153.10564 Y-72.74428
G01 X-153.17155 Y-72.67156
G01 X-153.24427 Y-72.60565
G01 X-153.47158 Y-72.41911
G01 X-153.63452 Y-72.31022
G01 X-153.89385 Y-72.17159
G01 X-153.98260 Y-72.12960
G01 X-154.07503 Y-72.09653
G01 X-154.35641 Y-72.01118
G01 X-154.54864 Y-71.97296
G01 X-154.84130 Y-71.94413
G01 X-154.93934 Y-71.93930
G01 X-157.18933 Y-71.93930
G01 X-160.18933 Y-71.93930
G01 X-162.43932 Y-71.93930
G01 X-162.53734 Y-71.94413
G01 X-162.82998 Y-71.97296
G01 X-163.02220 Y-72.01118
G01 X-163.30358 Y-72.09653
G01 X-163.39602 Y-72.12960
G01 X-163.48476 Y-72.17159
G01 X-163.74410 Y-72.31022
G01 X-163.90704 Y-72.41911
G01 X-164.13434 Y-72.60565
G01 X-164.27295 Y-72.74423
G01 X-164.45951 Y-72.97153
G01 X-164.51798 Y-73.05037
G01 X-164.56845 Y-73.13460
G01 X-164.70706 Y-73.39393
G01 X-164.74902 Y-73.48263
G01 X-164.78209 Y-73.57504
G01 X-164.86744 Y-73.85642
G01 X-164.90566 Y-74.04865
G01 X-164.93449 Y-74.34128
G01 X-164.93932 Y-74.43932
G01 X-164.93932 Y-86.39018
G01 X-164.95367 Y-86.53589
G01 X-164.98184 Y-86.62881
G01 X-165.02761 Y-86.71441
G01 X-165.08920 Y-86.78946
G01 X-165.16424 Y-86.85103
G01 X-165.24983 Y-86.89680
G01 X-165.34270 Y-86.92497
G01 X-165.48839 Y-86.93930
G01 X-172.93933 Y-86.93930
G01 X-173.03735 Y-86.94412
G01 X-173.32998 Y-86.97295
G01 X-173.42709 Y-86.98735
G01 X-173.52228 Y-87.01121
G01 X-173.80367 Y-87.09657
G01 X-173.98469 Y-87.17158
G01 X-174.24403 Y-87.31019
G01 X-174.32823 Y-87.36063
G01 X-174.40704 Y-87.41910
G01 X-174.63435 Y-87.60564
G01 X-174.70707 Y-87.67155
G01 X-174.77298 Y-87.74427
G01 X-174.95952 Y-87.97158
G01 X-175.06841 Y-88.13452
G01 X-175.20704 Y-88.39385
G01 X-175.24903 Y-88.48260
G01 X-175.28210 Y-88.57503
G01 X-175.36744 Y-88.85641
G01 X-175.40567 Y-89.04864
G01 X-175.43450 Y-89.34127
G01 X-175.43932 Y-89.43932
G01 X-175.43932 Y-98.43933
G01 X-175.43450 Y-98.53734
G01 X-175.40567 Y-98.82998
G01 X-175.36744 Y-99.02218
G01 X-175.28210 Y-99.30359
G01 X-175.24903 Y-99.39604
G01 X-175.20702 Y-99.48484
G01 X-175.06838 Y-99.74415
G01 X-174.95952 Y-99.90704
G01 X-174.77298 Y-100.13434
G01 X-174.63440 Y-100.27295
G01 X-174.40709 Y-100.45951
G01 X-174.32825 Y-100.51799
G01 X-174.24403 Y-100.56846
G01 X-173.98469 Y-100.70706
G01 X-173.89599 Y-100.74902
G01 X-173.80359 Y-100.78209
G01 X-173.52221 Y-100.86744
G01 X-173.32998 Y-100.90567
G01 X-173.03735 Y-100.93449
G01 X-172.93933 Y-100.93932
G01 X-165.48844 Y-100.93932
G01 X-165.34275 Y-100.95367
G01 X-165.24983 Y-100.98184
G01 X-165.16419 Y-101.02761
G01 X-165.08918 Y-101.08918
G01 X-165.02761 Y-101.16419
G01 X-164.98184 Y-101.24984
G01 X-164.95367 Y-101.34275
G01 X-164.93932 Y-101.48844
G01 X-164.93932 Y-102.93932
G01 X-164.93449 Y-103.03731
G01 X-164.90566 Y-103.32999
G01 X-164.86744 Y-103.52222
G01 X-164.78209 Y-103.80360
G01 X-164.74902 Y-103.89601
G01 X-164.70706 Y-103.98470
G01 X-164.56845 Y-104.24404
G01 X-164.51798 Y-104.32826
G01 X-164.45951 Y-104.40708
G01 X-164.27295 Y-104.63441
G01 X-164.13434 Y-104.77297
G01 X-163.90704 Y-104.95953
G01 X-163.74407 Y-105.06845
G01 X-163.48476 Y-105.20705
G01 X-163.30366 Y-105.28203
G01 X-163.02225 Y-105.36740
G01 X-162.82998 Y-105.40566
G01 X-162.53734 Y-105.43451
G01 X-162.43932 Y-105.43934
G01 X-160.18933 Y-105.43934
G01 X-157.18933 Y-105.43934
G01 X-154.93934 Y-105.43934
G01 X-154.84130 Y-105.43451
G01 X-154.54864 Y-105.40566
G01 X-154.45156 Y-105.39128
G01 X-154.35633 Y-105.36740
G01 X-154.07495 Y-105.28203
G01 X-153.89393 Y-105.20705
G01 X-153.63459 Y-105.06845
G01 X-153.55039 Y-105.01798
G01 X-153.47158 Y-104.95953
G01 X-153.24427 Y-104.77297
G01 X-153.17155 Y-104.70708
G01 X-153.10564 Y-104.63433
G01 X-152.91910 Y-104.40706
G01 X-152.86063 Y-104.32824
G01 X-152.81018 Y-104.24404
G01 X-152.67158 Y-103.98470
G01 X-152.59657 Y-103.80368
G01 X-152.51120 Y-103.52230
G01 X-152.48735 Y-103.42707
G01 X-152.47295 Y-103.32999
G01 X-152.44412 Y-103.03731
G01 X-152.43929 Y-102.93932
G01 Z-1.60000 F240.00000 ( plunge. )
G04 P0 ( dwell for no time -- G64 should not smooth over this point )
G01 F880.00000
G01 X-152.43929 Y-74.43932
G01 X-152.44412 Y-74.34128
G01 X-152.47295 Y-74.04865
G01 X-152.48735 Y-73.95154
G01 X-152.51120 Y-73.85634
G01 X-152.59657 Y-73.57496
G01 X-152.67158 Y-73.39393
G01 X-152.81018 Y-73.13460
G01 X-152.86063 Y-73.05040
G01 X-152.91910 Y-72.97158
G01 X-153.10564 Y-72.74428
G01 X-153.17155 Y-72.67156
G01 X-153.24427 Y-72.60565
G01 X-153.47158 Y-72.41911
G01 X-153.63452 Y-72.31022
G01 X-153.89385 Y-72.17159
G01 X-153.98260 Y-72.12960
G01 X-154.07503 Y-72.09653
G01 X-154.35641 Y-72.01118
G01 X-154.54864 Y-71.97296
G01 X-154.84130 Y-71.94413
G01 X-154.93934 Y-71.93930
G01 X-157.18933 Y-71.93930
G00 Z-1.20000
G01 X-160.18933 Y-71.93930
G01 Z-1.60000 F240.00000
G01 F880.00000
G01 X-162.43932 Y-71.93930
G01 X-162.53734 Y-71.94413
G01 X-162.82998 Y-71.97296
G01 X-163.02220 Y-72.01118
G01 X-163.30358 Y-72.09653
G01 X-163.39602 Y-72.12960
G01 X-163.48476 Y-72.17159
G01 X-163.74410 Y-72.31022
G01 X-163.90704 Y-72.41911
G01 X-164.13434 Y-72.60565
G01 X-164.27295 Y-72.74423
G01 X-164.45951 Y-72.97153
G01 X-164.51798 Y-73.05037
G01 X-164.56845 Y-73.13460
G01 X-164.70706 Y-73.39393
G01 X-164.74902 Y-73.48263
G01 X-164.78209 Y-73.57504
G01 X-164.86744 Y-73.85642
G01 X-164.90566 Y-74.04865
G01 X-164.93449 Y-74.34128
G01 X-164.93932 Y-74.43932
G01 X-164.93932 Y-86.39018
G01 X-164.95367 Y-86.53589
G01 X-164.98184 Y-86.62881
G01 X-165.02761 Y-86.71441
G01 X-165.08920 Y-86.78946
G01 X-165.16424 Y-86.85103
G01 X-165.24983 Y-86.89680
G01 X-165.34270 Y-86.92497
G01 X-165.48839 Y-86.93930
G01 X-172.93933 Y-86.93930
G01 X-173.03735 Y-86.94412
G01 X-173.32998 Y-86.97295
G01 X-173.42709 Y-86.98735
G01 X-173.52228 Y-87.01121
G01 X-173.80367 Y-87.09657
G01 X-173.98469 Y-87.17158
G01 X-174.24403 Y-87.31019
G01 X-174.32823 Y-87.36063
G01 X-174.40704 Y-87.41910
G01 X-174.63435 Y-87.60564
G01 X-174.70707 Y-87.67155
G01 X-174.77298 Y-87.74427
G01 X-174.95952 Y-87.97158
G01 X-175.06841 Y-88.13452
G01 X-175.20704 Y-88.39385
G01 X-175.24903 Y-88.48260
G01 X-175.28210 Y-88.57503
G01 X-175.36744 Y-88.85641
G01 X-175.40567 Y-89.04864
G01 X-175.43450 Y-89.34127
G01 X-175.43932 Y-89.43932
G01 X-175.43932 Y-98.43933
G01 X-175.43450 Y-98.53734
G01 X-175.40567 Y-98.82998
G01 X-175.36744 Y-99.02218
G01 X-175.28210 Y-99.30359
G01 X-175.24903 Y-99.39604
G01 X-175.20702 Y-99.48484
G01 X-175.06838 Y-99.74415
G01 X-174.95952 Y-99.90704
G01 X-174.77298 Y-100.13434
G01 X-174.63440 Y-100.27295
G01 X-174.40709 Y-100.45951
G01 X-174.32825 Y-100.51799
G01 X-174.24403 Y-100.56846
G01 X-173.98469 Y-100.70706
G01 X-173.89599 Y-100.74902
G01 X-173.80359 Y-100.78209
G01 X-173.52221 Y-100.86744
G01 X-173.32998 Y-100.90567
G01 X-173.03735 Y-100.93449
G01 X-172.93933 Y-100.93932
G01 X-165.48844 Y-100.93932
G01 X-165.34275 Y-100.95367
G01 X-165.24983 Y-100.98184
G01 X-165.16419 Y-101.02761
G01 X-165.08918 Y-101.08918
G01 X-165.02761 Y-101.16419
G01 X-164.98184 Y-101.24984
G01 X-164.95367 Y-101.34275
G01 X-164.93932 Y-101.48844
G01 X-164.93932 Y-102.93932
G01 X-164.93449 Y-103.03731
G01 X-164.90566 Y-103.32999
G01 X-164.86744 Y-103.52222
G01 X-164.78209 Y-103.80360
G01 X-164.74902 Y-103.89601
G01 X-164.70706 Y-103.98470
G01 X-164.56845 Y-104.24404
G01 X-164.51798 Y-104.32826
G01 X-164.45951 Y-104.40708
G01 X-164.27295 Y-104.63441
G01 X-164.13434 Y-104.77297
G01 X-163.90704 Y-104.95953
G01 X-163.74407 Y-105.06845
G01 X-163.48476 Y-105.20705
G01 X-163.30366 Y-105.28203
G01 X-163.02225 Y-105.36740
G01 X-162.82998 Y-105.40566
G01 X-162.53734 Y-105.43451
G01 X-162.43932 Y-105.43934
G01 X-160.18933 Y-105.43934
G00 Z-1.20000
G01 X-157.18933 Y-105.43934
G01 Z-1.60000 F240.00000
G01 F880.00000
G01 X-154.93934 Y-105.43934
G01 X-154.84130 Y-105.43451
G01 X-154.54864 Y-105.40566
G01 X-154.45156 Y-105.39128
G01 X-154.35633 Y-105.36740
G01 X-154.07495 Y-105.28203
G01 X-153.89393 Y-105.20705
G01 X-153.63459 Y-105.06845
G01 X-153.55039 Y-105.01798
G01 X-153.47158 Y-104.95953
G01 X-153.24427 Y-104.77297
G01 X-153.17155 Y-104.70708
G01 X-153.10564 Y-104.63433
G01 X-152.91910 Y-104.40706
G01 X-152.86063 Y-104.32824
G01 X-152.81018 Y-104.24404
G01 X-152.67158 Y-103.98470
G01 X-152.59657 Y-103.80368
G01 X-152.51120 Y-103.52230
G01 X-152.48735 Y-103.42707
G01 X-152.47295 Y-103.32999
G01 X-152.44412 Y-103.03731
G01 X-152.43929 Y-102.93932
G04 P0 ( dwell for no time -- G64 should not smooth over this point )
G00 Z0.30000 ( retract )

G00 X-128.06063 Y-88.06066 ( rapid move to begin. )
G01 Z-0.40000 F240.00000 ( plunge. )
G04 P0 ( dwell for no time -- G64 should not smooth over this point )
G01 F880.00000
G01 X-128.06063 Y-79.06065
G01 X-128.06545 Y-78.96261
G01 X-128.09428 Y-78.66997
G01 X-128.13251 Y-78.47774
G01 X-128.21785 Y-78.19636
G01 X-128.25092 Y-78.10396
G01 X-128.29289 Y-78.01526
G01 X-128.43149 Y-77.75593
G01 X-128.48196 Y-77.67170
G01 X-128.54043 Y-77.59286
G01 X-128.72700 Y-77.36556
G01 X-128.86555 Y-77.22700
G01 X-129.09286 Y-77.04044
G01 X-129.17170 Y-76.98196
G01 X-129.25593 Y-76.93149
G01 X-129.51526 Y-76.79289
G01 X-129.60396 Y-76.75093
G01 X-129.69636 Y-76.71786
G01 X-129.97774 Y-76.63251
G01 X-130.16997 Y-76.59428
G01 X-130.46260 Y-76.56546
G01 X-130.56065 Y-76.56063
G01 X-138.01151 Y-76.56063
G01 X-138.15720 Y-76.54628
G01 X-138.25012 Y-76.51811
G01 X-138.33577 Y-76.47234
G01 X-138.41077 Y-76.41077
G01 X-138.47234 Y-76.33576
G01 X-138.51811 Y-76.25011
G01 X-138.54628 Y-76.15720
G01 X-138.56063 Y-76.01151
G01 X-138.56063 Y-74.56066
G01 X-138.56546 Y-74.46269
G01 X-138.59426 Y-74.17003
G01 X-138.60866 Y-74.07290
G01 X-138.63251 Y-73.97765
G01 X-138.71788 Y-73.69627
G01 X-138.79289 Y-73.51525
G01 X-138.93150 Y-73.25591
G01 X-138.98197 Y-73.17168
G01 X-139.04044 Y-73.09284
G01 X-139.22700 Y-72.86554
G01 X-139.36561 Y-72.72696
G01 X-139.59291 Y-72.54042
G01 X-139.75588 Y-72.43150
G01 X-140.01519 Y-72.29290
G01 X-140.19629 Y-72.21789
G01 X-140.47770 Y-72.13252
G01 X-140.66998 Y-72.09427
G01 X-140.96261 Y-72.06544
G01 X-141.06065 Y-72.06061
G01 X-143.31065 Y-72.06061
G01 X-146.31065 Y-72.06061
G01 X-148.56064 Y-72.06061
G01 X-148.65866 Y-72.06544
G01 X-148.95129 Y-72.09427
G01 X-149.14357 Y-72.13252
G01 X-149.42497 Y-72.21789
G01 X-149.60603 Y-72.29290
G01 X-149.86536 Y-72.43150
G01 X-149.94956 Y-72.48195
G01 X-150.02838 Y-72.54042
G01 X-150.25568 Y-72.72696
G01 X-150.32840 Y-72.79287
G01 X-150.39431 Y-72.86559
G01 X-150.58085 Y-73.09289
G01 X-150.63932 Y-73.17171
G01 X-150.68977 Y-73.25591
G01 X-150.82837 Y-73.51525
G01 X-150.90338 Y-73.69627
G01 X-150.98875 Y-73.97765
G01 X-151.01260 Y-74.07288
G01 X-151.02700 Y-74.16996
G01 X-151.05583 Y-74.46261
G01 X-151.06066 Y-74.56066
G01 X-151.06066 Y-103.06065
G01 X-151.05583 Y-103.15867
G01 X-151.02700 Y-103.45128
G01 X-150.98878 Y-103.64351
G01 X-150.90343 Y-103.92491
G01 X-150.87036 Y-104.01732
G01 X-150.82837 Y-104.10607
G01 X-150.77102 Y-104.21338
G01 X-150.68974 Y-104.36543
G01 X-150.58090 Y-104.52829
G01 X-150.39437 Y-104.75565
G01 X-150.32843 Y-104.82842
G01 X-150.25568 Y-104.89433
G01 X-150.02838 Y-105.08087
G01 X-149.94956 Y-105.13934
G01 X-149.86536 Y-105.18978
G01 X-149.60603 Y-105.32839
G01 X-149.51733 Y-105.37033
G01 X-149.42492 Y-105.40340
G01 X-149.14354 Y-105.48877
G01 X-148.95131 Y-105.52699
G01 X-148.65866 Y-105.55582
G01 X-148.56064 Y-105.56065
G01 X-146.31065 Y-105.56065
G01 X-143.31065 Y-105.56065
G01 X-141.06065 Y-105.56065
G01 X-140.96261 Y-105.55582
G01 X-140.66998 Y-105.52699
G01 X-140.47777 Y-105.48877
G01 X-140.19637 Y-105.40340
G01 X-140.10391 Y-105.37033
G01 X-140.01511 Y-105.32834
G01 X-139.75580 Y-105.18971
G01 X-139.59291 Y-105.08084
G01 X-139.36561 Y-104.89430
G01 X-139.22700 Y-104.75570
G01 X-139.04044 Y-104.52842
G01 X-138.98197 Y-104.44955
G01 X-138.93150 Y-104.36535
G01 X-138.79289 Y-104.10601
G01 X-138.71788 Y-103.92499
G01 X-138.63251 Y-103.64361
G01 X-138.60866 Y-103.54836
G01 X-138.59426 Y-103.45123
G01 X-138.56546 Y-103.15859
G01 X-138.56063 Y-103.06065
G01 X-138.56063 Y-91.10977
G01 X-138.54628 Y-90.96405
G01 X-138.51811 Y-90.87114
G01 X-138.47234 Y-90.78554
G01 X-138.41075 Y-90.71049
G01 X-138.33572 Y-90.64892
G01 X-138.25012 Y-90.60315
G01 X-138.15725 Y-90.57498
G01 X-138.01156 Y-90.56065
G01 X-130.56065 Y-90.56065
G01 X-130.46260 Y-90.55583
G01 X-130.16997 Y-90.52700
G01 X-130.07287 Y-90.51260
G01 X-129.97767 Y-90.48874
G01 X-129.69629 Y-90.40338
G01 X-129.51526 Y-90.32837
G01 X-129.25593 Y-90.18976
G01 X-129.17173 Y-90.13932
G01 X-129.09291 Y-90.08085
G01 X-128.86560 Y-89.89431
G01 X-128.72700 Y-89.75573
G01 X-128.54043 Y-89.52842
G01 X-128.48196 Y-89.44958
G01 X-128.43149 Y-89.36535
G01 X-128.29289 Y-89.10602
G01 X-128.25092 Y-89.01732
G01 X-128.21785 Y-88.92492
G01 X-128.13251 Y-88.64354
G01 X-128.09428 Y-88.45131
G01 X-128.06545 Y-88.15868
G01 X-128.06063 Y-88.06066
G01 Z-0.80000 F240.00000 ( plunge. )
G04 P0 ( dwell for no time -- G64 should not smooth over this point )
G01 F880.00000
G01 X-128.06063 Y-79.06065
G01 X-128.06545 Y-78.96261
G01 X-128.09428 Y-78.66997
G01 X-128.13251 Y-78.47774
G01 X-128.21785 Y-78.19636
G01 X-128.25092 Y-78.10396
G01 X-128.29289 Y-78.01526
G01 X-128.43149 Y-77.75593
G01 X-128.48196 Y-77.67170
G01 X-128.54043 Y-77.59286
G01 X-128.72700 Y-77.36556
G01 X-128.86555 Y-77.22700
G01 X-129.09286 Y-77.04044
G01 X-129.17170 Y-76.98196
G01 X-129.25593 Y-76.93149
G01 X-129.51526 Y-76.79289
G01 X-129.60396 Y-76.75093
G01 X-129.69636 Y-76.71786
G01 X-129.97774 Y-76.63251
G01 X-130.16997 Y-76.59428
G01 X-130.46260 Y-76.56546
G01 X-130.56065 Y-76.56063
G01 X-138.01151 Y-76.56063
G01 X-138.15720 Y-76.54628
G01 X-138.25012 Y-76.51811
G01 X-138.33577 Y-76.47234
G01 X-138.41077 Y-76.41077
G01 X-138.47234 Y-76.33576
G01 X-138.51811 Y-76.25011
G01 X-138.54628 Y-76.15720
G01 X-138.56063 Y-76.01151
G01 X-138.56063 Y-74.56066
G01 X-138.56546 Y-74.46269
G01 X-138.59426 Y-74.17003
G01 X-138.60866 Y-74.07290
G01 X-138.63251 Y-73.97765
G01 X-138.71788 Y-73.69627
G01 X-138.79289 Y-73.51525
G01 X-138.93150 Y-73.25591
G01 X-138.98197 Y-73.17168
G01 X-139.04044 Y-73.09284
G01 X-139.22700 Y-72.86554
G01 X-139.36561 Y-72.72696
G01 X-139.59291 Y-72.54042
G01 X-139.75588 Y-72.43150
G01 X-140.01519 Y-72.29290
G01 X-140.19629 Y-72.21789
G01 X-140.47770 Y-72.13252
G01 X-140.66998 Y-72.09427
G01 X-140.96261 Y-72.06544
G01 X-141.06065 Y-72.06061
G01 X-143.31065 Y-72.06061
G01 X-146.31065 Y-72.06061
G01 X-148.56064 Y-72.06061
G01 X-148.65866 Y-72.06544
G01 X-148.95129 Y-72.09427
G01 X-149.14357 Y-72.13252
G01 X-149.42497 Y-72.21789
G01 X-149.60603 Y-72.29290
G01 X-149.86536 Y-72.43150
G01 X-149.94956 Y-72.48195
G01 X-150.02838 Y-72.54042
G01 X-150.25568 Y-72.72696
G01 X-150.32840 Y-72.79287
G01 X-150.39431 Y-72.86559
G01 X-150.58085 Y-73.09289
G01 X-150.63932 Y-73.17171
G01 X-150.68977 Y-73.25591
G01 X-150.82837 Y-73.51525
G01 X-150.90338 Y-73.69627
G01 X-150.98875 Y-73.97765
G01 X-151.01260 Y-74.07288
G01 X-151.02700 Y-74.16996
G01 X-151.05583 Y-74.46261
G01 X-151.06066 Y-74.56066
G01 X-151.06066 Y-103.06065
G01 X-151.05583 Y-103.15867
G01 X-151.02700 Y-103.45128
G01 X-150.98878 Y-103.64351
G01 X-150.90343 Y-103.92491
G01 X-150.87036 Y-104.01732
G01 X-150.82837 Y-104.10607
G01 X-150.77102 Y-104.21338
G01 X-150.68974 Y-104.36543
G01 X-150.58090 Y-104.52829
G01 X-150.39437 Y-104.75565
G01 X-150.32843 Y-104.82842
G01 X-150.25568 Y-104.89433
G01 X-150.02838 Y-105.08087
G01 X-149.94956 Y-105.13934
G01 X-149.86536 Y-105.18978
G01 X-149.60603 Y-105.32839
G01 X-149.51733 Y-105.37033
G01 X-149.42492 Y-105.40340
G01 X-149.14354 Y-105.48877
G01 X-148.95131 Y-105.52699
G01 X-148.65866 Y-105.55582
G01 X-148.56064 Y-105.56065
G01 X-146.31065 Y-105.56065
G01 X-143.31065 Y-105.56065
G01 X-141.06065 Y-105.56065
G01 X-140.96261 Y-105.55582
G01 X-140.66998 Y-105.52699
G01 X-140.47777 Y-105.48877
G01 X-140.19637 Y-105.40340
G01 X-140.10391 Y-105.37033
G01 X-140.01511 Y-105.32834
G01 X-139.75580 Y-105.18971
G01 X-139.59291 Y-105.08084
G01 X-139.36561 Y-104.89430
G01 X-139.22700 Y-104.75570
G01 X-139.04044 Y-104.52842
G01 X-138.98197 Y-104.44955
G01 X-138.93150 Y-104.36535
G01 X-138.79289 Y-104.10601
G01 X-138.71788 Y-103.92499
G01 X-138.63251 Y-103.64361
G01 X-138.60866 Y-103.54836
G01 X-138.59426 Y-103.45123
G01 X-138.56546 Y-103.15859
G01 X-138.56063 Y-103.06065
G01 X-138.56063 Y-91.10977
G01 X-138.54628 Y-90.96405
G01 X-138.51811 Y-90.87114
G01 X-138.47234 Y-90.78554
G01 X-138.41075 Y-90.71049
G01 X-138.33572 Y-90.64892
G01 X-138.25012 Y-90.60315
G01 X-138.15725 Y-90.57498
G01 X-138.01156 Y-90.56065
G01 X-130.56065 Y-90.56065
G01 X-130.46260 Y-90.55583
G01 X-130.16997 Y-90.52700
G01 X-130.07287 Y-90.51260
G01 X-129.97767 Y-90.48874
G01 X-129.69629 Y-90.40338
G01 X-129.51526 Y-90.32837
G01 X-129.25593 Y-90.18976
G01 X-129.17173 Y-90.13932
G01 X-129.09291 Y-90.08085
G01 X-128.86560 Y-89.89431
G01 X-128.72700 Y-89.75573
G01 X-128.54043 Y-89.52842
G01 X-128.48196 Y-89.44958
G01 X-128.43149 Y-89.36535
G01 X-128.29289 Y-89.10602
G01 X-128.25092 Y-89.01732
G01 X-128.21785 Y-88.92492
G01 X-128.13251 Y-88.64354
G01 X-128.09428 Y-88.45131
G01 X-128.06545 Y-88.15868
G01 X-128.06063 Y-88.06066
G01 Z-1.20000 F240.00000 ( plunge. )
G04 P0 ( dwell for no time -- G64 should not smooth over this point )
G01 F880.00000
G01 X-128.06063 Y-79.06065
G01 X-128.06545 Y-78.96261
G01 X-128.09428 Y-78.66997
G01 X-128.13251 Y-78.47774
G01 X-128.21785 Y-78.19636
G01 X-128.25092 Y-78.10396
G01 X-128.29289 Y-78.01526
G01 X-128.43149 Y-77.75593
G01 X-128.48196 Y-77.67170
G01 X-128.54043 Y-77.59286
G01 X-128.72700 Y-77.36556
G01 X-128.86555 Y-77.22700
G01 X-129.09286 Y-77.04044
G01 X-129.17170 Y-76.98196
G01 X-129.25593 Y-76.93149
G01 X-129.51526 Y-76.79289
G01 X-129.60396 Y-76.75093
G01 X-129.69636 Y-76.71786
G01 X-129.97774 Y-76.63251
G01 X-130.16997 Y-76.59428
G01 X-130.46260 Y-76.56546
G01 X-130.56065 Y-76.56063
G01 X-138.01151 Y-76.56063
G01 X-138.15720 Y-76.54628
G01 X-138.25012 Y-76.51811
G01 X-138.33577 Y-76.47234
G01 X-138.41077 Y-76.41077
G01 X-138.47234 Y-76.33576
G01 X-138.51811 Y-76.25011
G01 X-138.54628 Y-76.15720
G01 X-138.56063 Y-76.01151
G01 X-138.56063 Y-74.56066
G01 X-138.56546 Y-74.46269
G01 X-138.59426 Y-74.17003
G01 X-138.60866 Y-74.07290
G01 X-138.63251 Y-73.97765
G01 X-138.71788 Y-73.69627
G01 X-138.79289 Y-73.51525
G01 X-138.93150 Y-73.25591
G01 X-138.98197 Y-73.17168
G01 X-139.04044 Y-73.09284
G01 X-139.22700 Y-72.86554
G01 X-139.36561 Y-72.72696
G01 X-139.59291 Y-72.54042
G01 X-139.75588 Y-72.43150
G01 X-140.01519 Y-72.29290
G01 X-140.19629 Y-72.21789
G01 X-140.47770 Y-72.13252
G01 X-140.66998 Y-72.09427
G01 X-140.96261 Y-72.06544
G01 X-141.06065 Y-72.06061
G01 X-143.31065 Y-72.06061
G01 X-146.31065 Y-72.06061
G01 X-148.56064 Y-72.06061
G01 X-148.65866 Y-72.06544
G01 X-148.95129 Y-72.09427
G01 X-149.14357 Y-72.13252
G01 X-149.42497 Y-72.21789
G01 X-149.60603 Y-72.29290
G01 X-149.86536 Y-72.43150
G01 X-149.94956 Y-72.48195
G01 X-150.02838 Y-72.54042
G01 X-150.25568 Y-72.72696
G01 X-150.32840 Y-72.79287
G01 X-150.39431 Y-72.86559
G01 X-150.58085 Y-73.09289
G01 X-150.63932 Y-73.17171
G01 X-150.68977 Y-73.25591
G01 X-150.82837 Y-73.51525
G01 X-150.90338 Y-73.69627
G01 X-150.98875 Y-73.97765
G01 X-151.01260 Y-74.07288
G01 X-151.02700 Y-74.16996
G01 X-151.05583 Y-74.46261
G01 X-151.06066 Y-74.56066
G01 X-151.06066 Y-103.06065
G01 X-151.05583 Y-103.15867
G01 X-151.02700 Y-103.45128
G01 X-150.98878 Y-103.64351
G01 X-150.90343 Y-103.92491
G01 X-150.87036 Y-104.01732
G01 X-150.82837 Y-104.10607
G01 X-150.77102 Y-104.21338
G01 X-150.68974 Y-104.36543
G01 X-150.58090 Y-104.52829
G01 X-150.39437 Y-104.75565
G01 X-150.32843 Y-104.82842
G01 X-150.25568 Y-104.89433
G01 X-150.02838 Y-105.08087
G01 X-149.94956 Y-105.13934
G01 X-149.86536 Y-105.18978
G01 X-149.60603 Y-105.32839
G01 X-149.51733 Y-105.37033
G01 X-149.42492 Y-105.40340
G01 X-149.14354 Y-105.48877
G01 X-148.95131 Y-105.52699
G01 X-148.65866 Y-105.55582
G01 X-148.56064 Y-105.56065
G01 X-146.31065 Y-105.56065
G01 X-143.31065 Y-105.56065
G01 X-141.06065 Y-105.56065
G01 X-140.96261 Y-105.55582
G01 X-140.66998 Y-105.52699
G01 X-140.47777 Y-105.48877
G01 X-140.19637 Y-105.40340
G01 X-140.10391 Y-105.37033
G01 X-140.01511 Y-105.32834
G01 X-139.75580 Y-105.18971
G01 X-139.59291 Y-105.08084
G01 X-139.36561 Y-104.89430
G01 X-139.22700 Y-104.75570
G01 X-139.04044 Y-104.52842
G01 X-138.98197 Y-104.44955
G01 X-138.93150 Y-104.36535
G01 X-138.79289 Y-104.10601
G01 X-138.71788 Y-103.92499
G01 X-138.63251 Y-103.64361
G01 X-138.60866 Y-103.54836
G01 X-138.59426 Y-103.45123
G01 X-138.56546 Y-103.15859
G01 X-138.56063 Y-103.06065
G01 X-138.56063 Y-91.10977
G01 X-138.54628 Y-90.96405
G01 X-138.51811 Y-90.87114
G01 X-138.47234 Y-90.78554
G01 X-138.41075 Y-90.71049
G01 X-138.33572 Y-90.64892
G01 X-138.25012 Y-90.60315
G01 X-138.15725 Y-90.57498
G01 X-138.01156 Y-90.56065
G01 X-130.56065 Y-90.56065
G01 X-130.46260 Y-90.55583
G01 X-130.16997 Y-90.52700
G01 X-130.07287 Y-90.51260
G01 X-129.97767 Y-90.48874
G01 X-129.69629 Y-90.40338
G01 X-129.51526 Y-90.32837
G01 X-129.25593 Y-90.18976
G01 X-129.17173 Y-90.13932
G01 X-129.09291 Y-90.08085
G01 X-128.86560 Y-89.89431
G01 X-128.72700 Y-89.75573
G01 X-128.54043 Y-89.52842
G01 X-128.48196 Y-89.44958
G01 X-128.43149 Y-89.36535
G01 X-128.29289 Y-89.10602
G01 X-128.25092 Y-89.01732
G01 X-128.21785 Y-88.92492
G01 X-128.13251 Y-88.64354
G01 X-128.09428 Y-88.45131
G01 X-128.06545 Y-88.15868
G01 X-128.06063 Y-88.06066
G01 Z-1.60000 F240.00000 ( plunge. )
G04 P0 ( dwell for no time -- G64 should not smooth over this point )
G01 F880.00000
G01 X-128.06063 Y-79.06065
G01 X-128.06545 Y-78.96261
G01 X-128.09428 Y-78.66997
G01 X-128.13251 Y-78.47774
G01 X-128.21785 Y-78.19636
G01 X-128.25092 Y-78.10396
G01 X-128.29289 Y-78.01526
G01 X-128.43149 Y-77.75593
G01 X-128.48196 Y-77.67170
G01 X-128.54043 Y-77.59286
G01 X-128.72700 Y-77.36556
G01 X-128.86555 Y-77.22700
G01 X-129.09286 Y-77.04044
G01 X-129.17170 Y-76.98196
G01 X-129.25593 Y-76.93149
G01 X-129.51526 Y-76.79289
G01 X-129.60396 Y-76.75093
G01 X-129.69636 Y-76.71786
G01 X-129.97774 Y-76.63251
G01 X-130.16997 Y-76.59428
G01 X-130.46260 Y-76.56546
G01 X-130.56065 Y-76.56063
G01 X-138.01151 Y-76.56063
G01 X-138.15720 Y-76.54628
G01 X-138.25012 Y-76.51811
G01 X-138.33577 Y-76.47234
G01 X-138.41077 Y-76.41077
G01 X-138.47234 Y-76.33576
G01 X-138.51811 Y-76.25011
G01 X-138.54628 Y-76.15720
G01 X-138.56063 Y-76.01151
G01 X-138.56063 Y-74.56066
G01 X-138.56546 Y-74.46269
G01 X-138.59426 Y-74.17003
G01 X-138.60866 Y-74.07290
G01 X-138.63251 Y-73.97765
G01 X-138.71788 Y-73.69627
G01 X-138.79289 Y-73.51525
G01 X-138.93150 Y-73.25591
G01 X-138.98197 Y-73.17168
G01 X-139.04044 Y-73.09284
G01 X-139.22700 Y-72.86554
G01 X-139.36561 Y-72.72696
G01 X-139.59291 Y-72.54042
G01 X-139.75588 Y-72.43150
G01 X-140.01519 Y-72.29290
G01 X-140.19629 Y-72.21789
G01 X-140.47770 Y-72.13252
G01 X-140.66998 Y-72.09427
G01 X-140.96261 Y-72.06544
G01 X-141.06065 Y-72.06061
G01 X-143.31065 Y-72.06061
G00 Z-1.20000
G01 X-146.31065 Y-72.06061
G01 Z-1.60000 F240.00000
G01 F880.00000
G01 X-148.56064 Y-72.06061
G01 X-148.65866 Y-72.06544
G01 X-148.95129 Y-72.09427
G01 X-149.14357 Y-72.13252
G01 X-149.42497 Y-72.21789
G01 X-149.60603 Y-72.29290
G01 X-149.86536 Y-72.43150
G01 X-149.94956 Y-72.48195
G01 X-150.02838 Y-72.54042
G01 X-150.25568 Y-72.72696
G01 X-150.32840 Y-72.79287
G01 X-150.39431 Y-72.86559
G01 X-150.58085 Y-73.09289
G01 X-150.63932 Y-73.17171
G01 X-150.68977 Y-73.25591
G01 X-150.82837 Y-73.51525
G01 X-150.90338 Y-73.69627
G01 X-150.98875 Y-73.97765
G01 X-151.01260 Y-74.07288
G01 X-151.02700 Y-74.16996
G01 X-151.05583 Y-74.46261
G01 X-151.06066 Y-74.56066
G01 X-151.06066 Y-103.06065
G01 X-151.05583 Y-103.15867
G01 X-151.02700 Y-103.45128
G01 X-150.98878 Y-103.64351
G01 X-150.90343 Y-103.92491
G01 X-150.87036 Y-104.01732
G01 X-150.82837 Y-104.10607
G01 X-150.77102 Y-104.21338
G01 X-150.68974 Y-104.36543
G01 X-150.58090 Y-104.52829
G01 X-150.39437 Y-104.75565
G01 X-150.32843 Y-104.82842
G01 X-150.25568 Y-104.89433
G01 X-150.02838 Y-105.08087
G01 X-149.94956 Y-105.13934
G01 X-149.86536 Y-105.18978
G01 X-149.60603 Y-105.32839
G01 X-149.51733 Y-105.37033
G01 X-149.42492 Y-105.40340
G01 X-149.14354 Y-105.48877
G01 X-148.95131 Y-105.52699
G01 X-148.65866 Y-105.55582
G01 X-148.56064 Y-105.56065
G01 X-146.31065 Y-105.56065
G00 Z-1.20000
G01 X-143.31065 Y-105.56065
G01 Z-1.60000 F240.00000
G01 F880.00000
G01 X-141.06065 Y-105.56065
G01 X-140.96261 Y-105.55582
G01 X-140.66998 Y-105.52699
G01 X-140.47777 Y-105.48877
G01 X-140.19637 Y-105.40340
G01 X-140.10391 Y-105.37033
G01 X-140.01511 Y-105.32834
G01 X-139.75580 Y-105.18971
G01 X-139.59291 Y-105.08084
G01 X-139.36561 Y-104.89430
G01 X-139.22700 Y-104.75570
G01 X-139.04044 Y-104.52842
G01 X-138.98197 Y-104.44955
G01 X-138.93150 Y-104.36535
G01 X-138.79289 Y-104.10601
G01 X-138.71788 Y-103.92499
G01 X-138.63251 Y-103.64361
G01 X-138.60866 Y-103.54836
G01 X-138.59426 Y-103.45123
G01 X-138.56546 Y-103.15859
G01 X-138.56063 Y-103.06065
G01 X-138.56063 Y-91.10977
G01 X-138.54628 Y-90.96405
G01 X-138.51811 Y-90.87114
G01 X-138.47234 Y-90.78554
G01 X-138.41075 Y-90.71049
G01 X-138.33572 Y-90.64892
G01 X-138.25012 Y-90.60315
G01 X-138.15725 Y-90.57498
G01 X-138.01156 Y-90.56065
G01 X-130.56065 Y-90.56065
G01 X-130.46260 Y-90.55583
G01 X-130.16997 Y-90.52700
G01 X-130.07287 Y-90.51260
G01 X-129.97767 Y-90.48874
G01 X-129.69629 Y-90.40338
G01 X-129.51526 Y-90.32837
G01 X-129.25593 Y-90.18976
G01 X-129.17173 Y-90.13932
G01 X-129.09291 Y-90.08085
G01 X-128.86560 Y-89.89431
G01 X-128.72700 Y-89.75573
G01 X-128.54043 Y-89.52842
G01 X-128.48196 Y-89.44958
G01 X-128.43149 Y-89.36535
G01 X-128.29289 Y-89.10602
G01 X-128.25092 Y-89.01732
G01 X-128.21785 Y-88.92492
G01 X-128.13251 Y-88.64354
G01 X-128.09428 Y-88.45131
G01 X-128.06545 Y-88.15868
G01 X-128.06063 Y-88.06066
G04 P0 ( dwell for no time -- G64 should not smooth over this point )
G00 Z0.30000 ( retract )

G00 X-114.99997 Y-106.99999 ( rapid move to begin. )
G01 Z-0.40000 F240.00000 ( plunge. )
G04 P0 ( dwell for no time -- G64 should not smooth over this point )
G01 F880.00000
G01 X-114.99997 Y-78.50000
G01 X-115.00480 Y-78.40203
G01 X-115.03360 Y-78.10939
G01 X-115.04800 Y-78.01229
G01 X-115.07186 Y-77.91704
G01 X-115.15722 Y-77.63563
G01 X-115.23223 Y-77.45458
G01 X-115.37084 Y-77.19525
G01 X-115.42131 Y-77.11102
G01 X-115.47978 Y-77.03218
G01 X-115.66634 Y-76.80488
G01 X-115.80495 Y-76.66629
G01 X-116.03225 Y-76.47976
G01 X-116.19522 Y-76.37084
G01 X-116.45453 Y-76.23223
G01 X-116.63563 Y-76.15723
G01 X-116.91704 Y-76.07186
G01 X-117.01229 Y-76.04801
G01 X-117.10939 Y-76.03360
G01 X-117.40203 Y-76.00480
G01 X-117.49999 Y-75.99998
G01 X-119.74999 Y-75.99998
G01 X-122.74999 Y-75.99998
G01 X-124.99998 Y-75.99998
G01 X-125.09792 Y-76.00480
G01 X-125.39055 Y-76.03360
G01 X-125.48766 Y-76.04801
G01 X-125.58291 Y-76.07186
G01 X-125.86432 Y-76.15723
G01 X-126.04537 Y-76.23223
G01 X-126.30470 Y-76.37084
G01 X-126.38890 Y-76.42128
G01 X-126.46772 Y-76.47976
G01 X-126.69502 Y-76.66629
G01 X-126.76774 Y-76.73221
G01 X-126.83366 Y-76.80493
G01 X-127.02019 Y-77.03223
G01 X-127.07866 Y-77.11105
G01 X-127.12911 Y-77.19525
G01 X-127.26772 Y-77.45458
G01 X-127.34272 Y-77.63563
G01 X-127.42809 Y-77.91704
G01 X-127.45194 Y-78.01229
G01 X-127.46634 Y-78.10939
G01 X-127.49515 Y-78.40203
G01 X-127.49997 Y-78.50000
G01 X-127.49997 Y-90.45085
G01 X-127.51432 Y-90.59654
G01 X-127.54249 Y-90.68946
G01 X-127.58826 Y-90.77510
G01 X-127.64983 Y-90.85011
G01 X-127.72484 Y-90.91168
G01 X-127.81046 Y-90.95743
G01 X-127.90340 Y-90.98562
G01 X-128.04912 Y-90.99997
G01 X-135.49998 Y-90.99997
G01 X-135.59793 Y-91.00480
G01 X-135.89056 Y-91.03360
G01 X-135.98766 Y-91.04800
G01 X-136.08291 Y-91.07185
G01 X-136.36432 Y-91.15722
G01 X-136.54542 Y-91.23223
G01 X-136.80473 Y-91.37084
G01 X-136.88891 Y-91.42131
G01 X-136.96775 Y-91.47978
G01 X-137.19505 Y-91.66634
G01 X-137.33361 Y-91.80490
G01 X-137.52017 Y-92.03220
G01 X-137.57864 Y-92.11104
G01 X-137.62911 Y-92.19522
G01 X-137.76772 Y-92.45453
G01 X-137.84273 Y-92.63563
G01 X-137.92810 Y-92.91704
G01 X-137.95195 Y-93.01229
G01 X-137.96635 Y-93.10939
G01 X-137.99515 Y-93.40202
G01 X-137.99998 Y-93.49999
G01 X-137.99998 Y-102.50000
G01 X-137.99515 Y-102.59794
G01 X-137.96635 Y-102.89057
G01 X-137.95195 Y-102.98770
G01 X-137.92810 Y-103.08295
G01 X-137.84273 Y-103.36431
G01 X-137.76772 Y-103.54536
G01 X-137.62911 Y-103.80469
G01 X-137.57864 Y-103.88892
G01 X-137.52017 Y-103.96776
G01 X-137.33361 Y-104.19507
G01 X-137.19500 Y-104.33365
G01 X-137.11177 Y-104.40198
G01 X-136.96770 Y-104.52019
G01 X-136.80473 Y-104.62910
G01 X-136.54542 Y-104.76771
G01 X-136.36432 Y-104.84269
G01 X-136.08291 Y-104.92806
G01 X-135.89063 Y-104.96631
G01 X-135.59800 Y-104.99517
G01 X-135.49998 Y-104.99999
G01 X-128.04907 Y-104.99999
G01 X-127.90335 Y-105.01432
G01 X-127.81049 Y-105.04249
G01 X-127.72489 Y-105.08826
G01 X-127.64986 Y-105.14983
G01 X-127.58826 Y-105.22488
G01 X-127.54249 Y-105.31048
G01 X-127.51432 Y-105.40340
G01 X-127.49997 Y-105.54912
G01 X-127.49997 Y-106.99999
G01 X-127.49515 Y-107.09793
G01 X-127.46634 Y-107.39056
G01 X-127.45194 Y-107.48769
G01 X-127.42809 Y-107.58294
G01 X-127.34272 Y-107.86433
G01 X-127.26772 Y-108.04535
G01 X-127.12911 Y-108.30469
G01 X-127.07866 Y-108.38889
G01 X-127.02019 Y-108.46770
G01 X-126.83366 Y-108.69501
G01 X-126.76774 Y-108.76773
G01 X-126.69502 Y-108.83364
G01 X-126.46772 Y-109.02018
G01 X-126.30478 Y-109.12907
G01 X-126.04544 Y-109.26770
G01 X-125.95667 Y-109.30969
G01 X-125.86424 Y-109.34276
G01 X-125.58283 Y-109.42810
G01 X-125.39063 Y-109.46633
G01 X-125.09800 Y-109.49516
G01 X-124.99998 Y-109.49998
G01 X-122.74999 Y-109.49998
G01 X-119.74999 Y-109.49998
G01 X-117.49999 Y-109.49998
G01 X-117.40195 Y-109.49516
G01 X-117.10932 Y-109.46633
G01 X-116.91711 Y-109.42810
G01 X-116.63571 Y-109.34276
G01 X-116.54328 Y-109.30969
G01 X-116.45450 Y-109.26770
G01 X-116.19517 Y-109.12907
G01 X-116.03223 Y-109.02018
G01 X-115.80492 Y-108.83364
G01 X-115.73220 Y-108.76773
G01 X-115.66629 Y-108.69501
G01 X-115.47975 Y-108.46770
G01 X-115.42128 Y-108.38889
G01 X-115.37084 Y-108.30469
G01 X-115.23223 Y-108.04535
G01 X-115.15722 Y-107.86433
G01 X-115.07186 Y-107.58294
G01 X-115.04800 Y-107.48769
G01 X-115.03360 Y-107.39056
G01 X-115.00480 Y-107.09793
G01 X-114.99997 Y-106.99999
G01 Z-0.80000 F240.00000 ( plunge. )
G04 P0 ( dwell for no time -- G64 should not smooth over this point )
G01 F880.00000
G01 X-114.99997 Y-78.50000
G01 X-115.00480 Y-78.40203
G01 X-115.03360 Y-78.10939
G01 X-115.04800 Y-78.01229
G01 X-115.07186 Y-77.91704
G01 X-115.15722 Y-77.63563
G01 X-115.23223 Y-77.45458
G01 X-115.37084 Y-77.19525
G01 X-115.42131 Y-77.11102
G01 X-115.47978 Y-77.03218
G01 X-115.66634 Y-76.80488
G01 X-115.80495 Y-76.66629
G01 X-116.03225 Y-76.47976
G01 X-116.19522 Y-76.37084
G01 X-116.45453 Y-76.23223
G01 X-116.63563 Y-76.15723
G01 X-116.91704 Y-76.07186
G01 X-117.01229 Y-76.04801
G01 X-117.10939 Y-76.03360
G01 X-117.40203 Y-76.00480
G01 X-117.49999 Y-75.99998
G01 X-119.74999 Y-75.99998
G01 X-122.74999 Y-75.99998
G01 X-124.99998 Y-75.99998
G01 X-125.09792 Y-76.00480
G01 X-125.39055 Y-76.03360
G01 X-125.48766 Y-76.04801
G01 X-125.58291 Y-76.07186
G01 X-125.86432 Y-76.15723
G01 X-126.04537 Y-76.23223
G01 X-126.30470 Y-76.37084
G01 X-126.38890 Y-76.42128
G01 X-126.46772 Y-76.47976
G01 X-126.69502 Y-76.66629
G01 X-126.76774 Y-76.73221
G01 X-126.83366 Y-76.80493
G01 X-127.02019 Y-77.03223
G01 X-127.07866 Y-77.11105
G01 X-127.12911 Y-77.19525
G01 X-127.26772 Y-77.45458
G01 X-127.34272 Y-77.63563
G01 X-127.42809 Y-77.91704
G01 X-127.45194 Y-78.01229
G01 X-127.46634 Y-78.10939
G01 X-127.49515 Y-78.40203
G01 X-127.49997 Y-78.50000
G01 X-127.49997 Y-90.45085
G01 X-127.51432 Y-90.59654
G01 X-127.54249 Y-90.68946
G01 X-127.58826 Y-90.77510
G01 X-127.64983 Y-90.85011
G01 X-127.72484 Y-90.91168
G01 X-127.81046 Y-90.95743
G01 X-127.90340 Y-90.98562
G01 X-128.04912 Y-90.99997
G01 X-135.49998 Y-90.99997
G01 X-135.59793 Y-91.00480
G01 X-135.89056 Y-91.03360
G01 X-135.98766 Y-91.04800
G01 X-136.08291 Y-91.07185
G01 X-136.36432 Y-91.15722
G01 X-136.54542 Y-91.23223
G01 X-136.80473 Y-91.37084
G01 X-136.88891 Y-91.42131
G01 X-136.96775 Y-91.47978
G01 X-137.19505 Y-91.66634
G01 X-137.33361 Y-91.80490
G01 X-137.52017 Y-92.03220
G01 X-137.57864 Y-92.11104
G01 X-137.62911 Y-92.19522
G01 X-137.76772 Y-92.45453
G01 X-137.84273 Y-92.63563
G01 X-137.92810 Y-92.91704
G01 X-137.95195 Y-93.01229
G01 X-137.96635 Y-93.10939
G01 X-137.99515 Y-93.40202
G01 X-137.99998 Y-93.49999
G01 X-137.99998 Y-102.50000
G01 X-137.99515 Y-102.59794
G01 X-137.96635 Y-102.89057
G01 X-137.95195 Y-102.98770
G01 X-137.92810 Y-103.08295
G01 X-137.84273 Y-103.36431
G01 X-137.76772 Y-103.54536
G01 X-137.62911 Y-103.80469
G01 X-137.57864 Y-103.88892
G01 X-137.52017 Y-103.96776
G01 X-137.33361 Y-104.19507
G01 X-137.19500 Y-104.33365
G01 X-137.11177 Y-104.40198
G01 X-136.96770 Y-104.52019
G01 X-136.80473 Y-104.62910
G01 X-136.54542 Y-104.76771
G01 X-136.36432 Y-104.84269
G01 X-136.08291 Y-104.92806
G01 X-135.89063 Y-104.96631
G01 X-135.59800 Y-104.99517
G01 X-135.49998 Y-104.99999
G01 X-128.04907 Y-104.99999
G01 X-127.90335 Y-105.01432
G01 X-127.81049 Y-105.04249
G01 X-127.72489 Y-105.08826
G01 X-127.64986 Y-105.14983
G01 X-127.58826 Y-105.22488
G01 X-127.54249 Y-105.31048
G01 X-127.51432 Y-105.40340
G01 X-127.49997 Y-105.54912
G01 X-127.49997 Y-106.99999
G01 X-127.49515 Y-107.09793
G01 X-127.46634 Y-107.39056
G01 X-127.45194 Y-107.48769
G01 X-127.42809 Y-107.58294
G01 X-127.34272 Y-107.86433
G01 X-127.26772 Y-108.04535
G01 X-127.12911 Y-108.30469
G01 X-127.07866 Y-108.38889
G01 X-127.02019 Y-108.46770
G01 X-126.83366 Y-108.69501
G01 X-126.76774 Y-108.76773
G01 X-126.69502 Y-108.83364
G01 X-126.46772 Y-109.02018
G01 X-126.30478 Y-109.12907
G01 X-126.04544 Y-109.26770
G01 X-125.95667 Y-109.30969
G01 X-125.86424 Y-109.34276
G01 X-125.58283 Y-109.42810
G01 X-125.39063 Y-109.46633
G01 X-125.09800 Y-109.49516
G01 X-124.99998 Y-109.49998
G01 X-122.74999 Y-109.49998
G01 X-119.74999 Y-109.49998
G01 X-117.49999 Y-109.49998
G01 X-117.40195 Y-109.49516
G01 X-117.10932 Y-109.46633
G01 X-116.91711 Y-109.42810
G01 X-116.63571 Y-109.34276
G01 X-116.54328 Y-109.30969
G01 X-116.45450 Y-109.26770
G01 X-116.19517 Y-109.12907
G01 X-116.03223 Y-109.02018
G01 X-115.80492 Y-108.83364
G01 X-115.73220 Y-108.76773
G01 X-115.66629 Y-108.69501
G01 X-115.47975 Y-108.46770
G01 X-115.42128 Y-108.38889
G01 X-115.37084 Y-108.30469
G01 X-115.23223 Y-108.04535
G01 X-115.15722 Y-107.86433
G01 X-115.07186 Y-107.58294
G01 X-115.04800 Y-107.48769
G01 X-115.03360 Y-107.39056
G01 X-115.00480 Y-107.09793
G01 X-114.99997 Y-106.99999
G01 Z-1.20000 F240.00000 ( plunge. )
G04 P0 ( dwell for no time -- G64 should not smooth over this point )
G01 F880.00000
G01 X-114.99997 Y-78.50000
G01 X-115.00480 Y-78.40203
G01 X-115.03360 Y-78.10939
G01 X-115.04800 Y-78.01229
G01 X-115.07186 Y-77.91704
G01 X-115.15722 Y-77.63563
G01 X-115.23223 Y-77.45458
G01 X-115.37084 Y-77.19525
G01 X-115.42131 Y-77.11102
G01 X-115.47978 Y-77.03218
G01 X-115.66634 Y-76.80488
G01 X-115.80495 Y-76.66629
G01 X-116.03225 Y-76.47976
G01 X-116.19522 Y-76.37084
G01 X-116.45453 Y-76.23223
G01 X-116.63563 Y-76.15723
G01 X-116.91704 Y-76.07186
G01 X-117.01229 Y-76.04801
G01 X-117.10939 Y-76.03360
G01 X-117.40203 Y-76.00480
G01 X-117.49999 Y-75.99998
G01 X-119.74999 Y-75.99998
G01 X-122.74999 Y-75.99998
G01 X-124.99998 Y-75.99998
G01 X-125.09792 Y-76.00480
G01 X-125.39055 Y-76.03360
G01 X-125.48766 Y-76.04801
G01 X-125.58291 Y-76.07186
G01 X-125.86432 Y-76.15723
G01 X-126.04537 Y-76.23223
G01 X-126.30470 Y-76.37084
G01 X-126.38890 Y-76.42128
G01 X-126.46772 Y-76.47976
G01 X-126.69502 Y-76.66629
G01 X-126.76774 Y-76.73221
G01 X-126.83366 Y-76.80493
G01 X-127.02019 Y-77.03223
G01 X-127.07866 Y-77.11105
G01 X-127.12911 Y-77.19525
G01 X-127.26772 Y-77.45458
G01 X-127.34272 Y-77.63563
G01 X-127.42809 Y-77.91704
G01 X-127.45194 Y-78.01229
G01 X-127.46634 Y-78.10939
G01 X-127.49515 Y-78.40203
G01 X-127.49997 Y-78.50000
G01 X-127.49997 Y-90.45085
G01 X-127.51432 Y-90.59654
G01 X-127.54249 Y-90.68946
G01 X-127.58826 Y-90.77510
G01 X-127.64983 Y-90.85011
G01 X-127.72484 Y-90.91168
G01 X-127.81046 Y-90.95743
G01 X-127.90340 Y-90.98562
G01 X-128.04912 Y-90.99997
G01 X-135.49998 Y-90.99997
G01 X-135.59793 Y-91.00480
G01 X-135.89056 Y-91.03360
G01 X-135.98766 Y-91.04800
G01 X-136.08291 Y-91.07185
G01 X-136.36432 Y-91.15722
G01 X-136.54542 Y-91.23223
G01 X-136.80473 Y-91.37084
G01 X-136.88891 Y-91.42131
G01 X-136.96775 Y-91.47978
G01 X-137.19505 Y-91.66634
G01 X-137.33361 Y-91.80490
G01 X-137.52017 Y-92.03220
G01 X-137.57864 Y-92.11104
G01 X-137.62911 Y-92.19522
G01 X-137.76772 Y-92.45453
G01 X-137.84273 Y-92.63563
G01 X-137.92810 Y-92.91704
G01 X-137.95195 Y-93.01229
G01 X-137.96635 Y-93.10939
G01 X-137.99515 Y-93.40202
G01 X-137.99998 Y-93.49999
G01 X-137.99998 Y-102.50000
G01 X-137.99515 Y-102.59794
G01 X-137.96635 Y-102.89057
G01 X-137.95195 Y-102.98770
G01 X-137.92810 Y-103.08295
G01 X-137.84273 Y-103.36431
G01 X-137.76772 Y-103.54536
G01 X-137.62911 Y-103.80469
G01 X-137.57864 Y-103.88892
G01 X-137.52017 Y-103.96776
G01 X-137.33361 Y-104.19507
G01 X-137.19500 Y-104.33365
G01 X-137.11177 Y-104.40198
G01 X-136.96770 Y-104.52019
G01 X-136.80473 Y-104.62910
G01 X-136.54542 Y-104.76771
G01 X-136.36432 Y-104.84269
G01 X-136.08291 Y-104.92806
G01 X-135.89063 Y-104.96631
G01 X-135.59800 Y-104.99517
G01 X-135.49998 Y-104.99999
G01 X-128.04907 Y-104.99999
G01 X-127.90335 Y-105.01432
G01 X-127.81049 Y-105.04249
G01 X-127.72489 Y-105.08826
G01 X-127.64986 Y-105.14983
G01 X-127.58826 Y-105.22488
G01 X-127.54249 Y-105.31048
G01 X-127.51432 Y-105.40340
G01 X-127.49997 Y-105.54912
G01 X-127.49997 Y-106.99999
G01 X-127.49515 Y-107.09793
G01 X-127.46634 Y-107.39056
G01 X-127.45194 Y-107.48769
G01 X-127.42809 Y-107.58294
G01 X-127.34272 Y-107.86433
G01 X-127.26772 Y-108.04535
G01 X-127.12911 Y-108.30469
G01 X-127.07866 Y-108.38889
G01 X-127.02019 Y-108.46770
G01 X-126.83366 Y-108.69501
G01 X-126.76774 Y-108.76773
G01 X-126.69502 Y-108.83364
G01 X-126.46772 Y-109.02018
G01 X-126.30478 Y-109.12907
G01 X-126.04544 Y-109.26770
G01 X-125.95667 Y-109.30969
G01 X-125.86424 Y-109.34276
G01 X-125.58283 Y-109.42810
G01 X-125.39063 Y-109.46633
G01 X-125.09800 Y-109.49516
G01 X-124.99998 Y-109.49998
G01 X-122.74999 Y-109.49998
G01 X-119.74999 Y-109.49998
G01 X-117.49999 Y-109.49998
G01 X-117.40195 Y-109.49516
G01 X-117.10932 Y-109.46633
G01 X-116.91711 Y-109.42810
G01 X-116.63571 Y-109.34276
G01 X-116.54328 Y-109.30969
G01 X-116.45450 Y-109.26770
G01 X-116.19517 Y-109.12907
G01 X-116.03223 Y-109.02018
G01 X-115.80492 Y-108.83364
G01 X-115.73220 Y-108.76773
G01 X-115.66629 Y-108.69501
G01 X-115.47975 Y-108.46770
G01 X-115.42128 Y-108.38889
G01 X-115.37084 Y-108.30469
G01 X-115.23223 Y-108.04535
G01 X-115.15722 Y-107.86433
G01 X-115.07186 Y-107.58294
G01 X-115.04800 Y-107.48769
G01 X-115.03360 Y-107.39056
G01 X-115.00480 Y-107.09793
G01 X-114.99997 Y-106.99999
G01 Z-1.60000 F240.00000 ( plunge. )
G04 P0 ( dwell for no time -- G64 should not smooth over this point )
G01 F880.00000
G01 X-114.99997 Y-78.50000
G01 X-115.00480 Y-78.40203
G01 X-115.03360 Y-78.10939
G01 X-115.04800 Y-78.01229
G01 X-115.07186 Y-77.91704
G01 X-115.15722 Y-77.63563
G01 X-115.23223 Y-77.45458
G01 X-115.37084 Y-77.19525
G01 X-115.42131 Y-77.11102
G01 X-115.47978 Y-77.03218
G01 X-115.66634 Y-76.80488
G01 X-115.80495 Y-76.66629
G01 X-116.03225 Y-76.47976
G01 X-116.19522 Y-76.37084
G01 X-116.45453 Y-76.23223
G01 X-116.63563 Y-76.15723
G01 X-116.91704 Y-76.07186
G01 X-117.01229 Y-76.04801
G01 X-117.10939 Y-76.03360
G01 X-117.40203 Y-76.00480
G01 X-117.49999 Y-75.99998
G01 X-119.74999 Y-75.99998
G00 Z-1.20000
G01 X-122.74999 Y-75.99998
G01 Z-1.60000 F240.00000
G01 F880.00000
G01 X-124.99998 Y-75.99998
G01 X-125.09792 Y-76.00480
G01 X-125.39055 Y-76.03360
G01 X-125.48766 Y-76.04801
G01 X-125.58291 Y-76.07186
G01 X-125.86432 Y-76.15723
G01 X-126.04537 Y-76.23223
G01 X-126.30470 Y-76.37084
G01 X-126.38890 Y-76.42128
G01 X-126.46772 Y-76.47976
G01 X-126.69502 Y-76.66629
G01 X-126.76774 Y-76.73221
G01 X-126.83366 Y-76.80493
G01 X-127.02019 Y-77.03223
G01 X-127.07866 Y-77.11105
G01 X-127.12911 Y-77.19525
G01 X-127.26772 Y-77.45458
G01 X-127.34272 Y-77.63563
G01 X-127.42809 Y-77.91704
G01 X-127.45194 Y-78.01229
G01 X-127.46634 Y-78.10939
G01 X-127.49515 Y-78.40203
G01 X-127.49997 Y-78.50000
G01 X-127.49997 Y-90.45085
G01 X-127.51432 Y-90.59654
G01 X-127.54249 Y-90.68946
G01 X-127.58826 Y-90.77510
G01 X-127.64983 Y-90.85011
G01 X-127.72484 Y-90.91168
G01 X-127.81046 Y-90.95743
G01 X-127.90340 Y-90.98562
G01 X-128.04912 Y-90.99997
G01 X-135.49998 Y-90.99997
G01 X-135.59793 Y-91.00480
G01 X-135.89056 Y-91.03360
G01 X-135.98766 Y-91.04800
G01 X-136.08291 Y-91.07185
G01 X-136.36432 Y-91.15722
G01 X-136.54542 Y-91.23223
G01 X-136.80473 Y-91.37084
G01 X-136.88891 Y-91.42131
G01 X-136.96775 Y-91.47978
G01 X-137.19505 Y-91.66634
G01 X-137.33361 Y-91.80490
G01 X-137.52017 Y-92.03220
G01 X-137.57864 Y-92.11104
G01 X-137.62911 Y-92.19522
G01 X-137.76772 Y-92.45453
G01 X-137.84273 Y-92.63563
G01 X-137.92810 Y-92.91704
G01 X-137.95195 Y-93.01229
G01 X-137.96635 Y-93.10939
G01 X-137.99515 Y-93.40202
G01 X-137.99998 Y-93.49999
G01 X-137.99998 Y-102.50000
G01 X-137.99515 Y-102.59794
G01 X-137.96635 Y-102.89057
G01 X-137.95195 Y-102.98770
G01 X-137.92810 Y-103.08295
G01 X-137.84273 Y-103.36431
G01 X-137.76772 Y-103.54536
G01 X-137.62911 Y-103.80469
G01 X-137.57864 Y-103.88892
G01 X-137.52017 Y-103.96776
G01 X-137.33361 Y-104.19507
G01 X-137.19500 Y-104.33365
G01 X-137.11177 Y-104.40198
G01 X-136.96770 Y-104.52019
G01 X-136.80473 Y-104.62910
G01 X-136.54542 Y-104.76771
G01 X-136.36432 Y-104.84269
G01 X-136.08291 Y-104.92806
G01 X-135.89063 Y-104.96631
G01 X-135.59800 Y-104.99517
G01 X-135.49998 Y-104.99999
G01 X-128.04907 Y-104.99999
G01 X-127.90335 Y-105.01432
G01 X-127.81049 Y-105.04249
G01 X-127.72489 Y-105.08826
G01 X-127.64986 Y-105.14983
G01 X-127.58826 Y-105.22488
G01 X-127.54249 Y-105.31048
G01 X-127.51432 Y-105.40340
G01 X-127.49997 Y-105.54912
G01 X-127.49997 Y-106.99999
G01 X-127.49515 Y-107.09793
G01 X-127.46634 Y-107.39056
G01 X-127.45194 Y-107.48769
G01 X-127.42809 Y-107.58294
G01 X-127.34272 Y-107.86433
G01 X-127.26772 Y-108.04535
G01 X-127.12911 Y-108.30469
G01 X-127.07866 Y-108.38889
G01 X-127.02019 Y-108.46770
G01 X-126.83366 Y-108.69501
G01 X-126.76774 Y-108.76773
G01 X-126.69502 Y-108.83364
G01 X-126.46772 Y-109.02018
G01 X-126.30478 Y-109.12907
G01 X-126.04544 Y-109.26770
G01 X-125.95667 Y-109.30969
G01 X-125.86424 Y-109.34276
G01 X-125.58283 Y-109.42810
G01 X-125.39063 Y-109.46633
G01 X-125.09800 Y-109.49516
G01 X-124.99998 Y-109.49998
G01 X-122.74999 Y-109.49998
G00 Z-1.20000
G01 X-119.74999 Y-109.49998
G01 Z-1.60000 F240.00000
G01 F880.00000
G01 X-117.49999 Y-109.49998
G01 X-117.40195 Y-109.49516
G01 X-117.10932 Y-109.46633
G01 X-116.91711 Y-109.42810
G01 X-116.63571 Y-109.34276
G01 X-116.54328 Y-109.30969
G01 X-116.45450 Y-109.26770
G01 X-116.19517 Y-109.12907
G01 X-116.03223 Y-109.02018
G01 X-115.80492 Y-108.83364
G01 X-115.73220 Y-108.76773
G01 X-115.66629 Y-108.69501
G01 X-115.47975 Y-108.46770
G01 X-115.42128 Y-108.38889
G01 X-115.37084 Y-108.30469
G01 X-115.23223 Y-108.04535
G01 X-115.15722 Y-107.86433
G01 X-115.07186 Y-107.58294
G01 X-115.04800 Y-107.48769
G01 X-115.03360 Y-107.39056
G01 X-115.00480 Y-107.09793
G01 X-114.99997 Y-106.99999

G04 P0 ( dwell for no time -- G64 should not smooth over this point )
G00 Z50.000000 ( retract )

M5 ( Spindle off. )
G04 P1.000000
M9 ( Coolant off. )
M2 ( Program end. )

